rohith-poola/MR/Project1/data/mppi_kuka_20250415_123311.csv
joint_0,joint_1,joint_2,joint_3,joint_4,joint_5,joint_6
0.0015296287341811268,0.0005020360525637505,-0.0056332584222210935,-0.0011904275584973566,0.003424664593314015,0.004304516498562455,0.004626159392512223
-0.00023120335435856628,0.00277647841769259,-0.005046817449582258,-0.0030576476835261195,-0.0015737613954252545,0.0034911901603817148,-0.011145545322108055
0.0004973290726280146,0.008134571754416134,-5.0144261477883494e-05,-0.0036182180916306097,0.006617983311562839,-0.0012391336628523003,-0.0034044189785777056
-0.009297134732312431,0.008695678227373618,0.0008611910254414685,0.0011590805686871879,-0.00553652811921509,0.007112499999803159,-0.00023357867505392077
0.0018529005422303663,0.00416066075956723,0.0015115932302610974,0.00043540682085580753,-0.00040644201509754444,-0.00013085102165589883,0.00990855076795508
0.00033748121675723574,0.0034476663919060144,0.001793788081667447,-0.012314982272730167,0.0053113632564403815,0.0052408206352038775,0.0074637403635149585
0.003169021083932369,-0.004425006910469271,0.008811498996865895,-0.004121201166527112,-0.0019597401432369394,-0.0030241269072834305,0.0021177962336421776
0.0002598257185520143,0.006579544010942336,0.0006701528872244138,0.00011869843769809314,0.0031357603917279643,-0.0032840178088231332,-0.00027312249886074047
0.010776712301046163,0.012224232779604889,-0.0009020801802058026,-0.00549161428038083,0.00472702164340937,0.00640957217221657,-0.0049814103268061224
-0.0002525375175286249,0.012185955628641623,-0.0005801594272585565,-0.004356938801022683,0.005214791372759077,0.006245172803441764,0.005598608292204162
-0.004203603609865932,-0.0016162320713840506,0.0037851790975693654,0.0027583831159263893,-8.305127886028518e-05,-0.0026266618055492503,-0.0016559879312913087
0.002902665750401406,0.008372569364640314,-0.0002800992644546151,-0.0020329587117519747,0.0038271206169503283,0.0006432462555476237,-0.0038487956814577096
0.0045503399183046585,0.008982952324054615,-0.009945532425648438,-0.004320605554897716,-0.0003589759952402828,-0.0008038935135362891,0.0012534280262921052
-0.001810607640232146,0.011598615216733717,-0.001955974528961073,-0.012778330437028688,0.0026378307362870546,0.004002046586315118,-0.006008758860549878
0.0031773681050816507,0.0024136364240153647,0.0009872084137360856,0.007117775302925731,-0.013517892750336259,-0.002567248275205103,0.012329356789822162
-0.005792601132504127,0.00467596132416977,-0.002779409135711706,-0.005020075508657625,-0.003726860126592748,0.00134232521216489,0.010291193540860935
-0.003989254811608441,0.012265168631753275,0.003752803972494453,-0.006780223279336677,-0.004855825754084172,0.0026755930404602076,-0.002734734753419451
0.00534180680020001,0.009988847104950764,0.008303630521198023,0.0018061232992210546,-0.00011162339987715449,0.008075992977862996,0.0023507543231102873
0.0023571071541097113,-0.0014541802709219915,-0.003549214744868762,-0.010964971948822427,0.003661334139696052,-0.005655067318612857,0.001357336248133661
0.004647915569268577,0.019413082040222417,0.004228619071475083,-0.006361984489289651,0.007619990709230224,0.0010887948329306207,0.0049716749371178075
0.004588150470969195,0.012513321648201377,0.0018824236690850138,-0.00093972505670546,-0.004981656893157165,0.0074477724860523885,-0.0015213401799749086
0.008131224808217721,0.0035396808617507796,0.005333289793173321,-0.0030954464651317274,-0.008204843150190322,0.001779547831436467,-0.0037139908690700667
0.0038806968817009816,0.009144186532679413,-0.0011204606411202539,0.0013619318923190115,-0.009066130556032899,-0.0035736440195165285,-0.005120242055690193
0.0010277210528346677,0.007195029187556159,0.0009398015747559663,0.0066879790613238455,-0.009253952720720311,-0.0016399841649100925,-0.004267344965627416
-0.006699351663901293,0.005449112827900574,-0.0013370427904780906,-0.020254615269578235,0.0011318947532238403,0.0012407605116530932,-0.003639638877235568
-0.001594844601358132,0.005606452228534541,0.0055314550214019195,-0.006457239094392103,0.007436301556438333,0.0055369804208757,-0.0034139610038982277
0.001304176948604503,0.0008289425730565284,-0.004726340760478108,-0.006367022159823901,-0.004136964341332754,0.0043371680137914296,-0.009374961501182952
-0.004119137635859328,0.004482325904209996,0.007419548465237096,0.00015883116910527526,0.0032791457003524442,-0.0007202592180795128,0.0002880608897137068
-0.00792336368917446,0.0029268487173551606,-0.0029670440079383495,-0.0048258831335776095,0.0064293888635920966,-0.0017315265670268603,0.0009692614494588448
0.01090184544244022,0.005244064630723653,0.0061089517008763704,-0.005770579900717273,0.0037087696710098937,-0.0015564273367611398,0.0003716295918802041
0.008155054647898688,-0.00453897078395156,-4.276815461927517e-05,0.006052446463838198,-0.006088677525732346,0.0033372584735592388,-0.002744600308213584
-0.002823768517565839,-0.00366724384204415,0.0010372044802296459,-0.001780552205604689,0.0077691147612725595,-0.008956164046845615,0.0007789199102481138
0.0010928684986253384,0.011498575647748394,-0.004988661743104914,-0.00047148925025952985,-0.0008849641166596922,-0.003457327846800224,0.001033943354853761
0.0071554252314305344,0.009639584609624337,0.0002565978300339885,-0.007733905091413873,0.0013710015309003917,0.0007975383916904774,-0.007043963864025796
0.006514278852256714,0.009049753477369561,0.0006898981276355812,0.0012938760122271978,0.008348029347207488,-0.0003488893253982162,-0.005949752325451747
0.0025823779567132237,0.009181546383798866,0.0059826122685534815,-0.004795273160703491,0.0032553818949607647,-0.006593012740995791,0.004093018397100902
0.004611442777390819,0.008251030694123081,0.0028386952445875486,-0.012003237320913093,-0.001306406095431081,-0.006803853427612974,0.0028704727917320985
-0.003836061584948176,0.0076478581429202394,0.008859691235285926,-0.0008724034278590739,-0.0026626259018895544,0.00010165127822145777,-0.003027271264140866
0.009010521923669166,-4.283390086717056e-05,0.003347759054667572,-0.013764127869065446,0.0033991461061584766,-0.0010150639235839923,0.0058289652810798055
-0.004943384138296968,-0.002129522538912793,-0.0021629985020642176,-0.004991850228301843,0.001996013792642739,-0.0036003437520640775,0.0011902541301854997
0.0009290293048720611,0.002712875135505788,0.0009483609280705893,-0.00177355898038737,-0.0011613716208181994,-0.002282093025143624,0.0004624675906059883
-0.0029515296818641394,0.005855557039291998,0.0020058684787311563,-0.0028379312035258656,0.0018154081158293135,0.005100047103146152,-0.003311081017005081
-0.0013425702395992813,0.01162824995462001,-0.0014258106714737432,-0.005085922617325929,-0.0024287323934986736,-0.002782091659167292,-0.009004543717500124
-0.0009889677025178279,0.004042287081569568,-0.004076346221306337,0.006842920784643129,-0.0024719923421806524,0.0036622707234229067,0.006835430968376024
-0.005055013539542539,0.002278920584132638,0.00703377799426827,0.010315481719583665,-0.003032301192860568,0.002040171150827301,-0.0014997911232304778
0.0002852347320142382,0.0025271076146178907,0.00940027922955599,0.000804745380421898,-0.0038612614461151183,0.002961374844028892,-0.006495000134118803
-0.004484038974530604,0.006799164746106519,0.006475725725561344,0.004440328511792679,0.0033468905784500287,0.002721600590221398,-0.007042425948694485
-0.0034812530254122987,0.012229313903612777,-0.0026554581208567867,-0.008241207302256016,0.0028827932036019355,0.004925262885534429,0.002801217848975325
0.013103778108261898,0.004301703519102751,-0.0030750418078228656,-0.016224794091754903,0.012502871886696076,-0.003588151068335765,-0.005037748703472701
-0.003155538799659684,0.004943834043710705,-0.008531758633320142,-0.00940860678252278,-5.389811332371703e-05,0.011401648659165674,-0.00231138854331924
-0.00034739214204964773,0.007442513343515155,-0.006279266299734704,-0.007401002003493608,-0.000615797660587699,-0.004975001328858583,-0.0011532679988058919
-0.003236087932198628,0.0006193874087867708,-0.003092446927555945,-0.0033515880451980887,-0.0003322746922152712,0.008931599874814754,0.0036679947056530043
0.004773278437598984,0.006689962779773704,-0.007922148783572194,-0.0013450976723199414,-0.00241175832302352,-0.004741662396754643,-0.0058117013002396654
0.003254256331969629,-0.001784431908260188,-0.00694391750727407,-0.00730500820441784,0.0004131584511901154,-0.001288533953911169,0.005057944814591195
-0.006258503743131326,-0.00470994915741337,-0.003747097071275104,-0.011132585467454758,0.006367000547905814,0.0033901669971034675,-0.00147397674595071
-0.0063613266373427155,0.009857568978220663,-0.0073604750941870835,0.009550212018107069,-0.005151313161901981,0.003558025602789533,-0.00041898457503000437
0.002264181896302051,0.016112396171589667,-0.0010832078459728322,0.006552701217379266,-0.006381021352725774,0.005765887514499967,0.006505424109320686
-0.004874135764351335,0.010978755984988063,-0.0006920004670398978,-0.00714818693580047,0.002781264007783265,0.0074421588428138456,-0.002116288535787669
-0.013013637562293184,0.00010730332424440059,0.0024832647241936783,-0.00492104754490882,-0.004292207646910684,-0.0018110732485672831,0.004104890831470113
0.0038796063251380097,0.008295878162336023,0.0033680821173790085,-0.006117049553349597,0.0005792238106962375,0.0024426340034247053,0.002542714475209703
-0.011325883647772365,0.012741737377034684,0.0033078822886594295,-0.005136374833851664,0.0002683989809206173,0.001460921496163514,3.007382601558259e-05
0.009078733265500166,0.003040415858786019,-0.0012350658485126573,-0.006214521777001253,-0.00845648320056604,0.0063697536525114725,-0.007732423035522292
0.004830786112174085,0.002932221170714424,0.003051255148570128,-0.0006652887680366911,-0.007258914694022655,-0.001286944040032678,0.001423618804151023
0.004074255217961086,0.005486820645777447,0.0007847467840106783,0.006018582205859134,-0.011678006162923278,0.003811604862123448,0.0018310666598868987
-0.000897546788653317,-0.0011033924164692028,0.0037438293206217867,-0.010424498009291686,0.00517324024773195,-0.0023548259245582317,0.003686383206014148
0.003968281760617579,0.011327624615776374,0.00034394589253099953,-0.0076999204376324275,-0.010025047620455392,0.008148704599164142,-0.0009501485007666419
0.006632291306675218,0.0025456675103807383,0.0040068869519714655,-0.0028471287682102324,-0.011343728423792677,0.0014057100302154915,0.0008415082848901179
-8.02015029738864e-05,0.009611756027320126,0.00220750532071288,-0.0052103719402879145,0.00327723272617939,-0.0025369516382289107,0.0013553337905769032
0.006152409287603044,0.00274606709586552,0.002786510127780723,-0.0018467156817869557,0.0017162548951079456,0.01086353738185282,-0.004897484559251766
0.0046487353101101435,0.013183650412803226,0.0005374126285664829,-0.006716384955782659,-0.0013284500613025105,-0.0011284043213511412,0.0021128735069323944
0.005012225426263844,0.004553823499924399,0.01301806220140639,0.0008993685672191013,-0.0010205184746188763,-2.908544036626587e-05,-0.0020595149063692784
-0.004331666098804425,0.005187663059842385,-0.0069280979349859145,-0.0033451591469000545,-0.0027957549164859476,0.0018758861518519579,-0.0007552717947485455
0.009162872774614198,0.00369262854500751,-0.0005323342624009562,-0.012228470093506229,-0.007532619196089049,-0.007811177778449072,-0.002091870751689852
0.0027755806936427692,0.0033204063194432294,0.009173690776791112,-0.014752822866544092,-0.00291745204489933,-0.0003914317320812791,-0.0017482159574702554
0.0025209795216026972,-0.0030747046849693227,0.006478028622495037,-0.005004071555147966,-0.0003728617290584569,-0.01238507073730086,-0.0008875345848424305
-0.008743088974078272,0.0030168607855671666,0.0010853399441053927,-0.008226775149744257,-0.0006988989293582428,-0.0007602819441883441,-0.00452308864377736
0.015381684209732177,-0.00048442062984229377,-0.001801199929595751,-0.005248076460182451,-0.0001358914006163525,0.0026352976076910737,-0.0011880512036586126
-0.003291900414320571,0.0013519703967948455,-0.0025828373014530896,-0.0024569143730375077,0.005396486901583314,0.005907911742680692,-0.005827299911540812
-0.0004603626856056134,0.0073402201386822885,-0.001518235376354986,-0.006209210537696792,-8.508155620823472e-06,0.007588746425509884,-0.008956555734168252
0.010415993363953848,0.014352628008882541,0.004866568912680743,-0.005707058951253604,-0.003294857330909615,-0.008990106659398023,-0.0008509519363223073
0.0006396468694599639,-0.0052143507499938626,0.006400025145346577,-0.003959920208585222,-0.002918959618758675,-0.002795799206558613,0.007664604346735513
0.014329672675300276,4.791524622600393e-05,0.0013281124628933617,-0.00600700170036259,0.006684437026260477,-0.0007191411254549049,0.007566464255917512
-0.004054907682684598,0.00387695419865237,0.004249098152459111,0.006718504373359771,0.001576425359313113,0.008830540315797244,0.008832643475753762
-0.004209428712206775,0.007859857981337901,-0.00031270607403347846,-0.00742428311347042,-0.008686561065384126,0.0015585097906298106,0.0009722278352995108
-0.0024582879292280473,0.007291550262811334,-0.0029176780904506166,0.0035419629599185024,-0.006595824393213684,0.005352537855336112,0.0025065929811901007
4.396689628231371e-05,0.009264835014033532,0.0023002299179869616,-0.0001625019010957407,0.0096996184870868,-0.00591257697310211,-0.004214595437229919
-0.010830776381921054,0.01196951293003691,-0.00451323049746047,-0.004673778499525455,0.0009539443125698821,0.0011367350339758356,0.0037822584137383714
0.007666250976322502,0.0003841648761305407,0.0009900744051030406,-0.0030248775285199184,-0.004180352879810154,-0.0013059242758301673,0.004524439292932636
0.013118598198510936,0.002859504562945806,0.0005376061316974938,-0.005272079759764142,-0.004144822364046244,0.009827126132022941,0.003524295722922666
-0.0031240313032844893,0.012013055986968266,0.0078959686249299,-0.008178551823974062,-0.0031991771001525933,-0.008065661848707835,-0.005214951141858018
8.369065343698042e-05,0.005744920286681528,0.002789985270935014,-0.002965774434630324,0.004128207199277825,-0.0014800201612682794,0.0032011000721023516
-0.004276551960221479,0.004088985072260937,0.0033807025444390322,-0.007810355167611397,-0.004836845522979323,0.0016446681857082588,-0.004348121544393331
-0.003121341060913946,0.010733923223003228,-0.006142313522122735,-0.004562457111796818,-0.001135985598917966,0.002582544558416661,0.008686517965752262
-0.005635205721720221,0.004960114929181864,-0.002016982570800493,-0.002308239917065722,-0.002960074810574837,0.00625129692498566,0.0010558693540269812
0.0010079968295536213,0.008651044613839007,-0.0020002829945298816,-0.004585594131906118,0.0023516288469789663,-0.0006468579478542802,0.006132979863024677
0.0017174949167563635,0.0036779504162464532,0.010809602497540078,3.137845265129859e-05,0.00010439402950773117,0.004288547835094874,-0.0009965136855619454
0.0006130696531836024,-1.0187147575229722e-05,0.0014490958510003768,-0.00417825260917451,-0.003000174423820899,-0.000889911260112569,0.003524817455786524
-0.006634888861318691,0.004395656770841579,-0.006764283098188295,-0.00169224240823169,-0.001442605830149532,-0.011947791739341794,0.004295851985804751
-0.001531622399087587,0.0003013824947218968,-0.003915419190297301,-0.002675066183061775,0.006736868999209037,-0.009564818793522467,0.0005463591069879895
0.0022236924049930168,0.005182476029316346,-0.01023921738667336,-0.0054587347083678486,-0.008788488675540513,-0.004124422192943424,0.0013251952684391216
-0.003804878528653327,0.013107220639788865,0.001083876361045122,-0.005675561742069641,0.013179499878141663,-0.009975707177900474,-0.0016827221629067508
-0.005734403237993736,0.004176708391336658,-0.0023099514789291535,-0.008321827857553645,-0.0016607858809243254,0.008051206081576686,0.001366606389514853
-0.001148062447783231,0.00866439781028109,-0.0029045282617875525,-0.0016537184176818502,0.007025167809490138,0.002336838090094099,-0.002329556862458942
3.178602886209106e-05,0.009220111246530055,0.002214112537872428,0.011543510451910434,-0.006429762858186483,0.0020394918537540666,0.0034084440749078547
-0.0008215225716617276,0.007027193390885367,0.0060043854348065945,-0.008621017380503455,0.0005412171912200676,-0.001986035982704839,0.006263057469075953
0.0023165469927097426,0.008863031016203674,0.0065489679590914,-0.009683765421605638,0.004191316346479791,-0.0006388760599472089,0.004273604026909413
0.0003865214268332432,0.0109572193688984,0.0027885475058676682,-0.005471709252006922,0.0046905200654353,0.0033764509523949394,-0.0006562808490520397
0.00434146972414279,0.004516091948866478,0.0009357992160151853,-0.0011735428809995028,0.0014545918484875433,-0.004889999031838752,-0.0037726381828369336
-0.007343600348728698,0.0066440097717443474,-0.0022794959974620417,-0.00524655690791049,-0.004272971937838366,0.013622722550014616,-0.0031960174422573716
-0.0015746180408893534,0.0024873489344487292,-0.005777336282690764,-0.0056332762949230395,0.0050798243547875875,-0.0012426487736367496,0.00200203730095852
0.009868523217153443,0.005309882520502053,0.002152266107894106,-0.0005392081157537401,0.0008311233733401033,0.0054024395872615295,0.0003634193331010847
-0.008463135955724675,0.007013598142756352,-0.005517144682533024,-0.003067436624636629,0.011810897447863943,-0.010237172818653564,0.003006711895487192
0.010715507154181741,-0.0007748467155364576,-7.569214700084774e-05,-0.00020349445794127336,-0.00031417193686685484,0.0033881767514657665,0.007630584690274756
0.0036367471773288036,0.006393606447962215,0.0044596452517358725,3.834209191538418e-05,0.002269506150472389,0.0063989217286508195,0.0010343808019254307
0.0015576948616061064,-0.0014207413819744604,-0.0011076831521250597,-0.0018556079837497518,-0.003369074737639457,0.0024497425729541338,0.008477320447440453
-0.00196638954327416,0.012818139438293304,-0.0011288389757473614,0.0008464819339350242,0.005866528670913947,-0.007098668315834,0.004320715254501298
-0.005482289921725926,0.0059198125090378995,0.0017272099661871311,-0.014068438613692833,0.007907972072544877,-0.002425804045259052,0.005100313320550559
-0.001987528473994373,0.006751846896248878,-0.0005226606638521389,-0.0031636985918269,0.003950964929666514,0.000460061249641879,0.010570430228844487
0.0024126409621968454,0.007201134552262939,0.005164473633234526,0.00011141826273626434,0.003661547306816451,-0.004334000980207168,-0.008027548895158654
-0.008429636396099918,0.011115778698976689,-0.001625499335382891,-0.002845493096019035,-0.008488483285363268,-0.0018126102861419594,0.0011084888499278845
0.0030634093814333172,0.008944053017692338,0.0070067070126208116,-0.011874461790666426,0.007081774870438777,-0.00013724038758086064,-0.002362653462665064
0.0014386415565726368,0.0014427266793044652,0.0050057913359726055,-0.008205160040515882,0.00967064947554715,-0.0035218451952377,-0.0037166907137006575
0.0015836434917198044,0.002515605941249073,-0.0011103862340448908,-0.0018800030213634307,-0.005196878093511252,0.008007988114911017,0.005269450717366945
0.0055607336715384585,0.004372157588911216,0.007096688882746599,-0.0009592952770940352,-0.005718793085215439,0.0036132296457924494,0.01033317222970866
0.0017035208270849492,0.0031160859871017135,0.004198687353986443,0.001241930133692718,0.007925642594137423,-0.0034755908999708892,0.003252949989300114
-0.003480811109225303,0.0008253531072635603,-0.007587778862879396,-0.0022896116449459382,-0.0032706295635685535,-0.0012776743938375567,-0.0077813824637238925
0.0020401736838319717,0.008410334398262895,-0.0015706833808196122,-0.0018930248646990954,-0.0007443333387539375,-0.007489666175368653,-0.005852430608862076
0.004920869005201342,0.0023444609911198646,-0.00012397622618271143,-0.011579711252113423,0.0010950832774381906,0.002852578939020283,0.008150942729921987
0.004622345431346665,0.00836047536465484,-0.0027227676427054853,-0.003751987885428797,0.0012580133493332029,0.00618517790069076,-0.005144472626302812
0.006121932112381721,0.0049599150804758955,0.0021741539819701687,-0.005891912394305724,0.007982569580321116,0.00832100759910315,0.002388067019576525
-0.007546795188453488,-0.0018315912767150736,-0.004571751182788179,-0.001490170228783122,-0.00820261363855814,0.005475846989020043,-0.00646217800229012
-0.003292420270021532,0.017754268334117407,-0.005675482323269143,-0.012285699258834975,0.0016376703988273261,0.0007625017735289164,-0.002416952381009792
-0.00679899988528681,0.007534047084739844,-0.004458924015696696,-0.015880742701946244,-0.008705190402487312,-0.0050346804182294595,0.0033748588870028554
-0.004025999280891681,0.006683335753657342,0.0016982691703097514,-0.006333474887841129,-0.0017819727000508052,-0.004647682220954265,0.0023276450417764136
0.008098196321508887,0.004893322392730588,0.010808608970737519,-0.0033663308037360077,-0.004014822476353743,0.008648174085193422,0.009123240928610273
0.001784325325456634,0.00015896688631009262,-0.009354920712516982,-0.0039567093859413285,0.003155097889508841,-0.005393674353967156,0.009856112022184732
-0.0012061941834094062,-0.0035910662164812613,-0.0022593120018293577,0.003565671034269515,0.006967829555577889,0.0038349759798830636,-0.005810648526172186
0.0022259905255881335,0.005510744549976032,-0.0031349380077528737,-0.001368709375310381,0.005722404078254105,-0.000782604729321608,0.007402356367103519
-0.0009857146790500867,0.005848901336911252,0.009119935025736665,0.00509146096651164,-0.002887873876389145,0.007627170607019669,0.013883618606101038
-0.0032772582061374417,0.00710308977346376,0.004531339654689239,-0.0028860337148530293,-0.004098135629650385,-0.0015510090475707632,-0.005882376252321797
0.003737101742081038,0.005840171801039526,-0.011532783436339159,-0.0017092962933374482,0.002681038071536576,0.007255138406849797,-0.00039762930151892044
-0.00031253715962247403,-0.0008944967812350075,0.008682957007234485,0.01735967907993188,-0.007565646395080968,0.0009368274254614464,0.004048852064065319
0.002921173091472954,0.012476657412342693,-0.00021737827080705078,-0.0021568478003724263,0.0037737613843170596,-0.0013107617204257337,-0.0046545797821866556
0.0066868399596653446,0.012405268157074113,-0.0033335514889531338,0.00812197137510753,0.0015746934402410169,-0.005487833239906626,0.0034790502266009693
0.0013096581744878742,0.0013834133698173003,0.01404371658152545,0.0001324584075370679,-0.0009611853234456492,-0.0014084954228456843,-0.00025369274054908865
0.002538399038655002,0.004996027127225329,-0.0011577678658227092,-0.004880172127539341,-0.0014397752823502297,-0.002960042577014845,0.0010128601531504754
0.004881527600170244,-0.0035396816840706775,-0.0014104053413540052,-0.007389093534952729,-0.007667306157900469,-0.00538036975689802,-0.005035325839365448
0.0031607772832016284,0.006655893260392997,0.0009861932678164285,0.00768999788094084,0.002467652840496925,0.011459316967184328,-0.0074805935564368166
-0.006373931788556377,0.015909335505756635,-0.0006017437740297362,0.00012063558854559788,0.0015675990948205328,0.003571931194015905,0.006694909186185791
0.005172337635314167,0.004392549174350259,-0.0005529838388912208,-0.004808950949839826,-0.005803501138700874,-0.005247149250947601,-0.0007342295270639954
0.00035685711735506135,0.011364707420734236,-0.0036935673357239465,-0.0061929726932831745,-0.0006222126067272505,0.009648068527852388,-0.0047063299038799826
-0.004782942071314752,0.0013670591494353366,0.010166784915884847,-0.004317008344064517,-0.0011449388881053964,0.006858498047140508,0.00597266057336043
0.006295799783443124,0.0018601317418045495,-0.0011524225815138789,-0.0018320574972318614,0.0023357787071939867,0.0024774087579545593,-0.003906257506712134
0.007060691203908618,0.0010746849039045677,0.0037275597377680924,-0.0042740522280866,-0.000708073629337082,0.00593624241642106,0.0008278828239381309
0.00011236259577194032,0.012691090184623494,-0.0013625790868578359,0.0014960838542039019,0.005955985125530954,-0.00631227003186637,0.009644900376837608
-0.0023822326229820346,0.0159107752007945,-0.0010957287400612387,-0.0018127655770844415,-0.00488287758092262,0.005105458910544374,0.002420501534135179
-0.002561058396948667,0.013370321373816003,0.00041398730834535076,-0.012297033309421163,5.362870870021189e-05,-0.006876241178730467,-0.0010397636652692754
-0.004733228872956627,0.010191989068414956,0.0016799524814810013,0.0023648813241344937,0.002817929559447494,-0.0005400934403653307,-0.011621654367410982
0.007632579574610955,0.0027231051780713363,-0.0002474964009807363,0.003730426115363475,-0.002710700730911878,0.012422076795418801,0.0027335814796411308
0.0008296773193252127,0.0022150772880236234,-0.005403242584964494,0.0003145187318740009,0.002362354524699957,0.00209495083811937,0.002148884589699039
-0.003349404278510259,0.004972395042108672,-0.0069008026210611775,-0.0014824403161505623,-0.009753868947635715,-0.0038912033502792602,0.0029142689338430435
0.0010910302269162206,0.01798216341274197,0.003061874392330136,-0.004969671387784589,0.0017826217839655377,-0.004068499482722646,0.0009710057856340315
-0.0006130925172791033,0.0036034040201915096,-0.004735504325092672,-0.004588385463081793,-0.002861815964588825,0.0032663036149232372,0.007047794585119626
-0.006457947020770298,0.011688210541161287,-0.013285701907354786,-0.0024194260067460565,-0.0013411716950935807,0.007673495115851704,-0.0014833843148150908
0.0075585069414763695,0.005794753325467836,0.0036595702820148668,-0.011883952962037208,-0.0021059565578016117,-0.0032304894268633784,-0.010811398929908355
-0.00011534631835693682,0.00308047719287835,-0.00045029083453155595,0.0014037430862378101,0.0009739820213201206,-0.0031275768221767962,-0.009041034500989498
0.0004849474992938253,0.0035654364949025056,-0.0008786600573494961,-0.007694338118332039,-0.0019851365872534926,0.0036020044866190066,-0.003090433001512549
-0.002235432291566158,-0.0009877595469528955,0.012789267401154533,0.004986008397987858,0.005468615979912985,0.0076958005805607445,0.006847820701025309
0.004121845346307961,0.008553734121693388,-0.001220433537399207,-0.0032678187667966913,0.005874161570091961,0.002961751693533336,-0.000977687275449017
-0.006220556153049803,0.004294367168271836,0.0071661015858959605,-0.007615580877021997,-0.002383323105529131,0.0024925079218112455,0.006278560011126174
0.0017957401538840488,0.0069297037929270154,-0.009552389391211513,-0.005734165453871188,0.0041851311620935555,5.8046043119603096e-06,0.002319910997804882
0.0022321438478497702,0.013277939893158477,0.008275519304488112,-0.011005125192070439,-0.0049530058896085265,-0.0008334703608532678,-0.0058294220629737685
-0.0006485504610410817,0.0049881768885987965,0.0038111277512283934,-0.006467063314810538,0.002447881111741248,0.0033170821693742124,-0.008436726493623075
-0.002473149375283293,0.003369002554134057,-0.015139081790787825,0.004795924823823838,0.0060825919478269845,0.0011625077491757261,-0.0013908366553523112
-0.001953888284746844,0.0030450680309818297,0.0033477782526678684,-0.007204878694590946,-0.003100184068389661,0.004072708593727239,-0.004007765586821116
0.0005248631014631033,0.0014054976700749399,0.0009431457652186631,0.009384019635957249,0.0038574682856679443,0.0007675943137833128,0.0022794733819160987
-0.0034232307009932,0.006176950321202393,0.004525467121715477,0.0010834491081694853,0.008852178857098433,-0.0025667881037360935,0.0009025498585414518
0.011955027815518611,0.0030819602642783266,-0.003446739395005001,-0.012677790542455748,0.0009410846053982306,0.004130565503382316,0.0013494736538904872
0.004301518520333958,0.008135765106998694,-0.003064381852928796,-0.010185977882682686,0.0013739033911485195,-0.002518536172799319,0.0038342007223831375
-0.0026832289066394555,0.009910437912441145,0.0013586658947529631,-0.01168480934664538,-0.004971319145439302,0.004424443273813033,-0.004684738780657202
-0.002930346484755405,0.00134641194443259,-0.0016553118871927546,-0.007124312927751213,-0.0001924817494902124,0.0019370537592424244,-0.005533414384800065
0.007897035827265626,0.0009782770787483165,-0.005068693544792046,-0.004317405383996229,-0.006143662298217177,0.00315182107547393,0.01185706720458791
0.0018957297462270288,0.002064714066224354,3.207329151522974e-05,-0.008757819269631244,0.0018115973859376205,-0.0034630644144215284,0.0031594567870745697
0.0010813054159153346,0.0038288160454238124,-0.0005279467300078392,-0.0004018268218608388,-0.005095192793561363,0.0061483141709719824,0.0028817560387286267
-0.012017056095967931,-0.0028574502813911292,0.004196162260471898,-0.002154752355617045,0.0011921520590746286,-0.004584306137582616,-0.0013003949953713724
-0.009089949674155402,0.0024317794257264114,0.011291151143939485,-0.0061657650278038175,-0.0071240554344862445,-0.0005420692106705321,-0.0014379934061500065
-0.007920534230845662,0.008313341035626661,-0.011161134881046565,-0.017259798966098052,-0.006162824282934807,0.006475462098696667,0.004476305064148365
0.0025883334967375777,0.008146146097121646,-0.01086988644046318,-0.009569048187890327,-0.00012188871088616678,0.0003006213040482347,-0.004861731011175329
-0.0067625707308028886,-0.005368068828961257,-0.003622254498158037,-0.0011758362429451221,0.002593881572521635,0.005472484582820123,0.00028290794460722723
-0.009201449164890334,0.00693462203632881,0.008948153744381654,0.004222387539040551,-0.0003265964417018184,0.003586436842145736,-0.0036726697491001182
-0.00297959301210914,0.01639892975955409,0.00224225507564411,0.0028879398366747104,0.0014481423086737109,0.0026603708058514637,-0.0037818619014320684
-0.0010211691102008584,-0.0008643211669509235,0.0003046958253907941,-0.0021509051094019817,0.0037607207827182847,-0.001944556908417049,-0.0065507695889801465
-0.009690761927591704,0.00545918739308472,0.004430317558863752,-0.008589330500480193,0.007693554446862176,0.01070458671535882,0.0046340535620365605
-0.00012139251237443542,0.0038819134652900303,0.001994339362870091,-0.006978242910675748,-0.0038266692857625833,0.006042303721180118,0.0037423477275078023
-0.005856660845241395,0.009072956867420563,0.0013873223770343882,-0.004336710026495487,-0.002350533136617158,0.0018628478931164722,0.002960046169456425
-0.00422792829953799,0.007099398487355805,-0.007114545706217312,-0.0018817924239510249,-0.0068888666381620774,0.005132476849422839,0.0017843092327763557
0.008691815128229075,-0.00554924047100125,0.002448054423990383,-0.0071096328754512265,-0.0037643181344198585,-0.003976587434610769,0.004969498792635235
-0.0023682724704612236,0.003533024090206172,0.0015581204142664285,-0.00277490982361436,-0.006586842678896191,-0.0034034723579692895,-0.006102329493290318
0.004839948460457007,0.0026178917625086498,0.0021139985175843397,-0.0029182279899486446,2.6226459844239092e-05,2.244067519559714e-05,0.004488112033229846
0.00012970097653689395,0.002996188065579711,0.004623039902346273,-0.001645347708734218,-0.0007241312888257002,-0.0014478425793401808,-0.003787863739714054
-0.0010164746099488124,0.007345260013369271,0.0010891098478475786,-0.0033225299142067293,-0.008421808188559683,0.008456123798868254,-0.0032974927785768965
-0.006202002289851061,0.00940204203612976,-0.006418046776919189,-0.008671835457772887,0.00713863958740549,0.00858616175994594,0.0006247829686446668
0.005170570032959889,0.0017689754902392944,-0.004133170416927392,-0.011611683937844366,0.010956705244582365,-0.003516199500935258,-0.0007237455849528752
-0.0021838241517177096,0.00863983571083558,0.003096480895474465,-0.008642969030536683,-0.003150237716010644,0.001383617216553776,-0.00018655791196870494
0.00025685516165132314,0.013148975170764422,-0.0012708478425387621,-0.005249022526959794,-0.0039333652658631755,0.006190091073972037,-0.0002958583961704489
-0.0014325101792414332,0.00808276021283076,0.00448316277909661,-0.011968493351859698,0.0010933975047836416,0.0022772508061897757,-0.013655052141003531
0.0007181221441047243,0.007143061328597873,0.0043001724464926455,0.002269761811696014,-0.00866355471824461,0.0018252767763845446,0.00021729319292490852
-0.005370440627765146,-0.00027742970122864437,0.007457928283671179,-0.009643205752230105,-0.003078380017785284,-0.001557398944314834,0.006695228848500797
-0.003801593079953024,0.0026691991268034923,0.009672812619676703,-0.008573333438881324,0.003730743058835607,-0.0066865815064542505,-0.001691155595907242
-0.008208708849876794,0.010394707057104657,0.0006937827137884149,0.0014882507992263995,0.001663201379353849,-0.0035258535644375113,-0.005132719997558696
0.000962035398424688,-0.0017897038865278777,-0.006153888037441281,-0.0010962104487815957,-0.007028622784750379,-0.005267227799276461,-0.00951705738405321
0.0050051549235885385,0.0031058410248154377,0.0018344187421380875,-0.002452823473501534,0.0006455965735723793,-0.0027496418410749264,-0.00915390910645976
-0.0012964251478456354,0.0008366091899518068,-0.0007756319945747027,-0.004894682471834785,0.002892010381938079,0.00427565228081295,0.004212457272598717
-0.004106542377644088,0.006179694888432294,-0.002054624917596575,-0.002434336705316156,-0.010617474604145421,0.01237897743569438,0.00028230094371569536
-0.0020294487517386727,0.009530345495410184,0.010967530376435539,-0.0009959410413887516,0.009235971049432792,-0.010983835436817588,0.00025475247605993563
-0.007662871908339119,-0.0006872160265385863,-0.0014981126935286009,-0.005998514146943454,-0.007372301385383203,-0.0018237853371325422,-0.008548766949604282
0.0017557643519646767,0.0014231993002947589,-0.0036433401349931977,-0.002123655421398613,-0.0041120124982083625,-0.0044229586836498245,0.0005486690117526479
0.005313557685062729,0.007955292690358651,-0.001703685081645155,-0.0014411861075447794,-0.005497565782665931,0.0010750629042622904,-0.010309280754255669
-0.014300774299169615,0.00025963248483807766,0.0041486705513326385,-0.002852789077758871,-0.009011189468561087,0.00545112783539947,-0.000775170327000721
0.006008521763927083,0.004994552668224973,0.0013743938667103342,0.0043479994287826595,-0.011968315410710594,0.0005770108066500347,0.007903470691718258
-0.005811643977838734,0.009693732782963493,0.008466740271316326,-0.0010844321403163286,0.0011192480524465276,-0.0007414209989634754,-0.0037572633415865805
-0.00028564422808375256,0.008280263466507513,0.002280452281499443,0.0018002295540517808,0.007305554090247604,0.011696735458328849,0.0005528538360509314
-4.540980193764948e-05,0.007075642762732934,0.00900027865687806,-0.008505374699066492,-0.004404404876391702,0.006557001330411564,0.0029068925470685856
-0.004485257055958886,0.005517611519467721,-0.004779126847520041,-0.0023809045611786076,0.00044453955831961643,-0.0038592115309655003,0.0077976296372574095
-0.0012253442722226981,-0.004715652280742968,-0.0007962357229503211,0.006717758929889465,-0.0016223092858772506,-0.00026273729040459076,-0.0035500994032309587
0.0023398265500212366,0.0062581596753683195,0.0029431630343010524,-0.0022059783499010243,0.0033837015259217526,-0.001238251800244801,-0.0025523172223542146
-0.004206704844486707,0.01069433951522697,-0.0025323275117983468,-0.0008606870423384119,-0.0050178662033814195,0.009529746770825706,0.008483377744099114
0.006204780281840074,0.01177676781936184,-0.0037479893695764877,-0.006054924667827323,-0.0011000308685761974,-0.00452858102663114,0.0015268518408496057
-0.0047561826696806645,0.0035258489843659198,-0.00042950980119655074,-0.0048154956559307285,0.0013111008324537712,0.0016408450534246759,0.004259538418721908
0.002243067940419065,0.01499378478525685,-0.0024135229248442797,-0.010635964725300186,0.0020949518886372144,0.0050156959412056105,0.000643838834242152
0.001581404053054309,0.009430965084848936,0.006691417699653711,-0.006244887421376836,0.007204871534961499,-0.006919206853673207,0.002975081473200468
-0.0007847184891113948,0.014332556265612674,0.0077026897454853475,0.000333169523743028,0.002326518495720399,0.004527839647499719,0.013274968532669153
0.007713367365472059,0.007565295279354081,0.0051995055368564665,0.0003558783623571192,-0.0004642338883175931,0.0019959123439843972,-0.0010553608822871845
-0.012515765498235295,0.014814516800435353,-0.007419877260949058,-0.00048555581045421246,-0.002083501407182534,-0.009264078477197811,-0.005577826411392704
-0.0011262424191184556,0.007400855377148603,0.0016921779818360701,-0.006975646488947689,-0.003969196320699334,0.013124665973827774,0.006142519513337824
-0.007081839183219465,0.007229029671603799,-0.0029274239457882903,-0.008717232195729166,0.0007732651575868063,0.0014078539261519034,0.0033820310894927884
-0.0025602555075612344,0.006289399873047601,0.008596345365488403,-0.0009070555811037851,-0.004162081509242878,0.007627907174430177,0.006933911053954168
0.003295404746463974,-0.005496296075249288,0.0004843462077886346,0.001513749257036277,-0.002708394802079274,-0.0025832302142536653,-0.0009112123905291346
0.008171754498929783,0.0002364728848126762,0.003234766263705707,-0.005286803657028531,0.0021725869048454653,0.0023071777545251803,0.002762572831795645
0.012243512141054692,0.009023112001244836,-0.0014831698904214494,-0.0020381108391339573,0.0061772208731623,0.0018571628500547244,0.0007379226396827809
-0.010370398389367473,0.007372001504350334,0.0026639553323241742,0.00842657626515985,-0.011436006729596989,0.0043650386627024085,-0.00684761808055167
-0.0015017565672863263,0.005059297620623041,0.013263493715759692,-0.0020965312184150126,0.004127261533333818,0.00903553488434068,-0.004183976252876179
0.0038334291626130708,-0.008010159040119522,-0.0010109046763989652,-0.006874893236639201,0.0006116965338541626,0.00868700191766811,0.007694506381452497
0.00418877612274573,0.010712038597163923,-0.005909415586111638,-0.0021593490607551323,0.0026168551110318148,-0.00629886050299339,0.001434335152455375
0.002049264798032721,0.010062766222362967,-0.0025963350287214635,-0.0020768128892374696,0.0068826061195717035,-0.001480078981981848,0.0010756359975650702
0.004016423334212338,0.012256533858503092,-0.0033193564201407285,-0.008857319995178298,0.002553340750041874,0.0077400606668185405,-0.007922412292208717
0.004915600637015445,-9.619114390488619e-05,-0.006125740924912535,0.001524931272646139,-0.01109859257678794,0.004693659478010178,-0.0003032540497489221
0.00662942609175332,0.0036737239653892146,0.00235878848008457,-0.0025271714651248036,0.0010426039257262396,0.00013714311728938545,0.002664479672182404
0.005013827499037875,0.0027243121197604104,0.0004290699306219389,-0.008393692348250595,0.0045445191161109675,0.009905107336527682,0.008969373793822236
0.003426495227902799,-0.0037167240504201184,-0.0020956157257837446,-0.008950241971794174,-0.0025283292785253223,0.00403497847497689,-0.0004169178169485439
0.00606792474922245,0.00373215141926677,-0.007441160967698509,-0.004033322329495769,-0.006155909374620527,0.0049969934274698286,0.0019363923623631225
0.0026579100762650154,0.000813103432791762,-0.007996454770865266,0.0008417893258279218,0.007289236456778168,0.012536842537141728,0.0009201107381018278
-0.008393663513475055,0.014069858475099482,0.0036055766765896013,-0.006959408307124593,0.0018208430975167511,0.004402795195353051,0.004992557504455213
-0.0002220282812042723,0.018594185157186284,0.003139551502232685,-0.009199330047522927,0.0072220297002415544,0.01162727596563585,0.0021987318170252814
-0.007538025732188632,0.0034783121690430763,0.0034627245111392476,-0.005213673959457487,0.004730866411410692,-0.004951477406818635,-0.009597121017360677
0.008099073324894982,0.005526767753574958,0.002584799657292516,-0.005580373337549081,0.0061241948839739855,-0.004122574641318917,0.0020780726927666763
0.0022616839918327813,0.0005305832580522766,0.0076482301225980365,-0.0005867731472166922,-0.004127339910999624,0.00976559513701165,0.002849199444391319
-0.0021975625701168428,-0.0012351424618438763,-0.010561777013965558,0.00013840271995920606,-0.0039785981578107504,-0.0014834634654983287,0.0019570107475664366
-0.0034956330116788868,-0.0026052895691922556,-0.0020339322289758587,0.0018431809095514607,0.005119083355730437,-0.0019895545602816593,0.002895795714347128
-0.00698540754483982,0.006459079105084356,0.00572739817146663,-0.006051567594382415,-0.0033862633076678166,0.0015187655847536754,-0.0022135768794420982
-0.00143083903432802,-0.003437504546843821,-0.006760198224207388,-0.00034243836703593987,0.0014888599475084102,0.009110012444998563,0.00349538314150999
0.0013333768544632244,0.004316106664207965,0.0011961130770616164,-0.008461507398311698,0.00047406331101522615,0.00869367345091699,-0.003069713162913263
2.3945326457767884e-05,0.01433000095134142,0.0011291639266338476,-0.009673078930313708,0.002527510435837415,-0.007435888880425819,-0.0007878188229492302
-0.004739198851803544,0.0023740219245396515,0.003667082126399147,-0.008098251481327725,-0.0027418902856995216,-0.00037767786076824746,-0.0016422593504619772
0.00311637030741924,0.0052121424823651265,-0.00276454256798944,-0.003869034503703304,0.00022075710597788855,0.0037948693711758446,0.002360270065880237
-0.004964497942233773,0.010407289706766914,-0.005535441991016193,-0.00452034911843408,0.0017585551144594785,-0.0021576384826054685,0.0003416833935622643
-0.004255227608772745,-0.0016048645073960342,0.0011279021324691804,-0.00355467439520348,-0.0033094221069546615,-0.004496038371093028,-0.0029758441308685175
-0.005566309076484892,0.003377403327242376,0.005088270009006853,-0.0105708377870383,0.00968917092518502,-0.0020428902177594987,0.0013939644284192457
0.004968277732047102,-0.0011606946075324927,0.0031442179538619702,-0.006270829854306141,-0.007361112186895243,-0.0024835350893499426,0.001997249699213711
0.013944659520671945,0.005658388753305429,-0.002589865124559352,-0.011761991864250618,0.0034884507509595295,-0.00034456566093937427,-0.005954001194794292
-0.0013296779163393666,0.005645017064799119,0.005030429924753346,-0.011272318109981302,-0.004835402181067443,-0.00555934088550611,-0.009196592197668808
-0.006654657298675605,0.006770352806567646,0.005382527801883532,-0.006878470399924387,-0.008544350893139579,0.007620196192031124,-0.006642541838992563
0.004470534939443038,0.007924523235860351,0.0016020752232262137,0.00583271378431965,0.008716774594595338,-0.001149461920642097,-0.0018094820848620326
-0.0025144230973833132,0.0036800708118221075,-0.005374562476154619,-0.0003136034887353243,0.002335048631651757,0.0019152689024105217,-0.007967290364565584
0.00387635910577876,0.008013472208076931,-0.0023770374031177256,-0.004326219038676594,-0.0021298523520634303,-0.0015852166768763087,0.004998040322389064
0.006346136206689468,0.00478136935015074,0.0020729860224960265,-0.007193012546774246,-0.004690610770726439,0.003863425644617061,0.004650904789668473
-0.007395925070729811,-0.0009783678701526756,-0.004391121523342637,-0.012563160202978863,-0.005241200017721,-0.007582576673582012,-0.006692696620512561
0.0006507512126190146,-0.0004032533567013286,-0.0030792089238610796,0.0023504999612840687,-0.005227190386703976,-0.000794502594722935,-0.00684888297699338
0.006589236662771939,0.004167680240778173,-0.002705443049644417,-0.004995539179897134,-0.004418486380037003,-0.0047588005027162745,0.0006999237903126891
0.002203718461611303,-0.0038170976607347024,0.005668574959602426,-0.003884624749380202,-0.006443553372853698,-0.00309218415140799,-0.00455034974966549
0.00368126299750404,0.0043239483959799565,0.0022094708509060785,-0.006049116679142445,-0.0013309095131812663,0.0028705705018086305,-0.004478929791275801
-0.007419671974890476,0.003306793140838283,-0.013489339098255882,-0.0038826978225300415,0.012296723645489798,-0.00098761954626734,-0.0016909386555900706
0.0027410124332081856,0.008012643128690185,0.005429104813570824,-0.000654971291862599,0.007857548143642114,0.0007246359560685652,0.00048808355202368853
0.004101829833095551,0.0063725930049561095,0.0068893822159798385,-0.0063104754258393285,-0.009417446973626403,0.0058490811415252844,0.0004826766882110827
-0.002621552519918638,0.009000235288054489,0.006532447056160802,-0.008848820826627343,-0.0026795635271054537,-0.006480566856799734,0.009595368107265235
0.0010356299802248726,0.015114317545271391,-0.002861408985385026,-0.007293438557957721,-0.00202758131846545,0.006590250312382951,-0.0012753993480571423
0.004223413593288272,0.0032866361422275846,0.0045074912035158714,0.00011309349614312295,-0.0003767528549710777,0.0041536520885141455,0.004822861325997908
0.004625381194268449,0.00527436983015512,0.016339240423681557,-0.008721986224057253,0.0015237982748912895,-0.0005241847519255438,0.0038786172501778576
0.0025684534779985596,0.005339378719546761,0.0002389303673736359,-0.0064588409146521305,0.001248580941352895,-0.0005668254679565635,-0.0011835986487720202
0.00014569691871404083,0.0001904908322591651,0.00299613538879963,0.0023107070579154337,0.001779863815556068,-0.002550928597745603,0.016933134575992666
0.009620532551454336,0.007326920169176746,0.0013796054291595737,-0.007287809627306311,0.011934431690039509,-0.004653964548186827,0.014833227252164755
0.0018335210564463973,0.007065631723917387,0.0020681827030588347,-0.008961642203717816,-0.00113697362773797,-0.003052551212771554,0.002842406595295599
0.0019851504591107635,0.008035797787522628,-0.006954740775281725,-0.0093766006304884,0.00384844735961972,0.003762334969287906,0.010821031150073795
-0.006888006239056074,0.004101215625759509,0.0029841501288594505,-0.00642066151175748,-0.00018195571815267654,0.0032839734003014933,0.005118144594921264
3.0483377182810903e-05,0.0003370407724204449,0.004549734268615267,-0.0032271542761945645,-0.00999522437471681,0.014119479577346945,0.0013253511078194255
-0.004446530840672697,-0.00029725761673918543,-0.0013087191346534324,-0.0047062798528512235,-0.006829302425142987,0.005283953855340153,0.0067246252911674805
-0.008549821102992445,0.004219454329565614,-0.006286762230241413,-0.0009313050677358198,0.011829372909763897,0.004324979317753382,-0.011883566796618242
0.004324043772332791,0.008247241322315487,0.0022413793487521894,-0.0048310859486758945,-0.0058560619901523205,0.004863305212949947,0.005760106278536657
-0.0019242744529099488,-0.001706109583277875,0.004053870994469237,-0.010973132408647935,0.006783912302399799,-0.0030438120057611003,0.0040417390431952
0.0006059967273518555,0.0032679788534481853,0.00210967394123789,-0.007295161006940182,0.0015901725510156324,0.000542697552750107,0.0012529834777895445
-0.0013195386723426116,0.006195778535469096,-0.000543142981882577,-0.010360745001424587,0.005416438381534084,0.0028585526514426614,-0.009230910007590859
-0.0006976092761005787,-0.0024501770563436294,0.00046739633431701577,-0.004013835602223044,-0.003330868123408664,-1.2813028840930702e-05,0.00436358420427247
-0.008642467257741478,0.0004290015044190115,-0.0013922089295483392,-0.0034432216830456016,-0.00648983180726136,-0.004486235024382746,-0.005528061067912031
-0.008217380236829509,0.007981974520229957,0.00526595131767323,-0.016455538862476353,0.0013527920067123375,0.0018163762676633936,0.0058490725148543695
0.005333673638821428,-0.002517523627198402,-0.0015098287522818303,-0.0021949906077136467,-0.0077318243038948,-0.0050221888262793,-0.0021708156932234287
-0.0022393153419763816,0.01240605863890695,-0.0035353736283015315,-0.0010005031965321478,0.013203506606480559,-0.003772078682919475,0.003536115397169038
0.0069216019468595685,0.009040633896909383,-0.0028329832847595214,-0.008921330144367867,0.0018335031853862476,0.001019854778565771,-0.0027173916983202623
0.00722806616852759,0.001746983018787153,-0.004056578327541284,-0.00963485503220803,-0.0035395000383440216,0.015289825123767932,0.003683218241589616
0.0036519949773968926,0.0020694065394912574,-0.0036678847773455444,-0.013999503555442369,0.004753912556846095,0.0049770910289802205,0.006705517753530467
-0.0030154774272709312,0.009660417279262114,-0.001557232453131105,-0.0011247548234969438,0.0011531339291032056,-0.0006606828659789907,0.0009800547490117371
-0.009157957982146647,0.0031989192886375953,0.0020276646621208883,0.0026042215385347007,0.0015667187036479463,-0.0007032852909825572,0.008429071477906946
0.00039125323436512235,0.014054867550978857,-0.008907746514918248,-0.012346924446860072,-0.0014240404736783337,0.00836860992315502,0.001278691576098682
-0.0020132131958827226,0.006217295075497524,0.000977623513851783,0.009435527346560774,0.002388927444172984,-0.006063946570916768,-0.005978769763298595
-0.005734691083121233,0.00193552351766437,0.009317006601186832,-0.0003103281305600293,0.00207915763045949,0.005519520780226855,0.0021899507266284622
-0.008757479419738333,0.0029078817176319107,-0.0006787040673177386,-0.006358889723135466,-0.000520110573701518,-0.000613042143612225,0.0026085158105180494
-0.002285983530264503,-0.004686199725694688,0.0005117848348875392,-0.004688059777382986,0.0011067817151577432,-0.000836411911968548,0.0037807058232670254
0.001403857409843084,-0.00019895572730585154,0.0023074036795546478,-0.0042296715595852375,0.0007135904445377896,0.002344029242246058,-0.00535396621355879
0.005133271128172119,0.0032334400250778423,0.0008046554492970421,-0.007019107731782543,-0.006008567808976367,0.003159920177906347,-0.004748905836150117
0.004527484733474066,0.010346783405839829,-0.009145740912879778,-0.0024085748398207443,-0.0013857833123993274,-0.005188927005735289,0.00258136550993921
-0.00022375077547777397,0.010146912351785232,0.009241128068237826,-0.012336717444311094,0.008238028786052854,0.002026266207506506,0.002763004281575148
0.0067256227444242814,0.009846842292213593,-0.002390938841313057,-0.007296800871990393,0.00018138828130308742,0.003228717008793789,-0.0015211951084130484
0.0019209644289550024,0.009123945428020516,0.008087420400534368,-0.0036810278907588134,-0.004344023399462352,-0.00630524777783186,-0.007347991340241741
-0.00921755066744909,0.001100998404576265,0.007373592205299205,-0.010780586293351635,0.008327052613381371,0.007803331967643365,-0.001446341946617123
0.008062799625548385,0.008348334250836776,-0.000824485883143088,0.0030876102122697844,0.008571287046695422,-0.0012609693818215425,0.0010042478529668556
0.006021299762122847,0.0035772538410322897,0.001517937880747463,-0.003633854523476585,-0.002160165757821519,0.00505407092011205,-0.0066552623879061745
-0.008422831439273111,0.002221820769586366,-0.006874081182780323,-0.00509417261966117,0.004760651259509307,0.005596864923872644,0.007760662580918877
-0.0030858152859659983,0.011733279173010093,0.008997637421753715,-0.004667055917121255,-0.0075971890443635075,0.005533858523901115,0.0008280393569048833
-0.007337423234005485,-0.00272774929425089,-0.002122999736928734,-0.0011290510227019016,0.005407693864886834,0.0035874802203769104,0.003352773411659399
0.004026127814134722,-0.006531019856498206,0.0014705346798053695,-0.0070546296824170835,-0.0023677068942571464,0.003269664540758943,-0.003745458667207974
0.002424595419057226,0.007236945153451215,-0.008812545001112611,-0.0015723358611983468,0.004725484583759225,0.015268098129373723,-0.004216442127801771
0.0072527141537672354,0.007827561248180973,-0.0035730270704944405,-0.003109569643804839,0.0036241792897217626,0.005056809819382229,0.003965437661328297
0.006285325368466338,0.002034833985599977,-0.0036911152175468187,0.006682923081797955,0.007089111437774421,0.006291059987532656,-4.07329675389081e-05
0.00732710507088316,0.0069388980733570225,0.004399871669595674,0.002364586503142813,-0.012471688538182018,-0.00024107741656530403,0.004770866343947942
0.0020787344413262343,0.0089197681248287,0.0034577008266935805,-0.010254900002742219,-0.001373968877611078,0.003914318047890279,0.00022723842358266492
0.0028075109481224617,0.008434764557082525,0.00033570998839099384,-0.005100591553339171,0.002873863020220961,0.0006927115837450761,-0.002496344312810321
-0.007915849446020713,0.016969347725627415,-0.002657361323229897,-0.0017416177324515775,0.009861134180495315,0.004818936178989817,0.006583507890211245
-0.010910069324883524,-0.0008746187533469935,0.004698024740855455,-0.005251166730282168,0.004920814513977136,-0.006406667072298609,-0.01013107976645105
0.0028603480089737067,0.003902657942245988,-0.003203649467552455,0.000709719965568643,0.00187532235409887,-0.003185701208811319,-0.005184233366057651
0.004872367732465378,0.0019067890995593509,-0.005186520474124465,-0.0029203528264860577,0.00648689070308708,0.003266472189087328,0.005641347240809989
-0.0021268592724349167,-0.0007829444547986083,-0.004938643548992192,0.002270121090314461,-0.01119412401784323,0.003372037134935798,-0.0028229258475896916
0.0021353369927159904,0.006775507385016307,-0.0025519018035388918,-0.011680980750053012,0.006154040220346856,0.00224887536740332,0.0006735281987195117
0.0063296437372755,0.0019385129089274768,-0.0034521624886583715,0.0010458005065763292,-0.0007680277423217286,-0.0022205069984111785,0.0030029032847908163
0.007999277948775226,0.0024020872939179514,-0.003068772931839828,0.0004976095472156956,0.01204410015620662,0.005207090344729583,0.00718602869337047
-0.0031838089249780163,0.0053016111572686455,-0.0033192241851346584,-0.0063181602177036205,0.005043023915771592,0.005269786985811802,-0.007463449504216567
-0.0068887978773815245,0.010339004849971498,0.004827045572929959,-0.002213705946068081,-0.008635382221316034,0.00035137558897516423,0.004339251406350899
-0.003893393744411721,0.013996594778587727,0.008114308614707723,-0.005729467264350255,-0.0017099014686135846,0.007947775871763551,0.0011419762929359132
-0.0007382930817063672,0.007587546114830393,-0.0013748266413505673,-0.0029474411840321344,-0.0035847132295095813,0.004108600056235614,0.006583853608843913
0.0020785257317312298,-0.0042000545604942464,0.0033245628690571102,0.0027534028709112063,-0.012514168705520695,0.008187640212169691,-0.002368185929561734
0.0042849255134094055,0.004001145470213821,0.0020947022136704853,-0.007569509836574357,0.0015248370649616903,-0.010624320905983978,-0.006861373747065591
-0.002619371039930797,0.004206523511497924,-0.0011892993774492114,-0.013768266077646396,0.003938031447618779,-0.005619801840416092,0.00394214470820283
0.0037610390507095285,0.004833937335548922,-0.004247027784410718,-0.012049306444118635,-0.004676423165720556,0.0034483043419538447,0.005716703216087919
0.001849773324938918,0.0053929517238311695,-0.008999403472929208,0.010473326484294972,-0.0050984838922001775,-0.00034707363543954304,-0.01127144094746281
-0.0021601934143331172,0.0035843552626651297,-0.010434683990827996,-0.008178810083109663,0.004201742823549897,0.005330850862962561,0.00701504440637609
0.004545354659958962,0.006659337959422427,-0.004877929180094195,-0.00413033228547926,-0.00014924168501938062,0.007975528633190199,0.003005916031962386
0.00961867696010239,0.005702836892643572,-0.005580828709816257,-0.006233745996393376,0.0076484736772716765,0.008900838947725365,-0.007951394205384068
0.007822176140462185,0.006250020246782531,-0.002973967119639913,-0.0040361648713161755,0.0006644370787105561,0.0018125091430855468,-0.008913964785524382
2.9645755577782922e-05,0.000350687466760767,0.0014262412503172135,-0.01486370161751965,0.00245927890923459,-0.000152805052843602,0.0009217469495272591
0.0039651820686532014,0.006956428263908505,-0.0015287450543586883,-0.003188562265257362,-0.0034575760952657727,0.002774718183873243,0.005170798521461164
-0.006389975068342094,0.004905226032663958,-0.00031326667204241584,-0.005917588949769655,-0.006946200863768035,0.000637480052133004,-0.0008035248613770935
-0.002253676525978898,0.008611859959208977,-0.0023458836109970767,-0.002290967798429175,0.00017265727722433864,-0.006600707802363379,-0.0027423698280581057
0.00562145791596655,0.0068124373953118616,0.007773177719685418,-0.008193411906266074,0.0021571191444119324,-0.002736531020232442,-0.0010136347486928408
0.0009698022407273593,0.0044019632198161575,0.008017396341052764,-0.0017513247909448435,0.002827704486468719,-0.0008732285592671326,0.005157555372961265
-0.004527078212860284,0.0024176791857732647,-0.0037760314803474034,-0.0019177173721784467,0.0010078982408011352,-0.007392935007425987,-0.003254929446456673
-0.008508006599344819,0.0031291060922436775,-0.0051429084243678124,-0.0013662983182156205,0.004910705289109235,-0.008237976454939644,-0.0028692578114177286
-0.00041122488195379403,-0.0014646318885059046,0.0036776302428372545,-0.009663941848515854,-0.0011053178003031607,-0.0014011631819215678,0.015819806286568205
0.004156197254440408,0.00648854039908834,0.0008328754522932372,0.0024108084310257667,0.0001230965573719117,0.005342088676561291,-0.00672925799052318
-0.006155780154979643,0.006502822427487972,0.007175644061210865,0.0016615212156184489,-0.0010808837375054804,0.008924270281504255,-0.0032805307284989515
0.004743323641652281,0.008939176747250891,-0.0072827333150553685,0.0008320400126036642,0.01098458272321675,0.0013110668880109565,-0.0013426634903586337
-0.008824016145580295,0.002187123376139287,0.001727724576087089,-0.010066058903008976,-0.003161503539682322,0.005124162225017953,-0.004190097339420196
0.0071834691825661155,0.0034030017297266256,-0.002067759797528918,-0.009325210051285336,-0.00017794485037042488,0.0006413406490263165,0.0006148637026869861
0.00032890605300552945,0.010074617325234318,-0.0011285960658092517,-0.0028696585806023767,0.0029853514094808943,-0.0034567138755452957,-0.007247326252241903
0.007061785444703242,0.004120967406439325,-0.020760742543973167,-0.012277199286094435,0.0037224932425850617,0.00019922200880784463,-0.006904327608448848
0.0024274445867239437,-0.004229580791744878,-0.007756282957958109,-0.01628837945395507,-0.0031831015585455525,-0.0010715197351153318,-0.003157545600961993
-0.003395607349139144,0.006166053914263803,-0.0007858768531063945,0.0008904892429934232,0.00200869095750758,0.00239512788080813,0.005858649033583854
0.012048117849959366,-0.0030850351341827455,0.01313993977515835,-0.007617193366187212,-0.011932738050860158,-0.0018079916351089918,-0.009748637731545044
0.0029390845399085755,-0.006162521799731754,0.008520921395085162,-0.011853105082007764,0.003307302436618356,0.001335448269389093,-0.0003134828884983914
-0.004795731624104021,0.005030027583748232,0.003181446053363167,-0.007224992550314159,0.008988076811535548,0.0021433230484689263,0.002086581391600299
0.009195838482331513,0.007633341172086691,-0.006912308844239194,-0.01019972021739793,-0.0020127291630553687,0.000239329577120266,-0.0027263295836760385
0.006384017236267284,-0.006901623145173389,-0.003620508910899942,0.0014288913211253972,-0.006256273360335773,0.0044770692361864785,-0.003650140120937674
-0.0022584683627729714,0.012122340721531705,0.007172634112925647,-0.012905324776816003,-0.0044668136044516,0.0006437869225217681,0.0015186479820526663
0.0032793759906319855,0.008796718649375918,0.007482740933841792,-0.007331922713832874,0.004337576749719497,0.003891173557624877,-0.0018638861238710579
-0.00027897545418244604,0.009387521414334824,-0.00970380072057409,-0.002943142402458082,0.007404961110335836,0.0022066802509796454,0.0006533951274773502
-0.0027686695106632795,0.01700663793855811,0.00678909378326469,-0.0032628393692223463,0.008378633611666682,0.003029565843097016,-0.0010485352055412103
-0.0069542184733267,0.006210423327702606,-0.0010954094985685015,-0.0013425071919533711,0.006037662897775993,0.005907955078179605,0.00019744559798288397
-0.003077777681868781,0.007235092069068153,-0.002329040968162464,-0.0038190864077990243,-0.005678909892318108,-0.006761031983027488,0.008171537349952034
9.312910095538677e-05,-0.00036825128073261765,0.0008830765866555734,0.0011446830428412402,-0.0014795781139991682,0.0017088579822729377,-0.0027080294643019153
0.004375876476476025,0.0016886559359095084,-0.0007134492811620103,0.0009421258268052131,-0.001979649468501148,0.00929808931111904,0.002640834881745297
-0.0006016644798331867,0.012771021716567571,0.0044025157854176485,-0.001974177036199667,-0.000503840459798765,-0.005003897073271959,-0.003013561301391426
-8.380296223311023e-05,0.007014167432168065,-0.005389785899872177,-0.0027996186059167645,0.004616122314730578,-0.0007410329508266861,0.0027231837606609397
-0.0027983367027296876,0.007384392206142676,0.004502140950342868,-0.008208659999585782,-0.005511947052648313,0.0013368921520231227,0.001283263283259446
-0.0022497016095059685,0.009933790933196197,0.0036413302582715716,-0.016195926077278766,0.0023412707754620586,0.0029326473916065085,-0.0028375446104083276
-0.0033179698438269407,0.003812182723624417,0.009924899694327798,0.0019352329787061607,-0.0016110337805504357,0.002020482625985115,-0.007985008243293217
-0.005663877976410756,0.008803429282030612,-0.005171133582746951,-0.00318845833521502,-0.00022135520002262055,0.0005499893178670484,-0.005511347444241372
-0.0027772560828569054,0.014701587300807941,0.0038312224284030973,-0.008699260637779037,0.0030067810777142743,0.0034929122708274862,-0.002407731899230419
-0.010646139631652162,0.005731346047723382,0.011339905104910597,-0.005830692399966853,0.005534895242157179,0.002386341637938256,0.0032949447132602366
0.0037292515490757747,0.01483397859694157,0.0011571395149445813,-0.011756590633926154,-7.158939333943171e-05,0.002051032609704475,0.0028961618251647685
0.0014488438533165498,0.003020719319970891,-0.003083498485484293,0.006450578668164716,-0.00541410506145684,0.0035162426068478356,-0.007268503596817204
-0.00282254616760823,-0.003401110876493639,-0.002361446447538082,-0.009970514664936937,0.001226865320561093,0.0007584884738541413,-0.004098537054375171
-0.0007470246935526408,0.0033471718634141565,0.004832412732174956,-0.009890168185408466,-0.013504332616695742,-0.002702580449511288,-0.00393865473593781
0.003064513108707344,0.009864312485578666,9.457704356226728e-05,-0.0037412597576041177,-0.0031068505488295785,-0.008866157742573712,0.003334722040462148
0.007415049785692259,-0.000637113327453275,-0.0025784503206175433,-0.0025288726549225794,-0.005379253505298776,-0.004582897459681128,0.0010888833236148534
0.004414545734888034,0.0007048712860334137,0.006385669105762106,-0.0032552881619456984,0.003803494773408608,0.006496996145960856,-0.00022179256067437136
0.0014524387175473693,0.008809895440869145,-0.003542967478584329,-0.0026556251440211813,-0.007769802073488318,0.0016182138909343023,-0.0023444003623382223
-0.005027611597515332,-0.0025994931171878437,0.002916379327298042,0.004651174734253325,0.007448200708829217,-0.0004623266193623968,-0.004519070524845917
0.004166029449554421,0.006879295805068472,-0.0008496328714402733,0.010216773114748886,-0.0068229922368294735,0.012240555253284961,-0.003181086197752536
0.0020025543619317616,0.006510181217188462,0.004087457264092316,-0.01128482325860894,0.0036611189716421913,0.005318642401504229,-0.0006745758860715116
0.0006809509102531515,0.0007740266349216056,0.011222009742335629,-0.008215898363954722,0.010361794559733645,-0.00032979195213109474,0.010408304875960029
0.004447725981266408,0.0031434498934169676,0.0009905657591114273,-0.010528791057684872,0.006610819585083172,0.0012537796731767821,-0.0024583440224287363
0.007595391168130574,-0.006068694354687431,0.004746471186577348,-0.007953104005681649,-0.006161197150694434,0.001634636705161909,-0.0022115530795772747
-0.006209316154723383,0.007790602968015507,-0.0041445176538759485,-0.013761312293895397,0.0053858845921908,0.0016895049801181924,-0.007701139007071396
-0.00039305429459963255,0.009101249751236355,0.006847965433277308,-0.010929550562115422,0.003064358635765624,0.005193873970619436,0.005867380662717471
0.010309137699469789,0.0075013874550387055,-0.0017537772055560069,0.008299611480628218,-0.00384856219354113,0.0013058591510619164,-0.0012022002416418758
0.0036865943123209144,0.007384226125426158,0.0005037246102645215,0.0034925820552625026,-0.0007938429978518963,0.0036072719927949326,0.0015268044866181
0.0025071158773698763,-0.0066330743859947736,0.003229746373335392,-3.369114763961573e-05,-0.0038429557930922936,-0.0031066676616843844,-0.001256506177836619
0.002354554894874119,-0.0030947989556492717,0.0013908180980651925,-0.010666399426119747,0.0037321029273622817,-0.002801246081027698,0.0038035990746783503
0.0051951594284920894,0.004023732764951837,0.004148124605702043,-0.0031341121514070224,0.0023574425649720227,0.003237975701912377,-0.004520258449882936
-0.005784698637108345,0.004818787929917868,0.005343858362092709,-0.01732903901782103,-0.002739148491689893,0.004612717227804466,-0.0007365532178117376
-0.0022845670437294033,0.004358354929051648,0.0010807370940062876,-0.006680225639622972,-0.0037414743999783745,0.008514137186571652,0.0006143345956757492
-0.00021628201127148357,0.0070985196609390675,0.010130368696463724,0.003355040683772312,0.005839798865168352,0.004661607750814834,0.0015454990960920615
-0.0015563138283703742,0.008757302389541696,-0.0031882634962305217,-0.009045516212579183,-0.006601812978935745,-0.008015058933384974,0.002317559772353998
-0.004377412621048904,-0.010089645682273874,0.0008629539175477386,-0.009419644528216073,0.0031813162299385196,-0.0016800445595063721,0.002886070237371011
-0.0026794371147779404,0.010708894520384373,0.0032237786491231225,0.0012666523212935827,0.004874832547618328,0.004989119947149383,0.002204953256602104
0.0052610994080746635,0.012086306026069677,0.006658301908133761,-0.008433035414200239,-0.008534556993992573,0.008649452442366189,0.0036894312889973148
-0.003384799996963072,0.010443319962086113,-0.0032406685555229366,-0.003019898738717143,-0.0050454620560803545,0.0034034182012711686,-0.004995125838579046
-0.0015261125381879062,0.002519107348517216,-0.010077819609552447,-0.013671795802739443,-0.0016120223872549385,0.00452842541093125,-0.0018442198730446973
0.0033428668658140705,0.00811053517213878,0.002890211806711105,-0.007593240230044606,0.0011496302682737214,-0.008128119030253027,0.001876057339472773
0.0054569405091612145,0.012755529724878627,-0.0024505796106890116,0.00027013711019265594,-0.007134995162481047,-0.000875668533527137,-0.003449408016935375
0.003058360841781099,-5.661181894975373e-05,0.0009105133375619058,-0.0051363553541610004,0.0039659174251565265,0.0019267127473909659,-0.0009748173294540681
0.004572409609318073,-0.0002863143422244495,0.004294574285624895,-0.00963668459145623,-0.003539161717777398,0.00031179584429800067,-0.001281504967682137
0.005228570291816045,0.0035832880641820768,-0.0050793442650105,-0.0033724928707172903,0.0028238919573780994,0.0019863040243243,0.009351270064433098
0.0032933656854741444,0.0025096595441867465,0.0004729726100388818,-0.003546121731391954,0.006128946173045964,0.003877020008108661,0.004581068185579609
0.005066810127046688,-0.004545094732950005,-0.005485406670081754,-0.008514884450951263,-0.002239242182045553,0.006153936945210031,0.0019327173441414877
-0.0027326137248063144,-0.0039748810968220204,0.012305543705164653,-0.003886491905304122,-0.002825745405914741,-0.0002946944765319416,-0.002542330658893974
-0.0010773696030202666,0.0007861527997081042,-0.001199978946190814,0.0017066029450159058,-0.00018738103999448716,0.0019809538684808572,0.006211005174736065
0.0015073982240057775,0.008484507174096653,-0.005104853078795331,0.0035724402006325896,0.0015537865956291432,0.0015183468176672601,0.0021810307301407955
0.004178351654920416,0.00031790106615798457,0.0049170958583790135,-0.0033439220284709322,-0.003996002064823399,0.005349439710572235,-0.0038313084277462367
0.012094139912901501,0.004845348257102956,-0.0004010544004216478,-0.002602916291142413,-0.0008324090822587268,0.0038849099412557797,-0.003244324315660324
-0.002749689147038756,0.009941857897185772,0.0013892060382300522,-0.008245063839070933,-0.001662050108725529,-0.004611999825412419,-0.0007210296799429493
0.0016881694626103162,0.005076350489267051,0.0007116471266665785,-0.013413242456075041,-0.001325959895454481,0.002065866055422319,0.00761227649827294
-0.009477767273250061,0.000985931164291223,0.002578327146728995,-0.007609187507696683,0.0010012564059668732,0.00562628788690029,0.007851384581597102
-0.0021679996180231204,-0.0035617287443395246,-0.0027709922807575534,-0.003207241115956562,-0.005507853568380309,-0.00886236722647233,0.0022112135489127036
-0.0002623976951806787,0.0002513110048917165,0.0009444528478099055,-0.003971291926770436,-0.004305817044455968,-0.002508044573002804,-0.008454380467067556
-0.005038880270602801,0.012318235797797394,0.008653105022031874,-0.0030439374731731955,4.5675522563160074e-05,0.004534967457592349,0.001127785527024754
-0.0042873351142016765,0.009194835876869409,-0.007018266999020455,-0.0006260996821099219,0.0030777911507759276,-0.004920461837763455,0.00988605345774816
0.003683303363261675,0.005696078203162304,-0.002368375619252196,-0.01670802831874141,0.004542157624922918,-0.0004191413791994447,0.0003028050502357072
-0.008794440133398255,-0.0005214703276354489,0.006353407060603893,-0.0016552992448016076,-1.2035369249204342e-05,-0.0021186705675124836,0.007479248679515928
0.0005919585416673479,-0.0037515673611989587,0.0009043471063038055,-0.015204612702985442,0.004391465117562277,0.00562859134528178,0.0019151523464159793
0.0020668426204793733,0.0072565658385205225,-0.0029349462527215094,-0.011150112227268768,0.0010386829849537741,-0.006048577628832051,0.0011387585172921233
-0.0014431461213752607,0.0017977626730927055,0.0017687891325994056,-0.008985815569846636,0.0007330737593349429,-0.003795711497888366,-0.004850417623122443
0.000615246832460993,0.0010027887494916527,-0.0012112322624317066,-0.0038848391880135424,0.00044443386130804273,-0.00372135771845473,0.0005019339354421131
0.0054688102514204515,-0.002746257609911195,0.0022501697498926183,-0.006551966488573256,0.0038756001343886394,-0.006551135694273942,0.009049954283692221
0.003670332802638125,0.006733387302661077,-0.0017054458332316548,-0.0027712550908449715,0.0026839367402980265,0.009385990922634759,-0.0018175943538364077
-0.007182817308139591,0.0072128370242448515,0.003930310322576913,0.011825229741224253,0.002834438145409034,0.004754957514894752,0.0038992508407829237
-0.0060579683526827575,0.010124280457144159,0.0029185890882227295,-0.013363289467919998,0.00044122556562392666,0.007645285022576307,-0.0003730617848689317
-0.0019368649585997212,0.005899131791854571,-0.005932753247570755,0.0016137750476342388,0.002407773030570649,0.0027545202032764563,0.006082917957886047
0.0058091458483766805,0.011137609588098236,0.006952885699126959,-0.0036345493727251163,-0.005644715236131888,-0.0013172333577614762,-0.004948431162108223
-0.002908349466639646,0.005990907612865875,0.003662542191230968,-0.00898805037815171,0.00042147986799184257,0.006090645129313688,0.006846543856729177
-0.0027280865044864338,0.0017038121657574786,-0.0023882018419354276,-0.01252371449267796,-0.007338126440589468,-0.0026875051506924153,0.0024132665557017826
-0.0012824145464195484,-0.003722788642645694,-0.0014735107187962885,-0.00944795977631793,0.003087829975049713,0.0008126390720894196,-0.00028407874743928044
-0.005893256259597645,0.005163084266659956,-0.0008847266284719958,-0.00271260341385704,0.0020499966158492185,0.00016589546826665844,0.0010640808473482259
0.002418787590787631,0.0023562319933411726,0.010370835327589681,0.004009557080096872,-0.0005560679616447631,-0.004997869221558866,-3.512014032449847e-06
0.0030287039931608103,0.004083462709318328,0.0022970465450023927,-0.008161789298735653,-0.00784575048606446,0.011763465781487724,-0.004791361430297766
-0.0014140307381581298,-0.009615601694807463,0.0008645802544894824,-0.016414212295583163,-0.0010698906600677138,-0.013448585793951156,-0.003019044614418424
0.004152134024662446,0.006080935505592654,0.001460067952686017,0.0007816219525745758,-0.001613135977125691,-0.0007355076943462481,-0.006768200427838453
0.007758553009868333,0.0071345413025817135,0.009363303311829599,0.005022587519342055,0.00566651493451952,0.0024436746242719885,0.009175964373798598
-0.009283912434495743,0.006279855671539967,-0.005382136494017739,-0.005805111246434555,-0.006916051125075247,0.006537231151548953,0.0032672813322448114
0.0027308624780430506,0.012088695902844665,5.4381551357072106e-05,-0.006383430728055406,0.00045587743368158434,-0.008015026654029629,0.0016592851191410125
0.0014066694992426593,0.00307806787334538,0.014239710524966922,-0.006725033933773457,0.0070878032876447155,-0.005888566946462744,-0.0007857140885961616
-0.011338904809204707,0.0052141626306459726,0.005148775547587329,-0.002911756752531828,0.0026246279735087632,0.006245987467823268,0.0039758373255000335
-0.003633500109869321,0.0035220229135972812,-0.008516547169865711,-0.010992482050049657,0.004175638814016193,0.0017725147503957976,0.00048512641116436325
0.004714411550769373,0.00713838891013764,-0.0009905486192797793,-0.0007313017065222856,-0.0029705926507434116,-0.004415976757838093,-0.008362688816046165
-0.0036208412963076413,0.0053801609311696814,-0.00587742553005218,-0.014435837374054168,0.00013883058645921444,-0.002412367641372092,-0.011375718516167262
-0.0016581964251491297,0.01200426696441808,0.0027829870865830487,-0.009688840705049318,0.002679958394622168,0.008073799524780795,0.000982421033646061
-0.008906519054764523,-0.0028423478267577454,0.007442130346793711,-0.011082674553372114,0.0020728520434178653,0.0036706395990728498,-0.0013383412590619926
0.004252794969028855,0.00464164133275539,0.0016129538025176926,-0.0001457953194822737,0.001701587271068015,0.005216617438198851,-0.000988575305711796
0.007236741236890175,0.006096705046000505,0.0014276753957893594,-0.006931540778961611,-0.00660667429861739,-0.006298364078149909,0.0024873062522667846
-0.002038677178283811,0.0002031967756099126,0.0020498401652130527,-0.0011451827106733546,0.002951894050342724,0.006042020718875005,0.00253691478980858
0.0045198554158291625,4.375407661605439e-05,0.003643775395844441,-0.003568931431528556,-0.003947500334666251,0.0042340293670986625,0.009069054405435704
0.004086084801444541,7.973700551247012e-05,-0.0024816546780343767,-0.0038582949691456964,0.009166257702751514,-0.003962428295724287,0.0012538133121952639
-0.005603256295657157,0.012538369026691214,0.00725499886144885,-0.005677138717522812,0.005868619512576289,-0.015271755490651113,0.009025645746083605
-0.0030798764499200344,0.005399536646569657,-0.002484673858703545,-0.004342821459335057,0.0030425481298319503,0.00574158317654212,-0.00508691016295583
0.00285065145998665,0.005985538565128769,0.006487160241951349,-0.005197664877792579,-0.010481841332550262,0.0003754262921503807,-0.005405841039884834
0.007980013024657978,0.00870146157574875,-0.0048283886136438,-0.010689058224357385,0.0007172582329022683,0.003954735657640249,0.010069162225799167
-0.014334235104802799,0.0014426546434972048,0.0019300330590800727,-0.011761542718389728,0.000300643709264842,0.004810566354437476,-0.0030408762855898878
-0.0011726704022174679,0.004926422774705801,-0.011353467806217276,-0.008587869591380127,-0.0029842704952545247,0.0015177122666231403,0.0016698659885768037
-0.0008207283030033416,0.008071324590155506,0.007003839719481754,0.0020074504079671007,0.0010432753061919223,-0.0018552908720940774,-0.0008192547722020754
-0.004742142224908234,0.015576460990845548,0.009182133779828678,-0.0070857545292549685,-0.005007527946495805,-0.0056741101888646795,-0.005107201734676912
0.004273157307803695,0.02083236543426228,0.0036033407730646227,-0.00662878005420403,-0.006161045340591051,0.0018297745259131266,0.001874577330208134
0.0004272680684227491,0.003371300905763454,0.0003718083857809733,-0.0024724749424959542,0.005608189867606117,0.006216721655884342,0.0026648772160309526
0.0116500994798824,0.0051401876987792385,-0.0022929675919853214,-0.0007921929947203088,-5.2104818058797706e-05,0.0068903420318106815,-0.0004393606353423486
-0.00337072309451074,0.003448146445341341,0.0011547124723156337,-0.007136099346841422,-0.009606789609752624,-0.006766711110778029,0.002584262164336947
0.003192074788407894,0.003780064128619547,-0.005854697582716855,-0.008077214792370904,-0.0009003088713627178,-0.000859058683774779,0.0038523076968407783
2.2565561916037245e-05,0.004399716909856887,0.0017652149196539118,-0.009398288238458296,0.005454849018079149,-0.0037070858868432748,0.004100428153887172
-0.0014488133115470936,0.003187082066926188,-0.0028933248250831373,-0.002788904011050375,0.005153799116058093,0.0066990441228160355,-0.001425545035589322
-0.000942038890918859,0.002822131505238726,-0.008862413750528859,-0.014384215616415272,0.00475306100572301,0.013078402265241424,0.008122233706133783
-0.0012875775965602173,0.005391334130891127,-0.011998828111223188,-0.008771952609123381,0.0029717261762054704,-0.0016081726147459253,0.0025558265362462017
-0.0008085995364949007,0.0183484228367075,0.000714964785203013,-0.009822309027524874,-0.0035723292907638075,-0.007492350718910721,-0.0037929866586374305
-0.004658718172914169,0.003532420378863155,-0.0017589891550051778,-0.007034213162858112,-0.0034976662297378815,0.0036695191070520807,-0.0032875022675063143
-0.004505133675707658,0.0016099139327462528,-0.0012851537764600037,-0.013895948187377539,0.0015077708162680378,-0.0020211854226438236,0.004102692337562597
-0.0014799462161852184,0.014785728781190574,0.007500794260406653,-0.009055738735786713,0.011842950753535765,0.0018746872022511645,0.008300805814756087
0.006083598433618235,0.003943456061625896,0.0037202337071592616,0.0003926852234146798,-0.0009892650974030882,0.002651824355973077,-0.006208905155652484
-0.0016245827321992238,0.00583250337092732,-0.00246747458144016,0.0009373275594976026,0.004225316899451982,0.004955824115628448,0.004625370744223869
-0.010448277347553022,0.016397274786552327,-0.000833836389009501,0.00011507511561540681,-0.0038588894114765567,0.00010790985393232568,0.004105192502412971
0.0020330025742814253,0.007346274149918579,-0.003613019212957238,-0.00742967459505863,0.012059515069982457,3.3090903812980996e-07,0.0005750638578561437
-0.0038925702145433502,0.005722907299644546,0.008688219602418452,-0.0004901655890234077,0.004466436515520693,0.005916739567622918,-0.006270742027774878
-0.0023527328776745426,-0.0014458248440652709,0.001168699398974901,-0.009603857989192579,-0.0019010783350086537,-0.006384115618224001,0.007545215146992896
0.001997937674217003,0.0060531037072535715,0.004353866069113782,-0.004372463281700416,0.0007850596401908986,0.0020194901695232627,-0.005242780831375079
0.004427377976366108,0.0045815944642251015,-0.00338966929731627,0.006575352210679201,-0.0035249557978906396,0.0013589271655341391,0.0037317397351958412
0.0013109553878205315,0.004551709783452512,-0.004860841674199046,-0.01217618376307209,0.001466585133912832,0.0033776476589671032,0.002859809677535438
0.0065443568159393025,0.0020796415541614916,0.0037133241168169568,-0.004523950015952157,0.00592927294332558,-0.003809613761702177,0.004571396019549491
0.013247225533240503,0.003322421308070915,7.19975815057424e-05,0.0007652589123161204,-0.006779668638141341,0.0027907663037710353,-0.0010419793674327747
0.002833702347069867,0.0087606354057234,-0.0024493267533488715,-0.005734690152008397,0.0036384346644913594,0.001766001657349977,-0.0025820720708978843
-0.0056349376348773265,0.008318344512621128,0.013355086672524356,-0.00308902279705824,0.004704386140435717,0.00029332531850377895,0.003752792067946374
-0.001262966325071903,0.0018607191796374623,0.0007486063644957903,-0.0005449632120447216,-0.006817205831019333,0.005429063189999684,0.005045546119955288
-0.0037800161155641977,0.012484664047222867,0.005454556526695526,-0.0003848302015553225,-0.003971775084080152,0.00013563297369595525,0.004970505152071016
0.015634716571634715,-0.0005720802362012065,0.0021972703011054547,-0.005860831304903893,0.004397378350677641,0.0013252307090097734,-0.0018782948430545432
-0.0009390400007412484,0.0036920340754355014,-0.001162678217347967,-0.001828483927226466,0.0031393609805355285,0.001954484618134836,-0.000701709442025974
0.0057740632173577805,0.0022761695939216,0.0012155068172871116,-0.007573791264820074,-0.013063603913814203,0.001505781702577929,-0.00830222626237557
4.6666163689527295e-05,0.009224635022305338,0.0056266069034300766,-0.004781509412767904,0.0030787022695593276,0.014124615923831973,-0.007899160593504923
0.002503727087310905,0.00587368606066493,-0.0012199021917567894,-0.006289298392344813,-0.0005912962132678353,0.0054857652304609525,0.0031189786524297796
0.0009810301307661565,-0.002924417919386856,-0.0027956357928686122,-0.009005557137704498,-0.0036226492063735735,0.001848391139721433,-0.0030513322270447826
0.011654539113577774,0.0036017418689105927,-0.005484772274973127,-0.011003081276881847,-0.0016451494213110282,0.003658887973525389,-0.0022662291940567575
-0.003952189810158293,0.002545514430496971,0.004291898107545672,-0.011424374357962013,0.005622852911083071,0.0006381232582285891,-0.003666159684367239
0.0040415679919538474,0.004766685010423622,-0.0007147720254295235,0.00018232344708521203,0.0003105403349191371,0.0001857724432833966,-0.0035942176417132813
-0.005052339314225036,0.008931702485821683,0.008387481781755236,-0.0026068750840912308,-0.007778665736895231,-0.0015137191446293174,0.0022953058816393896
-0.005310848373097965,0.002883652158126727,0.0012392703149037864,-0.011456846096157216,-0.0003661130901963366,0.007072913359977616,-0.0024378151613796985
0.0022532010854009296,0.005283327618232038,-0.0007798593303599138,-0.008864928435246899,-0.00900741430290052,-0.001240674439586118,0.0001465187306636365
-0.0006863204622165939,0.010225616489442518,0.00010672296521939924,-0.0023720134952837195,0.001964175589292654,0.0012834662990718914,0.005643680525077694
-0.0014942562801945193,0.01401602299971308,0.003421792481650972,-0.007707004750845573,0.0025178458161643404,0.0027920340356528137,0.0014470813851238807
0.007661426403335364,0.002374616495668285,-0.0029008325391786816,-0.009942996573761836,-0.01187436178066209,-0.003565647774458976,-0.001897408561218659
0.0024486642673905035,0.011415027597044831,0.0007671850375111615,-0.010773748867269258,-0.004056948989285389,0.008572354422798419,0.002879894184335133
0.002319779983696494,0.004334587369451228,0.008616201507280145,-0.009543291032932107,-0.008660077698403419,0.0013966505040150614,0.006345069960451535
-0.004662047179737194,0.006761869504281751,0.0050397781118446255,-0.011079540530305852,0.005901515240484497,0.006748920550829377,-0.0007616762705658178
0.007423131933699219,0.007061220482704901,0.006369774366408252,-0.0061375038641145975,-0.004050426670289171,0.004141050161787244,-0.011846203749699726
-0.004584124130435879,0.011777824948807952,-0.0012219269492969743,-0.010587527213691616,0.001876544186104871,0.0008157765153454796,0.0053257275304380725
-0.006403790264851015,-0.0027171057870560874,0.0026067267601755915,-0.0015316586806550672,-0.006552708196251708,-0.006140302917978537,0.004032889073754341
0.004143429795331727,0.0069615777826556036,0.0082822787915341,0.00011997181583142192,-7.055565940502069e-05,0.0034951224576694143,-0.007823275890882659
0.0021326635643372288,0.009348159048365536,0.004855972053813707,-0.009970434356713347,0.00383235340719562,-0.006109297205791304,0.0007358244088300438
-0.009831139382753184,-0.0006995283769272956,0.0026177801556644398,-0.007534266588353405,0.0024057250207235236,0.004124221718862139,0.0033590032348514744
0.00010300603020995599,0.006812717689628371,-0.006004014492368911,-0.006207575342562579,0.00432420309203242,-0.003937414055110401,-0.005178187395906812
-0.0034686850140666576,0.008274199890220966,-0.007933952818990708,0.0052076813430896466,0.012813729713674718,0.0015321978740422612,0.002148615784546503
-0.006246432091605461,0.011248711496402929,0.0003200227509594148,-0.011607968828335724,-0.0058976502410817925,0.004760811229057807,-0.0033359095666579065
-0.00420640483321723,0.012274447760922045,0.0023665942418393355,0.00575595646833222,-0.006463017668738779,0.010707695200493703,-0.007409971733646276
-0.0008689862510730142,0.012117855903879041,-0.0007598724845873461,-0.006399199607680862,-0.0021286705390416334,0.002591779180548581,-0.0027786920435815946
0.008293451678917605,0.0004010985163325439,0.0018495114218820801,0.005850462124754114,0.006095125003558584,-0.005077411746040336,0.0008757388920061693
-0.0032785744612640185,0.006112598381304033,-0.0053143207249928244,0.0043708684956262085,-0.005930112835797,-0.004611066197692375,0.0029508808216297203
0.00646754155095908,0.019502646054725927,-0.0016561278322235421,-0.009673645233508013,0.0008160044384645879,-0.0031396584587409775,0.005843510912279913
-0.007931756243651784,0.0015374096630503798,-0.005845417989248,-0.0036793050772856426,-0.006301710053764696,-0.003298225342473743,-0.0025424211720263662
-0.0006027490442169451,0.00017340506330954582,0.0022138967657651006,-0.01624976428791667,0.0052599155093368015,0.00832886318408237,0.006758535906132945
-0.004404558649666366,-0.00042232654656288983,0.008246822899161474,-0.011190639461275515,0.000583113642301036,0.006874135489406476,0.0005661522275441572
0.00207916696058479,0.0027379987929842817,-0.00892305572008496,-0.0025519653707908293,-0.0027360594375115573,0.0004024704091230715,-0.004650383125553796
-0.0042866332265649,0.004376364500397805,0.009595107481850437,-0.009804137158825863,0.008003256678457516,-0.002894498460449429,-0.00298195342818445
-0.0005995372798524639,0.006229187285169443,-0.0025774806038256974,-0.016404298180543682,-0.0013921905121796552,0.002298003014449006,0.0001632103726498035
0.003734528406692189,0.012274836232126246,-0.0021085863108732577,0.0009822280681678337,0.0062586078324322475,-0.0007401260438088111,-0.0010921924891838432
-0.0037100509438476254,0.010154683863933114,-0.0005705199286294622,-0.001654486272359223,-0.00112551440731797,0.0004932298934920572,0.003750262847119835
-0.01097909293215448,-0.004175139944429678,0.0024560419788953523,-0.00486702274194984,0.005339494336820376,0.006984434595285112,0.010763570519707414
0.00564360819617244,0.006892567311592791,0.0005002711682106171,-0.002146714933325132,-0.004501627089170443,-0.000792641538450751,0.0028456875318124335
0.003995944734675879,0.011759192189213959,0.0035886450711807767,-0.003216650640391566,0.003598869358193187,-0.0024203639288114505,0.001676287368657794
-0.010994585925167123,0.010528989962890872,-0.008578645220122897,0.007191206154481293,0.000129360782631554,0.00013627808870603905,-0.0029900109320974326
-0.004179902342212577,0.00509468141788673,-0.004119032232926364,-0.0034393746411649517,-0.012460167545162106,0.0026345332225194877,0.007211953950499786
0.0007215048985086581,0.007608329794988854,0.012937176797375896,-0.006740251165895648,0.0014469888143807373,0.006772066145696295,-0.0030427911823634967
-0.0057724804644660975,0.012216150594937126,0.013162985899459034,-0.0018433623237248155,-0.0046915381362802955,0.004324631802560699,-0.006916335513573961
-0.003407052515240952,0.0035098377287705734,-0.005381060073964965,-0.009716415656747282,-0.0017644253569103173,-0.0029402868218393113,0.002599853563970525
-0.0049661378435668655,0.0017504495423037545,-0.0016732521796965151,-0.009041958125896374,0.005391504139577158,0.002105932713265855,0.0037415955935818793
0.005588624331312252,0.006154190125167958,-0.0021426187817890313,-0.003343836366783377,0.0007618963883107543,0.00673408029527338,3.637964232850965e-05
0.0012270509435284263,0.015067165962667117,0.010439455475958667,-0.002704450626338049,0.0001823189040213909,0.0029553049047845305,-0.00026497649246904286
-0.0023699807520171133,-0.0001428579840678974,0.004622036845160593,-0.006402768811804266,-0.009714408052404647,-0.006405030769540483,0.0024913379873712106
0.0022896824402367953,0.0009292423388559477,-0.0068367452643985265,-0.010692817781367306,0.005149807468113102,-0.0012993399293569846,0.0015870165248988285
-0.0005068746994248383,0.0031427690649557024,0.004001944537238647,-0.0035219819485827852,-0.0019638908839646123,-0.004812659112970472,-0.00919605470279455
0.0006229494036737689,0.0022077748783170233,-0.005515216097480116,-0.004046918601364264,-0.0009580460439133165,0.0019244345292658556,-0.001881625400171363
0.0014361225360242258,0.006744953174255965,6.661754963493011e-05,0.0014916988975191383,-0.009599059314293714,-0.0024426011395166677,0.0013117934473225795
-0.00766627758945014,0.0029325459241765035,-0.004400333504531276,-0.011086856612668169,-0.0002297437679505631,-0.0051521274742921215,-0.0024619407715901686
-0.006153390136829818,0.0005521609398492875,0.005853492588759435,-0.007519120992737169,-0.0034127455603800818,0.005378635758544559,-0.0013609508395696585
-0.005435218981332766,0.002042710315843229,-0.000792831585011831,-0.009951303739822538,0.003762050962862628,0.004015420398069778,0.004559011981915458
-0.002406260468208852,0.009488998773099541,-0.00011584949500564672,-0.01622478842795945,-0.0035493641495467068,0.004864535280515426,-0.0052038981780831795
-0.0007433547286426043,0.006750503668175664,0.007412547816734353,0.0036070780098228805,-0.00559003727345612,0.00654635456335212,0.005089132372313158
-0.0040518363768582985,0.004485908892494904,0.0008394375330157936,-0.009808024157852976,-0.0029327435840372736,-0.0004459781531795408,-0.0012168723366415741
0.0013002847701492671,0.007222955417499739,-0.002376467606622001,-0.011338099663332254,0.0022125757170639963,-0.003991184087055085,-0.002043559996187553
-0.005411028143111913,0.003505286147795745,0.005407750529501992,-0.003290242500778177,0.0028681846654280323,-0.006767163287142895,-0.002788461150846397
0.0057273415027476295,0.005512942152168308,-0.005759460737320911,-0.012570092885779347,-0.0026879870052641513,0.0004949757217861636,0.0014763654166098149
0.0112226446687395,0.004301834334804648,-0.0068425297692812775,-0.001957866984565578,0.000963639524357222,-0.0057160638501277325,0.0011770848014020186
0.006914868892981738,0.005909157719776334,0.0027187554945089297,-0.00024824268788104577,-0.00714677186300353,7.391830141590083e-06,-0.0011249950147131011
0.009777256823383033,0.01052628456202093,-0.005675865968583387,-0.00734351364723853,-0.005121467444937456,0.00041685155332590515,0.004025587252723111
-0.004761398407392948,0.008634640124179822,0.0017495490393499883,-0.00926499181994242,0.0036873828693201223,-0.0014373808723670597,0.001865339929956564
-0.0034213485322129155,0.005654618432235298,-0.004745501370290801,-0.0030707479820239244,0.004038900134265278,-0.0002828675992340023,0.0027758937952156466
0.00017698278102537955,0.009714449428674825,-0.007604264131670309,-0.007489574515646789,-0.003442116472540317,0.012471598046115138,-0.0009503354966462452
-0.002411119267796858,0.00185027876900121,0.015470471488634284,0.004905347671422594,0.0023903832008018064,0.008113450121867488,-0.006863991297577918
0.0037507626968768686,0.008788062028078426,-0.0028110328129594907,-0.0081930256920005,-6.035590595403683e-08,-0.00014650478942586432,0.0007521797886769085
-0.0014652516900500062,0.006499741276604809,-0.00018965719705009022,-0.009654812788344895,-0.00015401668579171442,0.0010272992031295388,-0.004779320315606957
-0.000788243758514191,0.011855128882136334,-0.00217064242819654,-0.009961812459799047,0.004584235934464234,0.004275830870916307,-0.000918187546307478
0.0007176261167186361,0.012466107516941235,-0.007190813265644578,-0.0009120959425453441,-0.004037762328958817,0.005692059383635723,-0.0026313630253006885
-0.004637952413770354,0.01155913910061401,0.004477309389155147,-0.0018347258837697654,0.006126921143698042,0.002670819571786295,-0.00641373800039254
-0.002726627077793372,0.0031777434769953367,-0.000379876166456414,-0.001403028598319712,0.004453471458716531,0.013182159921357722,0.0006118867594119832
0.0028660421770345694,0.006629064654057997,-0.001275560780440102,-0.0013217321669831863,-0.010011745872163452,0.0015358715642004375,0.0027216377055712367
0.0001806275509728499,0.007007126403917735,0.004646249386574118,-0.002426005774359421,0.002690319987809105,-0.0028697084057826196,0.006564887252273107
-0.0014912800033225716,0.00860011411208308,-0.008955580679539428,-0.007555036801626684,-0.0007098456998892303,0.0019172371949814262,-0.004330572016050123
0.0060798559240999965,0.0005597127198846284,-0.004766226324068345,-0.006895141872025728,-0.0013025742929577999,0.0007745038180662263,0.0024358953020336307
-0.013458469478691873,-0.0034273620863695727,0.00491690982359571,-0.004344833365676147,0.010385904001339272,0.000712289531327409,0.0011946727622297868
0.0016292586581465596,0.0036434418707406114,0.0062205979643610056,0.0022790355547501273,0.0055292497913671385,0.005191021976154867,0.007543716864320382
0.002163017270744647,-8.998221130985038e-05,-0.002970096461917654,-0.0062479819713393185,-0.0005391773604420444,-0.0010225920326029643,-0.000181535317497733
0.0025116122140308355,0.00436989216722176,-0.003406986328644841,-0.009753002661933935,0.0027668641545783162,0.006234886857777911,0.007160743141902362
-0.002203740519167968,0.00391186260289155,0.005339968007684125,-0.003373192804743906,-0.001255323072435949,0.0002712330058474605,0.0020056975291497196
-0.002949297545956219,0.00693720014308105,-0.0050812814427519185,-0.014494901831168446,-0.0032686072009623143,-0.0011138345125575246,0.0028031237078265294
-0.0022687651418876967,0.01072822796893725,-0.0024789154072068394,0.000381005560153527,-0.0002587007533714382,0.005495764910180275,0.014640791456396208
0.003352384983166407,0.0042034380429819655,-0.0022393535192279956,-0.003999915512528849,0.0012846225836303181,0.0023225843999612776,0.00025706379036096816
-0.004513443153550206,0.0020796020433362828,-0.003407250885557272,0.0035058006030875078,0.0010319328529935297,0.0022912136444028066,-0.004001425925136311
-0.0006054983462016541,0.003144083791487117,-0.005377716133158851,-0.009354549233447494,-0.006592138129457952,0.009224683222148027,0.002915480996956692
-0.0032174868320830503,-0.0009543207501446408,0.004985858489084962,-0.0035817463547237827,-0.004617429501285679,0.004426264336010256,0.00204964410515341
-0.002121887518562468,0.011597736885619792,3.870493643382729e-05,0.00020248106215801942,0.005256198989914555,0.004479564528448588,0.0012612677038716113
0.0014827952994048042,0.009577502582862845,-0.002532388566947895,-0.008268257218613649,-0.008884201304518509,0.005848590627368368,-0.0089314046058164
0.00045271348778832654,-0.0028858423293628573,0.0102428762446595,-0.009295340168814543,-0.0055142136807461994,-0.004013287137421952,8.624466310134783e-05
0.0070743691006184654,0.009349622264232344,0.00665877122187196,0.0003175505493207228,0.0009847834217507601,0.0006626659882186679,0.007795938119830264
-0.010678589954977667,0.009364718769295108,-0.003468803288482817,-0.000608125505573393,-0.005799783690233501,0.0015209520414166794,-0.0038641058731904154
0.007354797292133614,0.00213881527647994,-0.0037993925976048983,-0.00526678161239414,-0.00939849628174569,-0.002540256763009797,-0.005368213476987367
0.004476359940263768,0.009163577083468271,0.004425908113402845,-0.00020472194505171022,-0.0030823687291273013,-0.008119513390802285,0.0015567927710528147
0.005487685403622895,-0.0016067528622106385,0.005464032746408492,0.004540026475045307,-0.005331235641491813,0.006104887505950244,0.00047036106385256395
-0.0011872506746468813,0.011918464213108796,-0.0008286863805232568,-0.005172152911975705,0.002407454110555397,0.006889125864486165,0.00039487083617385815
-0.004245833201344598,0.006110497929394864,-0.0024288927364909695,-0.005792547954681895,-0.0031353278303029395,0.0028922091213979054,0.0044613669642479875
0.0003783391937104151,0.005701970997198474,-0.0021526732910421825,0.00031118699803578875,0.0005971692315982558,0.0033849943884777084,-0.010448667659008119
-0.005810342588539063,0.00599929362631353,0.0011974480514408857,-0.0037974453271112252,0.011115539603178726,-0.004280194035582439,-0.0058152421986634
-0.00974964944303496,0.011585710355389689,-0.006192651788890782,-0.007774488323936245,-0.005188736734262877,0.006827935780518172,0.004129728720677829
-0.0036102388018581615,0.005279076758959657,-0.006976010880655996,-0.012882176051083178,-0.0016777992950474997,0.007117091100448421,0.002396359675330813
0.00044992268881474266,0.013099875017690221,-0.004963663981048569,-0.007524082100173007,-0.004360916610813428,0.0019752899729811716,0.001606235338127679
-0.004580518410604041,0.0037851042455705627,-0.0028386080419479463,-0.012572307869329707,-0.00537878260392336,-0.0034729495139872333,0.0012385967123935237
-0.013285908535300843,0.004917066818866867,-0.0005822558773199073,-0.0097606986182499,-0.00015525788029040698,0.005833365643747164,-0.009150692564184779
-0.007083812661935627,0.010866032671166509,-0.002143326785568134,-0.013164406151348937,-0.001245427377262511,0.0005924589651291559,0.004459544629456783
0.0008767469004299361,0.008354737057845356,0.004122048585054072,-0.006245488386523823,0.0025477328353761502,-0.004298127014828429,-0.003985639542259552
0.00028148132484970517,0.013556555088875466,-0.004665428171094637,0.0015203944115145802,-0.003973320359513,0.013161940960958102,-0.0024767247727768217
-0.0021760809654681745,0.0022125337197089322,0.00604849073543605,-0.0028642867510071095,0.010383794471721816,0.0005221045616881923,-0.002259382042270968
-0.006091644736637595,0.002861499281351454,-0.0016366806967284039,-0.0035629184650859238,-0.002226994620190179,0.008991110163445165,-0.0011642061587754306
0.008588958438329722,0.0026167137139257012,-0.0015734917356829046,-0.0017486918349391993,0.0061831628297222335,0.0004517344018080431,0.00018046292087342466
-0.005351149448951338,0.00315123336673122,-0.004968160145535658,-0.0093435494672452,0.0013949501986659902,0.011804349169940524,0.0071915672493209366
-0.0040070578906412765,0.01055772063373631,0.008799447707343354,0.0012877268688674948,0.0016679934643797209,0.006465791153201532,0.0028175178233475436
0.001898699430090539,0.002598867579263046,-0.0007758958992416978,-0.00034357231265184224,0.004869318137636277,-0.002359065820643516,0.0023951473416391747
-0.0033209178360379915,0.008266227306001189,0.0020774312566296236,-0.002677660945854886,-0.0030519269320262985,8.890262324872842e-05,0.006512908653632826
-0.0004635477933725129,0.010356383009428987,-0.0014527960760509562,-0.005445344264312937,-0.0014702272490052144,-0.004742563143019285,0.003344316171201898
-0.0006173223034803533,0.005454318611572431,-0.0028301404896451917,-0.004618914571555753,0.004258194878666476,0.002229488924159603,0.0002295091089940611
-0.0026762739352037203,0.0035389298841151306,-0.0010761699077457517,-0.01017147345318898,0.0025189695004828546,-0.0034672147303532264,-0.0013515048423927585
0.003534655749226128,0.0074977388922132186,-0.00298539282780016,0.00743944543164459,0.005416882038132139,-0.002849442746859015,-0.004009011465512629
-0.010286343468872647,-0.0027593024714498964,0.0031402179676251534,-0.00540337784824804,0.0011032367534777607,0.005828827571522918,0.00538792070953412
-0.00590320358487478,0.008444597039530256,-0.00426352148172419,-0.009496182503126368,0.002288186497765191,0.0019953181424441865,0.0012440186891057503
-0.0015205867389324935,0.008570977358370301,-0.002849581864300761,0.0012912221160728346,-9.852104101769333e-05,0.0009921803908325433,0.0008327244759126603
0.006134697920344271,0.015278452593604615,-0.0059436478010988485,-0.0040454229371733085,-0.0066438492301716355,0.0028042670892254613,0.0016063579815949398
0.003274517969469519,0.010746919607421022,-0.005613850597880708,-0.009105224477595946,-0.0018554987016367584,0.0022834082347675073,-0.0016512184550046135
-0.00745839066666037,0.011964642231557555,0.008377697598951392,0.0022423079139929814,4.755713016971045e-06,0.00527306712362678,-0.005136519236191584
-0.005018244645775499,0.018777287990962486,-0.006875013741923111,0.0014422212568028303,-0.010813913281690894,0.002516132722489628,-0.0025551184923293573
0.0021770469747959503,0.0051852127351968745,-0.0038994547534940164,-0.013287270558126417,0.004160480757569017,0.004203544002698438,0.00046076457100486097
0.0032928783939631784,0.0045006993575946435,0.007750636232075146,-0.008338116589029575,-0.004955952948905478,0.00400758358857827,-0.0012226736733768357
0.002252114928203807,0.0031283526229224094,0.002928046786280998,-0.011403386105819778,-0.0009023085841669103,0.004847034501571397,-0.00841454048401341
