rohith-poola/MR/Project1/data/mppi_kuka_20250415_123937.csv
joint_0,joint_1,joint_2,joint_3,joint_4,joint_5,joint_6
-0.0044132602206483455,0.01021389875198455,0.006625421064102063,0.00613182520093892,0.0007462096736339514,0.0011978425021785626,0.0006591931938962491
0.007926662150892055,0.008145485793310904,0.0030200548364056378,-0.0028729144979626996,0.006220715205066649,0.008983765121396753,0.001669754887686765
0.0009563547766638374,0.002184836367417571,0.0007910826804982551,-0.0077943351241579265,-0.003384151210927162,-0.0004600934157094308,0.007124904597218499
-0.003743121187459483,0.011499373842299676,0.002160883398983424,-0.010708639103654284,-0.0002646114622200478,-0.0024848277322098477,0.0020143181949277963
-0.007486315449296319,0.008347376199392187,0.003239713601748104,-0.00040341853706801333,-0.002202314154701677,0.003915587014127252,-0.005103442340828393
0.009545279672415134,0.01245284160877956,-0.002070394663715905,-0.01085927903637411,-0.00048327242252673623,-0.004754316652208095,0.005680736129778624
0.011321256808317894,0.0053951946094221645,-0.0007758243867094705,-0.006656413087399121,-0.0037598824728498183,0.011614751185587082,-0.010723045884661875
0.0010900242798712633,0.013765335492404312,0.0015361659798727937,-0.007111929897382015,0.005358674787607251,0.009373103110245156,0.0014833824033759916
0.0011245112472793946,0.004941824663130802,0.007415530204566808,-0.009751027879084826,0.005254143262374708,0.012084230178688014,-0.001982542388021185
-0.001360839750365723,0.014481495066586088,0.0027622668192159275,-0.009684966509791178,0.009611235902222456,0.002681832121336264,0.01008872804631099
-6.554104029932845e-05,0.014108323887109806,-0.001391819668056962,-0.0012424098270865385,-8.923416208180836e-05,0.0021966548410224133,-0.00553967972586342
0.004261133061390783,0.008644559536485647,0.0020493510682797885,-0.008112208417282392,0.00812578932508588,0.004903928558783487,0.0007802922897803858
-0.0015385283678536522,0.017603915293231773,-0.0058398174476350494,-0.009316824470149525,-0.0037648503089540535,0.008019375543207712,-0.005889052047888855
-0.0018224151647373845,0.01110344527911686,0.00020836479071332863,-0.009674572720429039,0.0007332966660486473,0.004615487204613818,3.4803880414119076e-05
0.000677110186359423,0.017849280937585074,-0.001394573980974838,-0.015479587156426498,-0.005535068028934434,0.007773907360260129,-0.0028246373999281822
0.0017772111166861298,0.010813542120969395,0.006073482661406397,-0.013996039259354474,2.8851116118104266e-05,0.0005471482042905436,0.0017696322839195827
0.007330720905635238,0.017890262822702382,0.0005057802276368098,-0.0016308276464114023,-0.007273360410726556,0.0020811555247959323,-0.004267132436844499
-0.0050161613337599085,0.010878764269302914,0.010117919255395215,-0.01205524606195588,-0.007139281283253011,0.005966494976231789,-0.004897944989169695
0.0075275537162360585,0.020493877713810938,0.0027563058578596025,-0.010280054930495039,-0.0005833960650343754,0.0019639866450240516,-0.0006693123936796958
-0.004695125841634184,0.013057887212985796,0.00535957072822419,-0.006432461923224277,0.010627257014072631,0.01407826848141261,-0.001863296833419383
0.008021454792916275,0.011866905284301774,-0.008278657796317118,-0.009416198257330097,-0.004644102351103163,0.002001494636676277,-0.002964936368201885
0.0018641546471086967,0.012847029356371236,-0.0054273684274996235,-0.012844499451168678,0.005027885562432684,0.012569460229055737,0.002031383738610606
0.004508131255485192,0.015939465303626183,0.0010539630408966947,-0.01439004953368445,0.005276594234910149,0.005559482525787358,0.003392435071839951
-0.0043943738907955155,0.017407361866166076,-0.0018131304903207634,-0.008995122182033249,0.0006914807711754331,0.0077256881316580235,-0.010170607861113288
-0.003351183693709755,0.02729188471639169,-0.004953550513154013,-0.01321102623819026,-0.007857536267323644,0.010075733272338192,-0.00807273105326432
-0.0006588344796709832,0.025899555367880245,-0.002599033633758702,-0.009420314384503865,-5.642296408000588e-05,0.0136547491128814,-0.008597507456646135
0.0006143541980167753,0.00899036632721384,-0.0029188729501341414,-0.017733775571754422,0.0030856490091966324,0.006276510683411617,-0.0038166313995666706
0.00014502160466870427,0.016044578135860323,0.0007201113653805164,-0.01477924733636794,-0.0018892370486559974,0.007911381093113,-0.0019243853360227368
-0.004459595223317985,0.018749217249614494,-0.004035295070555945,-0.01184076204768897,-0.0026322746299091222,0.010412200204753905,-0.004233525881423376
-0.010065831061010676,0.02264486344254401,0.00160026203726651,-0.006508355749834689,0.0029980891792354917,0.013796202844540938,0.010067512228596802
-0.0009516440171227084,0.025000194283645194,0.0005362812142486178,-0.016693972573460635,-0.011898943173130162,0.015625199098663382,-0.004722602891574563
-0.003669309072077867,0.02878931049226452,0.006315787069912971,-0.020183870887017723,-0.005493903993611729,0.014498761956749383,-0.005926970434321138
0.000318821047909388,0.024596537743436113,0.0032022209701103805,-0.00443898981344777,0.0014799698318134582,0.0004628354290165688,-0.010413292156216733
-0.012130443600807677,0.03039198067327671,0.006662600647197449,-0.009805398620729194,-0.00825072286796242,0.011347818063082514,-0.0015736042246814186
0.005653629533003895,0.016514802847020966,0.005749523046978021,-0.015733834925404172,-0.0043412077416444365,0.010269231809507066,0.008673466503737681
-0.004176980903955116,0.0248958637371621,0.0033128143202330327,-0.006404701638051408,-0.0009575248684017051,0.01643204909866345,0.004854056920027907
-0.001637769269109167,0.028734028483453092,0.00024419286033231023,-0.017010394119350996,-0.004906071087793913,0.006592311240954711,-0.00031202476698826234
0.002094120067890581,0.023161348607784158,0.00741614505756423,-0.011920686969496946,-0.008342146753109684,0.008997138247270267,-0.0007326077413043328
-0.004752900484481895,0.028216103244909387,-0.001623125291170324,-0.014794279197388044,-0.0058493075862361184,0.015375888359554609,-0.004903384415161383
0.004129776117172434,0.02720159581686111,-0.0017182551321479995,-0.014911631969535225,0.0030799622647351,0.02184669664767216,-0.010746325685386854
-0.0017896019836791642,0.022585836644394716,0.0031515448792751137,-0.015580784647851747,7.3627403587068e-05,0.011834603669719274,0.004954031234985319
-0.0027112468350084036,0.027959222297672975,-0.0014213918459305705,-0.011875546253173594,-0.0038688299252619,0.016995264792770817,-0.0023307297232348714
-0.008389326482707462,0.03828379039217955,-0.012381638841307298,-0.016134743231016806,0.00019513783637863102,0.00903802021435731,-0.007462280845858085
0.004794797635840529,0.037908224414748184,0.007042058621914586,-0.023201845104841662,-0.0010684824451158712,0.012124532335010846,-0.006727029797271197
-0.0033544446829972003,0.02964837089037524,-0.004021330890641012,-0.020315889606322843,-0.000967902398361656,0.0035292162316475934,-0.00485491678263741
0.004246085088405716,0.03517444879994155,-0.003383082545936681,-0.014653541125234478,0.0022251402692809808,0.0041951240361727754,-0.0019105678563179323
-0.0036178775591421907,0.029156345830879043,-0.002630997103247184,-0.015059314192796547,-0.007857716872968976,0.013381979262367977,0.004378879269792713
0.004209577777823669,0.03774312259666503,0.0018641256833997388,-0.013771977004813644,0.0010244678701278685,0.010294737441265774,0.0019327831326638734
-0.001400443277752935,0.03143116151533669,-0.0032534624153687268,-0.024863679396136335,0.0018943339490722958,0.018725731036984154,0.004315781004181528
0.005751591072363152,0.029881435566145344,0.006581392705181879,-0.017410838951555506,-0.0049111862469829164,0.016050336594588894,-0.003818193595870901
-0.01748983846372873,0.034226203234730926,0.003006212244372603,-0.021253085193482787,0.005825606710417736,0.012478252370545825,0.008088172715886749
0.0014205230239709053,0.028860723934188138,0.0023532099242942303,-0.016014536919781826,0.0038040372897270957,0.010066519482371366,-0.01032320156376763
0.0017271233196891641,0.03912259205409458,-0.00049652291226791,-0.019011616718517872,-0.0028676177282624927,0.016436498993209203,0.00043088991695660857
-0.003318965299525879,0.03871060166610499,0.0011442989071740657,-0.02360378579334414,-0.0024474848827649156,0.01853293517722123,-0.00582182300362234
-0.0028085174131739763,0.037661314421146876,0.002453942611788569,-0.02413738217030051,-0.002326811802537406,0.01108126774690149,-0.002482644048404704
-0.0034016484489691407,0.03877712078903657,-0.0014613076855180976,-0.020428394794013295,-0.005007857288698158,0.015275530671285563,-0.004830524973379918
-0.010656274796962916,0.04174147274441172,0.0015692212139872782,-0.025395413892135968,-0.0016325792257414029,0.01645646787295091,0.0030075997698725426
-0.0026034611989607893,0.04424037968227656,0.008522301125125043,-0.013095973010250514,0.0026561482368385562,0.01967947951895235,-0.010105079167847447
-0.0071147255377537,0.04839292148048842,0.003750241458854532,-0.011759714289886852,-0.005840194883527384,0.014293673757695463,-0.003072980971851067
8.717204391070358e-05,0.03942687159842775,-0.001516706003356886,-0.02620488132951929,0.005134030209721324,0.00960778277622314,0.002038048729216869
-0.0010160154361148394,0.03076422904624797,-0.0002911386731627903,-0.020760924508955166,-0.004107172715858448,0.012515376627322137,-0.007378062808535738
-0.0037750440335495477,0.041893200323213954,-0.010259395649453187,-0.02439742109224236,-0.005798695679230281,0.014425531073844684,-0.01117421292632162
-0.0029230555593222924,0.03243992524786367,-0.003379183611380764,-0.02167832055006686,-9.59488598420914e-05,0.015771243819161063,0.0007949527064773062
-0.007053583966177336,0.045720282237088086,0.0002844402388333314,-0.01757412295027353,-0.0028183955542636146,0.024061742805374937,-0.0008289670092494657
-0.00556687304526835,0.027315914570654458,0.00037968634058122615,-0.020904333668828167,-0.013378163885812493,0.011314346164099771,-0.002056900889329386
0.010089087801128771,0.04172304617685545,0.0022286170131043934,-0.03155926809404417,-0.0033567442499318327,0.009568982306369366,-0.0019739690526457457
-0.00709192793413032,0.03913006505683522,0.004951956334397863,-0.025698800295817583,0.004580091647114168,0.017719811198545318,-0.0027921709779629143
0.0021657751594363417,0.03735760073685594,0.007916876954573753,-0.027486091518901152,0.009667010715474964,0.008493260523235789,0.0023655462934834702
-0.006267178409827087,0.036766831838712315,0.003409218716143267,-0.01347531734692371,-0.0051935084313266145,0.006366415665487453,0.003279037791889883
0.001755177851492708,0.042478919504576974,-0.00021595099359429247,-0.021043781932557966,0.0017467414530646364,0.014226399448049522,-0.0034233260978093266
-0.003343523246501609,0.04685523025958909,0.004211531165591385,-0.033620451200241486,0.005175616815570641,0.014656818580439199,0.004871986265834524
0.0038751781478982847,0.037345935556880046,-0.008133944655578327,-0.03219942684141307,-0.00377687861673309,0.019687893981968914,0.0018020333977813519
-0.0014023367140898598,0.06005984776011339,0.00498408091713621,-0.027671460586904312,-0.0052131059148388245,0.02066229042790114,0.0028386223917820376
0.0006313980359332193,0.039477310020725874,-0.004011399043666415,-0.026252482440239602,-0.0027684686861387366,0.02301900427494078,-0.004094920365669289
-0.0010010872568569857,0.05001464833322542,-0.0025133294520977255,-0.027491995090057904,-0.006231853545269006,0.01697895487576398,0.005103567766568371
0.0023388519137276754,0.048896092321241896,0.0031875493591585415,-0.0346250097140869,-0.0014963297168440184,0.01494552291792883,0.005665446879710954
-0.0013653611579629889,0.04654466511669515,-0.0006590762048388285,-0.02971296957851649,-0.007263439839558085,0.01668634540880619,0.006488616416262024
-0.009036218543807761,0.051943583125085596,-0.0013268894020356699,-0.03410454252239187,0.002442076794949925,0.027073451009311432,0.011046620299301077
-0.006769109866196643,0.058577617668035854,-0.00017572051023817005,-0.023925517516220803,0.0032685771263460898,0.017449373284660744,0.003183810937635914
-0.0058326668230856155,0.04671533243825374,-0.0038162774112744475,-0.02778176534288151,0.004766428280568404,0.028951382872017078,0.005388042572011795
-0.007266608847884343,0.050521605770769445,-0.0005624520464740314,-0.044173151273485464,-0.003979439352029546,0.01580640471771415,0.005485724290261581
0.004482623886078325,0.04898003719027856,0.005037991289348975,-0.02869940649027006,0.0058388501641324165,0.012177428241151162,0.006497105440807364
-0.00677286409566792,0.04649295201191553,0.011090806286338486,-0.0282324054077046,-0.0016430985786894592,0.015148742936900559,0.004189236820581995
-0.001187369935709539,0.03914753936181029,0.01161684944845989,-0.03568476779985109,-0.007689469003442676,0.021425323242020552,8.660501165013053e-05
-0.0006441250412742767,0.048471935669612595,-0.0013327036385709068,-0.030141595563566395,-0.008370231118732877,0.01696666504803913,0.011664060338062684
0.0016963500327306208,0.04848413374288479,0.00957886740778956,-0.026766418578785034,0.0007842813526651388,0.015139762820933713,0.01154014639632399
0.0005506215044429079,0.05345134610987882,-0.0050546982574517785,-0.028337792888648114,0.004976411831804922,0.017380257517744725,-0.01018596051475983
-0.005301511062013278,0.05687897915120173,0.0043535640136922365,-0.03235164748932988,-0.007327983153051453,0.007926132008069091,0.008817648514851839
-0.0006809969576768431,0.05146872661595824,0.00752450275855501,-0.03847276377088603,-0.008034574361627364,0.018053682929734083,-0.0023311598603412997
-0.002338197017239993,0.047599865446145785,0.0050461838070180376,-0.029142780361924043,-0.0014392318036387892,0.01708124801808429,0.0015313911309419233
0.008201192897764857,0.05937620716126916,0.001264532674330572,-0.041302881221644605,-0.008025946509016536,0.019107830216064138,-0.0005440082624859409
-0.003184677914582709,0.05089803074256707,-0.003019980131340304,-0.042100602553886105,-0.008193330271435418,0.017547754538011624,0.0027096096962694405
0.003844052419711088,0.05970162485709295,-0.0009942893607908549,-0.03164524273272067,-0.0016400709877920456,0.02023886423101814,0.004612239940981719
-0.001722716076667939,0.057011108062085855,-0.004219967871277478,-0.039044358646020835,-0.008441584112909125,0.012265983381371085,-0.007092961836234842
0.006558190730688574,0.04891254184650495,0.005256464227905186,-0.04805517206183155,0.003334813281869439,0.01691218494883941,0.0008960078018578134
-0.0035128929771472825,0.05335715022346555,-0.005482209580786053,-0.042407249873906996,-0.005904544905915368,0.024462739510507314,0.010435914348199734
-0.0008140229461916677,0.049137263559030905,0.004910054177323147,-0.0354231005460409,-0.0032302004744454082,0.021099831245205373,-0.0004294869733584856
0.0018342669555,0.05772509428694898,-0.004837413267012696,-0.0484295690916511,-0.002129042129805611,0.023284095770645677,-0.0041424833739847474
-0.0042206545371854896,0.05411162125951823,0.0069646961121731694,-0.041548765322172915,-0.006567338713498914,0.02116636618638689,0.003936792474200719
0.0019889523199220376,0.05292200496975085,-0.003864138760156792,-0.03932241375434446,-0.011065118571226907,0.031199274086902845,0.00991977540765816
-0.006959029366316635,0.05235454453224968,0.011112106048208847,-0.045085106948297565,-0.007663588177810912,0.027978898724615044,0.001914701172771041
-5.720431576176758e-05,0.045711387029011306,0.0034952045794000037,-0.04250451624124463,-0.002490272561054834,0.014054670822500292,0.0027728570366834827
-0.0027705179404169406,0.0536461160262942,-0.004190879745811194,-0.04287825492569344,-0.006143348143194169,0.0196881115239636,0.004542692622140049
-0.001713611370592886,0.05546080249739698,0.008585877030864943,-0.042857576390015965,-0.009749715740798592,0.00972438968301382,0.0055803650344329395
0.0007320451837737104,0.04763084839843148,-0.0032407188817443855,-0.04383722167467336,-0.0002583631809470561,0.018991025658960818,-0.006963033061467085
0.0042191400782672075,0.05273552853988936,0.007480144524073725,-0.04664572182573746,0.0018593680019315453,0.02187698690962602,-0.004405720344508884
-0.010504395136257897,0.06903407884282539,0.0037574589502084345,-0.05411094806828591,-0.00585372407795468,0.01865846686523567,-0.0034591778128183785
0.006035665175283346,0.04793293806838888,-0.006053261208940361,-0.04337428356514475,0.0016831416438258147,0.009788327112410842,0.002232821584515084
-0.0012441302146701718,0.06809138267761644,0.0002307545737850968,-0.04348805252848987,0.0025097306978763534,0.0188542107075453,0.004743121177396543
0.0049525002418538645,0.056429821896489575,0.00642332986079054,-0.046098134284836605,0.0008383942169796262,0.011861701537605764,-0.0020520405694046673
0.008647092268603536,0.05914601965001661,0.004258096388599428,-0.03874360826948299,-0.002024888726972006,0.022191516412203696,-0.0008926915315820262
-0.00017418960342051727,0.051401388019608626,-0.0030240188590830636,-0.04843581601168678,0.0016922839834691834,0.013721057603732177,0.0027642565259328295
-0.010229642710099181,0.054002575568396126,-0.007474342674133315,-0.047035496448324665,-0.004705440301340218,0.02877956593178148,0.0013140655273343256
0.004293161334023565,0.06143256142191052,0.0006496938872857686,-0.05174747286535161,-0.0012119225113800098,0.01221399063662464,-0.0042467835582288595
0.007823282679239754,0.06495328884684004,-0.002148092432866425,-0.0485282252488977,0.002029625575649433,0.01568695382850062,-0.009956225573791756
-0.0001356790074506321,0.06795521756417179,-0.0035190759822764815,-0.060602937076513014,-0.010062802372489264,0.012059348256214141,-0.0011301464069730712
0.001341044452145189,0.06019835769390915,-0.004214172584879639,-0.06213907416619793,0.004929461289235989,0.013725564226407456,-0.006673270718021416
0.003108107468911391,0.07009006863624719,0.0024499023152212973,-0.04207729529806886,0.003744801626320439,0.009111540200270744,0.00099588798784638
0.006493561173512539,0.06189821686029435,0.0014936963318809087,-0.046923755850384906,0.002559834599804965,0.02272483973810239,-0.003034917095475687
0.004177022960107906,0.0707960293448156,-0.005730037257175443,-0.05060643659644184,-0.0015449197129595836,0.016749976137668182,-0.00033683565692428446
-0.00017575947922475292,0.07203902977251778,-0.0025038950921865448,-0.0527837816777017,-0.006428240691952783,0.01799435150259191,-0.008860819100336629
0.0017846606279699518,0.06664642476998539,-0.00804914560029652,-0.05344218463258919,0.003923514578659783,0.009612279507445953,0.0036918984962295196
0.00041271356138278,0.06749987603224827,-0.0016277452183430655,-0.0537764039069384,-0.007419692607769133,0.014866839355433158,-0.004328886731234886
-1.0992169168152826e-05,0.06772385224307242,-0.0034028760111015285,-0.05083076380693636,-0.009422880226643582,0.017122893536388045,-0.012462008236311418
0.0008829044941519965,0.060060174659821844,0.0026002173321735536,-0.050743311391913515,-0.010723030032451494,0.012566952890366832,0.002942093797554335
-0.0017744910896644159,0.0654553479974672,-0.002119268917230627,-0.046790764957164666,-0.002302410681854396,0.014952132789748258,-0.005538002289552188
0.003889728530473086,0.07139677488271176,0.0035864916964508924,-0.0577477861126011,-0.0033239019671155055,0.028103574308779928,-0.0021615798613084797
0.008313156514011289,0.06838460905276028,0.002487039227293936,-0.054221130215416205,0.0006365418036855769,0.01520323952007828,0.00337773425926424
-0.0045975468672509266,0.07061334104365632,-0.0017826446789067946,-0.05606546508755359,0.0034921282111298564,0.02721837517445908,-0.005713213680927697
-0.0045904503779771975,0.07011307187583538,-0.008703851450434667,-0.05219919172096399,-0.005226349547276637,0.016174305370506147,0.002229586635914283
-0.003265561575838623,0.07673289990674328,-0.005385762271692178,-0.055314467369424844,0.0042587015635290205,0.014475712903004374,0.0015910287305071853
-0.0014008409596739087,0.0709821078252743,-0.003776488681661679,-0.05177847099934863,-0.004138153331761633,0.010870268152676358,-0.005155685355587766
0.006546564009247545,0.0719347943404839,-0.008290669031688281,-0.05907701453406765,-0.009471332627197886,0.023759616517891196,-0.004660692423363142
0.00021953689983788692,0.07726248709341874,-0.005521895917799471,-0.054792511704991526,-0.00707757985346349,0.02300016743756807,-0.000905274141636376
-0.00018088075809961695,0.07355621215296229,-0.005418237643198594,-0.05528278064018492,0.00045445637767372194,0.010623694691923442,-0.004195848420245674
0.00043734599865383504,0.07390887077024509,0.0005222043580319392,-0.06582249590759097,0.002358433624684347,0.024654828839899116,-0.004362820086496853
2.5415429812892837e-05,0.07451361515814087,-0.0010484637201693405,-0.05718663266323265,0.0042472491570126865,0.01524386708956102,-0.004761473968965098
-0.007163882141368015,0.08680401363095804,-0.005443749045031188,-0.057868365510170786,0.0013501440889473063,0.013447379481758621,0.006547755822840616
-0.006086701052584588,0.07474318499649966,0.001576833846413266,-0.06503637159544355,-0.008970231463342821,0.023155561157538283,-0.002697322753217748
-0.0009175840002399227,0.08275841458314694,0.00425947638074118,-0.061090252278715465,-0.003949511639460037,0.02251345330094719,-0.015910767802386337
-0.00029775753928810707,0.07913559109197475,-0.003476414995984129,-0.05871250159224687,0.00395543706618642,0.0206606099113378,-0.005441015794351094
0.0063257237277993044,0.08305584947737138,-0.010067281499753335,-0.06375875146138452,0.0006655111459530861,0.022113954258929265,0.002583690540753997
0.00169231047042425,0.0796058481907929,-0.005136831942732505,-0.06910080162605818,0.0026287548449309686,0.013342780415525057,-0.009001836801038644
0.0003259910440913327,0.07161657441367238,0.0039055647384508554,-0.05789484254972398,-0.001958392293730389,0.018165317316903296,-0.010881314088045681
0.004296227322353082,0.08007081943137652,-0.004108536820250329,-0.06334432970223479,-0.005746594694365078,0.017916805039025412,-0.005887773956976905
-0.0024189321612209705,0.0779682530424751,0.0015065805854376072,-0.058737176017877445,0.003531466099235234,0.017515432112876903,0.0034541883576346038
0.006586141857891078,0.08351646396418082,0.001984918662191015,-0.06108011050185472,-0.003254297750357288,0.015933494870529526,0.003811819086107959
0.0051286338251259915,0.08674658391201298,-0.00906935490907999,-0.06356103317525538,-0.007203030044377053,0.020596689609583423,0.0023599746398323875
0.0071550557502987906,0.08702748986287104,-0.000684863837362134,-0.06394709577893819,-0.006343371427140731,0.017921116237317115,0.0005852427006804925
0.010666576189981035,0.08967790754164981,-0.006739969457136641,-0.06819491662930817,-0.0022471224106538823,0.01645876938037419,-0.0006651437978259815
0.0007135750947904773,0.09308505235489553,-0.007081672443751073,-0.06458077351609114,-0.0014381186181796758,0.018727669761313955,0.001793502820996002
-0.005354978538233338,0.08663598535251744,-0.004708057104611494,-0.058913712204633845,-0.0064028832560043235,0.018937642919786876,-0.012554664165224272
0.007370192952069449,0.08482361165017875,-0.010824104098532588,-0.0729940522107356,0.005610830354634121,0.017124997266249956,0.0009353073387369879
-0.0020181215281082398,0.08634883029430274,-0.0012950950364724648,-0.06654391348524076,0.0027171284311132277,0.01237475373708801,-0.0009801073248457042
0.0006867860333130739,0.09026772083891059,-0.01682699214712259,-0.06493831269323412,-0.015330998889509211,0.026822045805381348,0.0033509855493029372
0.0033731203132638383,0.08902625188972983,-0.016271744524648094,-0.06617706989738491,-0.01126715040193986,0.02747744487328432,-0.00011387834231442939
0.004864880002801858,0.09454505464113616,-0.011648581393727802,-0.07188468645226766,-0.009820734946940777,0.025293775104510568,-0.0019398058544176017
0.004734393940158749,0.09284539324968687,0.001649586983303729,-0.06731696111030609,0.0015944709179679878,0.018980039397915288,0.0052910963420291475
0.008637565696119787,0.08774953598583604,-0.0006467947429828046,-0.07038736707661589,-0.004858628078002148,0.02201182064858899,0.00849794541977154
0.009352400201740958,0.09242840828322395,0.00070406913512979,-0.07226060232938783,0.0004430533233696103,0.01675953185981913,0.004231919144433052
0.002554579576926648,0.0923652411444307,0.006399261215595833,-0.07395874624956891,-0.006590257323393742,0.026184045429873307,0.007935797597993217
-0.000659148554154857,0.08868804705228416,-0.011101409746619356,-0.06919119842505979,0.006309692789375788,0.020528150927431,0.007501648421842944
-0.0008814086421297129,0.08412454606851626,-0.008221091757986125,-0.0725648442182859,-0.003983788616489714,0.025950238541605334,0.0015815321853056554
0.009035456588782367,0.08996431669890909,-0.0004393710624413837,-0.07285104206434802,-0.003914867150928621,0.029905164735820763,0.0001821230789896336
0.008260443668785547,0.09921252585371644,-0.003055087753354678,-0.06899499787322141,-0.006324558101895418,0.029533388156117675,-6.914052611318262e-05
0.008322487146198824,0.10012413862643174,-0.00236057954107223,-0.07471806567077792,-0.003802709524636996,0.028822638688288355,0.005023977807833743
0.00422393105572827,0.09064287892776866,-0.0036399009047787924,-0.073555802935548,-0.005466010720831503,0.02597622777115505,0.005432059898666692
-0.002253433994614736,0.09216010013880187,-0.009132830197380684,-0.06799048228600449,-0.003119241001889309,0.027343355137898463,0.011394807134419545
0.0073453798171366,0.10488124702379129,-0.0028187664838822436,-0.06353605506531682,0.0049995705216017445,0.022004036106701787,0.0004725346550171158
0.007775649649588668,0.09435777561290991,-0.018474109685255126,-0.07345009663592608,-0.0018105645305910674,0.023691939411758112,0.004117073550669419
0.017113249833267823,0.08893666408695616,0.002350110070682027,-0.07559350408015297,-0.0015425432021212346,0.028866176215825528,0.002278202270100451
-0.0064447514482892845,0.10668998773196539,0.0002662098943559841,-0.07155387713943794,-0.0021033935979713966,0.021263882189914485,0.0030888183325283804
0.004858509546822988,0.10211375001694808,-0.004061350833838088,-0.08105362073606158,0.00047215496091857325,0.023491796534242673,0.004209436730219615
0.004477595857613247,0.10731415700971382,-0.011279833807124795,-0.06493064495650429,-0.0014227977560099265,0.025364684705432853,0.005800145674953329
0.007431667828163482,0.09211300983027293,0.0023870366755114857,-0.06644200339897037,-0.005173244529455955,0.02445555131149181,-0.0009050214403794662
0.004932013893217615,0.09758482412351979,-0.011475789757249324,-0.07501037970277215,-0.007082578089675576,0.02330904935983104,0.006204306738254348
0.00826026506217468,0.106020261571465,-0.010602801604648875,-0.06646171980648655,-0.013626262143348786,0.02812241991126651,0.003902489594074558
0.008253894693498992,0.1010232499758022,-0.0059072992998990565,-0.07509744678795441,-0.0028682383037808797,0.02256975874604269,0.0036376723837076197
-0.0003210157874821828,0.10282965783736008,-0.0104090684608042,-0.07500309761214088,-0.009589182905491364,0.026442604246315955,0.010661775380497535
0.013430424090720983,0.1062309816765049,-0.003443853497503031,-0.07377922946339195,-0.0058937410564752785,0.03085548563446882,-0.0001354193682398877
0.0037087890961708106,0.10066060449579861,-0.00043407739740951995,-0.07366018816554594,-0.00437094424201922,0.023895030470537596,0.007144081214976333
0.016012423393706933,0.09818367077422473,0.0022869951804339117,-0.08030661563035174,-0.0011745199346013977,0.021617021737571147,0.005994229551528667
0.004625760427772007,0.11388867773190181,-0.012506054524850466,-0.08384539641964096,-0.0007935248046310791,0.030739309793016374,-0.005091001395855005
0.011392374702824688,0.10475342361742257,-0.005846814868156995,-0.07439851285909592,0.0037639283098892325,0.027388722320691665,0.007369869346254915
0.00770372031094849,0.1123723626156563,-0.0048786224938790895,-0.08048907739759928,-0.009118042843878266,0.031863290247391436,0.0032577630616811254
-0.0022482983634270403,0.10547254504032404,-0.007736279688186229,-0.07364736866499602,-0.003980557710388864,0.029062474126507462,0.0013559443057681356
0.0023120923791676027,0.10504210630694619,-0.004723720776708677,-0.07863784874291624,0.0031152109635684748,0.02683935046899682,0.0037845706890559166
0.00491598508862531,0.10459964198110143,-0.007873743576397987,-0.0827966982980439,-0.0029284929661231814,0.03187318856447658,0.0018798759788898225
0.0030839562561980295,0.10892975158857249,-0.008529193939280054,-0.06940290736356117,0.005931208569116654,0.026973963405294,0.0019038559241139402
-0.0018029959515683466,0.10669723119181494,-0.006388504625855418,-0.07623437402283001,-0.0072717376855903505,0.022921190462000154,0.003115205948733955
0.010973619318558496,0.10911851894244388,-0.005528982916861016,-0.06840180350296486,0.010284523679542672,0.029513098406959145,0.012349190009980814
0.00970313412258317,0.11165672996705886,-0.00632793660886128,-0.07247826493067619,0.0015050600426764452,0.032510970809760634,-0.006683055400685861
0.008809948669439564,0.11180486430497769,-0.010505465912150597,-0.07744745451503315,-0.010903011919812581,0.03127532901859414,0.005466127954611824
0.007085273819600416,0.11494853068709508,-0.00677555387524074,-0.0837471059231224,-0.003544353884800127,0.0333073088730235,0.0007581657849641196
0.00931454486205926,0.1111808286262955,-0.01482717475119921,-0.0799267645182818,-0.0014324366037639213,0.03133147194532428,-0.004150995368626053
0.0008296576593076277,0.12080692202472579,0.0007032135886718962,-0.07264544228333503,0.002925820007112824,0.025333526294540495,0.008319178008716996
-0.0007447083825283252,0.1115047811424725,-0.0027242353069518955,-0.08048492377759243,0.0018066191389797762,0.0281413641392936,0.00472906338912873
0.009665945369163001,0.11268651779691481,-0.0007614812166547354,-0.08091208775925851,0.006679451110836499,0.03485968719114552,-6.541065897238806e-05
0.005058099060486512,0.11007066524769589,-0.003413512075227325,-0.08509027636782937,-0.0035188469789368946,0.03479092895184032,-0.0055237101496479705
0.012754537989982707,0.11653879251019739,-0.007857242497481855,-0.08089070121970565,-0.004218755801733164,0.02548027998949626,-0.004645083681764941
0.013401367790059075,0.10682055388238387,0.00010666569731626,-0.0736590114927662,0.0051820584526473725,0.029748483782288303,0.0066548272250353075
0.010969514203508009,0.11280003753111974,0.0015836541679620881,-0.0826341114914643,-0.008395655908700788,0.03049533823797337,0.0051767078343799375
0.007163022200652806,0.11239863599650009,0.005682796771877127,-0.07991541509612171,0.0007090568321492291,0.03324976615943699,0.004776271952243161
0.015508557716773196,0.1201959460865667,-0.00971263779985927,-0.08310762283901284,-0.007177324093155378,0.024802751061090936,0.002535795836307379
-0.0007429963612451112,0.12517022390911298,0.0013808225838952085,-0.08107552475118139,-0.007162043065445321,0.0378693027438382,0.0010095014923517886
0.011849769359374535,0.12331455938935891,-0.004767213328330263,-0.09157143361976931,-0.0010954571208536806,0.0313263558568192,0.005852996316753665
0.014140732176026134,0.12560249573691673,-0.0030928636823567518,-0.08897356266181083,-0.005562669474781477,0.025505183412816955,0.006323642879959127
0.0061964482196013495,0.11557275196228677,-0.007609320122340008,-0.08331831270206085,-0.0008563781050220758,0.02524914982063811,-0.002371718629895932
0.00975872014761798,0.10997238392770328,0.003215287647433283,-0.09275138045906084,-0.006672620966263147,0.03598193918859276,-0.0033534758169827305
0.012621567904804992,0.11719217004960072,0.006551154682287902,-0.09322929549526097,-0.00246018497792888,0.03705287684629491,0.00629849531906826
0.0029250360359330055,0.11697485751279052,-0.005686777358573675,-0.08420473377162874,0.0007498165754960475,0.0323747133318139,0.002891175830284592
0.003988664745452409,0.11007699848988597,0.005017168134090102,-0.07369436422078764,-0.002875514478690816,0.023508947322466674,0.0017569558567375573
0.002165732880070358,0.11630010700281632,-0.0055683308064323695,-0.08565413330573925,0.0056339428206820825,0.023726879711223916,-0.0034296345734454374
0.005248849386049871,0.12054301507773817,0.007672988218069433,-0.08844320613298678,0.0042903348576147915,0.028379675253950774,0.0031983303787817743
0.010047636537538436,0.1262832002884875,-0.007461630345391807,-0.08908124602611824,-0.0006934537871511172,0.029560997115358027,-0.002428252792325374
0.009183207915208241,0.11893934724602447,-0.009400868709119516,-0.08764027280232789,-0.0035974611033657167,0.029446154266390107,-0.005012407369229022
0.008613166403055225,0.12087226670426618,-0.00044328326128185687,-0.09518303976598162,-0.00011088271159507028,0.01906198901955483,-0.002911782519522877
-0.0027241046094253164,0.13525973422430965,-0.004622364457714121,-0.08763086582621532,-0.006066384768253372,0.03460359008169981,-0.004163879088535745
0.00817086652232787,0.11995534584526142,-0.016222217524874707,-0.08179557393906792,-0.0018561344160890393,0.023355581896981472,0.011922859212882398
0.0031222405781392067,0.12884158072508325,-0.0036097420037448234,-0.08868815073773932,-0.005298868683556748,0.028644800928611717,0.00884183542299135
0.015846942407900085,0.13682971041497993,-0.0008343992704135765,-0.09008196768583436,-0.0006915554098763112,0.02276423266645179,0.003497425011446893
0.0032099067786045586,0.12681227436425022,0.001295865031530211,-0.08371167011206786,-0.0016606484833549483,0.03133324352906796,0.004470269789458751
0.003104482819293105,0.13394034242886993,-0.0075569771637659326,-0.0833989816452805,-0.0003343559876411908,0.026793343036082794,-0.000955085068477112
0.01672119560597248,0.130580406521609,0.0013384342724986576,-0.09833031295717913,-0.007804127018073122,0.03207963453989226,0.0029867516617946574
0.016163577668916244,0.1337557346598188,-0.008369787768928504,-0.09770538907477917,-0.001676743289279891,0.031084570634429876,0.0005124619371160073
0.0016869428499207651,0.13355929058586744,-0.008709436917668498,-0.09847429947083448,-0.004729449762565073,0.03489089897825448,0.0028097335496242533
0.008629268026591605,0.12951248870002505,0.002256849442659064,-0.09206273254280947,0.005120274443905315,0.03134255736548248,0.0055226579870008615
0.011708127083871846,0.12592601540794163,-0.004714603500323987,-0.10002648937543947,0.0016563844754867202,0.020969799632076635,-0.0005771082060800248
0.008936308470030827,0.1326018804314813,-0.011864232156330456,-0.08749280853004174,-0.007572820637317053,0.03133210183973217,0.011302406225229433
0.004575759095306548,0.12158645717047419,-0.00835767057167575,-0.0952383800165223,-0.009199468136773912,0.027267255976273188,0.011394955977290908
0.00747963340621295,0.1213536399236553,-0.013487073993367963,-0.09643824736523104,0.0021934184978514362,0.029371916110283103,-0.000877843170526524
0.006952503599852441,0.13531180492543377,-0.002219352278732407,-0.08938534494488859,-0.003256684810690305,0.03324485555271525,0.008514981965243158
0.009473756793191348,0.13347326310984267,-0.00157528826273319,-0.09229137634189258,0.0023159915091486983,0.025978055349893142,-0.0013419107114748447
0.006816040017926217,0.13862642721683427,-0.004096626185890022,-0.09694105000847301,0.0011810509394702161,0.04334666753268577,0.005648991099157383
0.006595829193406754,0.1324711017574211,-0.006584448668513002,-0.10190654765283882,0.005085991198373409,0.0311644632343843,0.0043976599134858746
0.008780310407053458,0.12802403272782278,-0.007491837961739212,-0.09571010047122322,0.0044326179827000505,0.0377230412737188,0.0052949872542660485
0.010782159374851264,0.12839798995053883,-0.0012994354475659381,-0.08977603567850605,-0.001623473023823675,0.030985854346260357,-0.005230614070043659
0.008573581524581755,0.12998612052779834,-0.006030498064433728,-0.0932643356176632,-0.0019628487638814274,0.032852562104967564,0.007044106101984561
0.004627641844208129,0.13449004085102947,-0.005790826830526608,-0.10153102709583638,-0.004123293142947675,0.029169006336713953,-0.00494330152173466
0.006542151035364224,0.13355041772641632,-0.0023340703236070957,-0.08989383216717237,-0.006887617687822928,0.03300482454854893,0.0013617541298359974
0.005724905183836773,0.13298030602211447,-0.005741320995859301,-0.09617828307598993,0.00031344945464902084,0.034527622469699204,0.0011719587017070604
0.011437629152594185,0.13084771993036132,-0.00252865702764793,-0.09233813814030559,0.0010542240370519393,0.03528210557590802,0.0002633430441842063
0.012655590916105242,0.14425214195493483,-0.006260562979418889,-0.10067645514487758,0.002101716760988508,0.02686571674746035,0.001669747402476142
0.006263447387269979,0.13557360791862122,-0.010132197508709435,-0.1037659966138852,-0.0019147382986160152,0.02624944287199364,0.0037612253565817294
0.011930780673719846,0.12841953088785793,-0.008967387892390903,-0.09766639982695137,-0.0002206921951136289,0.027728249952482322,0.007834380380703353
0.008485651605634064,0.1327355329805737,-0.021099594723484428,-0.09702988666073846,0.0020768484591714388,0.0365119302494029,0.00810569827753976
0.013510911958370137,0.14690766177061526,-0.0074100969410226605,-0.09713102624270306,-0.0149502780845999,0.022318274587982655,0.009034001147273166
0.004589796391106882,0.13562285239223557,-0.009744350216160866,-0.10018029221833831,-0.006414267652302522,0.0326850312554452,0.004839116722673063
0.007295115591726997,0.14659071359737214,-0.008237998481592387,-0.10678080917381977,0.003028723128354838,0.029460857097833852,0.006907036198555739
0.0028318833095737246,0.14315003383892905,-0.00867007633017675,-0.09843544808524095,-0.006586024277259419,0.038405468723138846,0.004839690590148189
-0.00025417922494287183,0.14084237157591833,-0.004918522998396886,-0.09649136959877451,-0.00476988731568768,0.03507924551465689,0.005546344556788127
0.00563842801462831,0.1358537842300612,-0.00222473374946317,-0.09576485861358003,-0.003054838873293473,0.018398485422653973,-0.003153732136046471
0.01782685145253502,0.14641378515211895,0.0028261848779849927,-0.09184678723349073,-0.0022638269276897974,0.030819826471581713,0.0022868403631650684
-0.004110857400192083,0.14847190311683436,-0.0017463021640780575,-0.09766652924064868,-0.009852973310991903,0.032289997633305846,-0.003863162514284845
-0.006442322463633913,0.14220253851947143,-0.011805790611763957,-0.10740727029502334,0.001965540910961183,0.0349674250657121,-0.00777955464892589
0.0027414855959216793,0.14495340217734545,-0.005661509156385974,-0.0967094417949977,-0.0005997991832016681,0.03393116915229761,0.008780385089456815
0.0025229428097333787,0.1470910928740453,-0.00458526077072499,-0.1080781774471137,0.0007527076559060053,0.02944954673025424,-0.008809794047114832
0.01090857679881771,0.13971776567545374,-0.011167420194942507,-0.10694660103869516,-0.003411002206358246,0.024782148324873195,-0.0006281079278534231
0.012560304593075203,0.14249050830109306,-0.012942579118870388,-0.09723452760045138,0.004086020808224644,0.03868085282032427,0.0018650816642493751
0.014194735228517039,0.15302075502988616,-0.0052421472143267915,-0.10126606965351606,0.004540295925256984,0.03251833390426656,0.002372738510060682
0.012590981827833941,0.14033295177949945,0.003035434182736208,-0.10385935985575807,0.001779219100250405,0.032298652250292575,-0.005525399796519926
0.011543883424423026,0.15255961997745865,-0.009897597838040015,-0.1037415197359471,-0.004281003456490623,0.03766264640935513,0.007221540369885077
0.0004697656031397608,0.14824032894738276,-0.008526375792142066,-0.11067198405212383,-0.0021661828050668613,0.04259478016196572,-0.007215402883129873
0.00728012357276086,0.14509228669967086,-0.007378343693734346,-0.10788258123066699,-0.004810617530604104,0.03365978806042057,-0.0031998425831303943
0.010699035131301386,0.14981369855981388,-0.0009404176330496481,-0.10934933399351815,-0.0005098213840889815,0.034324169785452295,-0.007637501173472211
0.0060806851001934895,0.1432326163307246,-0.009587746705928948,-0.10621547644510515,-0.006533846824228928,0.03066189734200093,-0.003910838550819577
-0.0004954658460279383,0.1485764566233297,-0.013638495408356655,-0.11090018066037649,-0.0031187655351892344,0.036347127614039375,0.003797336844175711
0.00395437901322887,0.14383623466500695,-0.008642289030043345,-0.10721802170438631,-0.008456869777243496,0.04471433364451393,0.0017651574494903588
0.0036739564929840355,0.14500245072627407,-0.011634388721343637,-0.10853713619977887,0.007234057540440682,0.03282535733454491,-0.010669131104321074
0.010946142878938386,0.1450249406500618,-0.008530390382573373,-0.10699025984762174,-0.004507970365364831,0.027449968641395702,0.0007386238489143901
0.0005846303147897325,0.1448719270952744,-0.008384157087199744,-0.11131975104756689,-0.0044307436459808044,0.03345222678216722,-0.0014292366860222314
0.013072446645286718,0.14975304643851983,-0.011480212206547458,-0.11045146561326659,-0.006005337879837036,0.01887908730781892,-0.00623816422444643
0.0033175301367803535,0.15414041448741136,-0.004418127828908823,-0.11147219761169008,-0.007814799959640684,0.03304365483461603,0.00020765872483111255
0.012052220866053905,0.1509564282463704,-0.0009617985111284571,-0.1067884431152376,0.00398155947842321,0.03742817003797617,-0.007027594796541171
0.01144403843520898,0.15095070634303442,-0.0012582879758067768,-0.10751373236238786,-0.004001674256701995,0.028967035903426353,-0.009042419341011933
0.018309249062535938,0.1499387720547849,-0.0007044602050870416,-0.11094103163575288,0.008041836090577622,0.0355392648209203,0.00684363885821103
0.01719550522439357,0.14853363188059926,-0.009360492856938036,-0.10986881897989456,-0.0036509854203625796,0.03708736848106751,0.0034077267675950164
0.013760371760011266,0.15013190960685252,-0.005649568302640504,-0.10999647913672689,0.0095083862724788,0.033417545702078284,0.009238725276899286
0.01306591096934414,0.15357385388233827,-0.0032669530264856626,-0.11019947257417911,0.0064950075937015034,0.03664456693189799,-0.0043187479230893
0.006417211330119305,0.15793041418418152,-0.0022896879400602604,-0.1085723868317564,0.0005168519869880499,0.0306298434795987,-0.004326791475330161
0.018284956396975027,0.15780339164660287,-0.00016104697408523584,-0.1217104522985221,-0.000847163143845656,0.03555491539062024,-0.0018870533250955562
0.007851658148889433,0.1533959213990666,-0.006559182589554043,-0.11781564900467448,0.004807260380791221,0.031177609941641864,0.0035836943595600208
0.0017017199344618855,0.1584744511552373,-0.005934251801834435,-0.10801534984268589,0.0012813149566297385,0.031027441594105348,0.008133392930607308
0.00750858607549914,0.16030350966558615,-0.002577519598565058,-0.10923749294000677,0.003085404875336657,0.038250463565876885,-0.0007444258431078337
0.008757374119867305,0.1501900402898156,-0.0017979504061250537,-0.10371648510188196,0.004090833796685438,0.024138192443983752,0.00010427213149672319
0.010909635648311732,0.15718177535726188,-0.006943386526040159,-0.11628790238294122,0.002768345325021011,0.02608803429166994,0.007234575569274208
0.0068322171342414875,0.16602480727613864,-0.0030443892282779198,-0.11229884218003347,0.00795600786078248,0.029440906752924146,0.00023925204150582885
0.001986224330439045,0.15921390563256468,-0.006040516638729123,-0.10864272783402908,-0.002377797649058634,0.03343330948316233,-0.001391371018619913
0.009833781272090883,0.16651776939561969,-0.004598512015029783,-0.11309822125563036,0.0008099688849015416,0.039790619245206486,0.0006724270303770032
0.005282814269900743,0.161446102417427,0.0084652113698768,-0.1086035544509228,0.0009936504609087127,0.028256015034372303,0.0033097197641279697
0.008359522330286891,0.16845071989602983,-0.010391027639728944,-0.10453537955080502,0.002295846477328183,0.03964897921846181,0.009584322292715582
0.0025046172622691237,0.16112189428975338,-0.010193448759226488,-0.11470285132556542,-0.0026102170328618024,0.03126414620151756,-0.004803110841659348
0.009622548261576375,0.1583932469803095,-0.0047654033880905125,-0.11632031854819665,0.001043025205857828,0.0353521958454441,0.0047381170948294134
0.011946087193213852,0.1761255870164871,-0.010337117861810493,-0.10588363800501967,-0.0038617990582001287,0.038592946218433344,-0.00047437626877700053
0.0013652226061189009,0.15921582894740707,-0.005176442567009569,-0.11117115146126161,-6.143730434341518e-05,0.03867680380044445,0.0031691659056395345
0.009829819622128729,0.16345458550798259,-0.009001661583097178,-0.11562124544577433,0.0007292087859313446,0.032742263893219194,-0.0018299808083731882
0.013089637883575604,0.1572677511032303,-0.001394482515024783,-0.10794909094889701,0.00411654050748223,0.03570512896139843,0.006680524446755899
0.0051069920438274255,0.17139513228908831,-0.0019846031712471347,-0.11411991728200159,0.0022768073381600144,0.03406948449887911,0.0036126569686476873
0.0057444942334649975,0.17391328763983682,-0.010415348589414768,-0.12361706578764439,0.006933146428683755,0.03225399740647758,0.0033123323408938976
0.0056157922465658,0.17315504225607567,-0.005535793854238519,-0.1160624176128187,0.0019510415397101066,0.03648869825231599,0.00930318275316605
0.012996408244171646,0.1659542933346529,0.003170867152014873,-0.11781944717060631,-0.0019406097783936452,0.021856713545874394,-0.003914500374138841
0.004149947049123424,0.16180298968254594,-0.010410847320214713,-0.12691272199726186,0.006426635788964914,0.03533456953020963,0.006116642797615592
0.016800513099999526,0.16702559482980855,-0.010447094530286027,-0.12515224378917997,0.004608645411517738,0.038773487286257846,-0.00621167437944746
0.0014388065157064488,0.17449969036663382,-0.01108896322685515,-0.1235199100536932,0.00637238272175291,0.029499712183944662,-0.0009969179393063746
0.004216557484499828,0.17364265805870063,-0.007231305050935211,-0.1299142703977395,0.0088225440188832,0.03305876034452601,0.0077373355067076625
0.0036611950595528196,0.1674311460719415,-0.0029591946710960993,-0.12040723200959283,0.004990001403038345,0.040375112518865705,-0.00760633715237167
0.001948088043812633,0.1701798589126854,-0.008698878185378725,-0.11250932487123486,-0.004555045288419924,0.03116194932514014,-0.0022041713877466646
0.011350041995394584,0.1752221735662039,0.0012697728643310206,-0.12192960292552113,0.011065025541235781,0.04715167424374482,-0.00910391145964361
0.011859563978560441,0.1739784921755803,-0.014624922161511483,-0.11470207395726999,7.807052775495212e-06,0.030054181359424836,0.0018526999899379137
0.014106053912927755,0.1736309616022197,-0.006257231195470481,-0.12370711080765665,0.011026786249536177,0.04321789513621877,-0.0016347834244981577
0.0010773308886359717,0.1748240675533319,0.0029192008441020108,-0.11934982157816904,-0.004193055315034182,0.03884834354650414,0.007980352647035005
0.006735685446786515,0.17367962013737054,0.0020380714151954525,-0.11310813911204814,0.004043255610769615,0.03927902387696568,-0.006434265063912462
0.00953656812910569,0.1792111540422221,-0.008750360727837072,-0.11648016857205169,0.006506911401158442,0.03680080621301113,-0.004645966796776124
0.009365635118167117,0.1742194754435545,-0.004163786350730933,-0.10875667547392605,-0.0003118921334289409,0.03873846362073873,-0.0014283084352024245
0.0002460901895208452,0.17299527601942882,-0.008561803192227239,-0.11764740893332726,0.0046963165478081026,0.03884277813363835,-0.006187539474772241
-0.0007347724752768681,0.17682537805168017,-0.0015973965230950057,-0.12154762202682301,0.007535921915347195,0.037194667792054804,0.002609640740700991
0.006924494950695923,0.18565221138739604,-0.010112305786252572,-0.12067947845516289,-0.0016125937408414614,0.03609629521838632,0.0007573598879563577
0.008437733465897736,0.17625163500333318,-0.008319727078086727,-0.1198856720642001,-0.0027280855539413913,0.03904605573416931,0.000342674751681012
-0.0033277177620789867,0.18794768892033858,-0.0025157634059127395,-0.12126144239503164,0.002815503794792029,0.04356143114449344,-0.005156938511671825
0.010766834398407955,0.17436642479321493,0.004544810588025832,-0.12479059526330744,0.012614438691024226,0.045496026931651265,-0.002355849362735348
0.004333291032979944,0.17259235701833933,-0.007145084461614328,-0.12822142456383218,-0.008499204062984583,0.041879154709360926,0.0002544495039843405
0.011828893153478041,0.18529117976140602,-0.005509198263290163,-0.1269958555693833,-0.006592851987498889,0.03784236622952931,-0.0022341535735214205
0.002028595525824274,0.17469905872166128,-0.00655738096634046,-0.12238339889049209,-0.0012093995297066265,0.034849129509018126,0.005385801073864207
-0.0007508813708343122,0.17837397882522402,-0.013547400016575128,-0.11879582146138606,0.00585130793184997,0.041919129250662,-0.0006252495038520133
0.008077784182377635,0.17965803351072768,-0.0011089655303878855,-0.1266262947234584,0.00039773639072636607,0.031831215083397264,-0.008599658343115567
0.016829300177681694,0.1805439016172025,-0.013108696892237447,-0.126939737492955,-0.003220019465635054,0.03720286729563485,-0.01049182342933119
0.004010133626177437,0.18388114337094588,-0.0025446004194578957,-0.12316790317884652,-0.005418795066733605,0.04037117006981035,0.0022728721544920706
0.009457296581839381,0.1788485268881747,-0.008507696999594624,-0.12176751452937022,0.0009561101155920373,0.044317589957839944,-0.004510691993859457
0.006678088158208615,0.18095222477343073,-0.005596617389219001,-0.1240042853507099,0.008873044712524104,0.03732268431743119,-0.007382063904186029
0.0012256893159004025,0.17407167269276608,-0.01346976337773691,-0.13269178659119338,0.004932374443110187,0.04278447529759434,0.0009657080214900459
0.004012442919640178,0.18084870527516564,-0.011980409873746132,-0.12395209123765008,0.0032594060735495903,0.04796225194658626,0.0036850050470955274
0.010342098784112765,0.1908890197560281,-0.00526961001980711,-0.1185224730616253,0.004698716503498653,0.04730839065940779,-0.0026631223146805962
0.004898492017264182,0.19142561229577998,-0.010713905647508893,-0.12708147056791913,0.0014389428875338324,0.04085334243243613,-0.01371782843638427
0.0014178054251435005,0.18983284121731495,-0.0073064576464743234,-0.12969308742915373,0.007821148153259726,0.0388344489585301,-0.009111461359698068
0.003170356896553057,0.18561571771857133,1.4306786849343882e-05,-0.12591678444948703,0.002775332186047189,0.035294487098221354,-0.005391204127716352
0.00647188850286909,0.18605871557150905,-0.005496373026452858,-0.13450421682364347,0.008364616944794769,0.03750381619908605,-0.0011224359987585027
0.011308693434166562,0.192451334423841,-0.008297718223563184,-0.12964393679712075,0.010242524967774082,0.03988536186662443,0.0038979103963092112
0.007614910066859371,0.19820780538238042,-0.011581132832877667,-0.12203795847446125,0.005883531395993286,0.04579223401064465,-0.007493896074399077
0.015493805007172585,0.1902208454639105,-0.006176419105442171,-0.12931804075831246,0.004253040177064196,0.03538062297345095,0.0009621277857890255
0.0015414728974649941,0.18795791860713687,-0.001562487555637232,-0.13462288518028784,0.005164071440589599,0.04688485682493853,6.757442962994874e-05
0.007471645851568662,0.188239317840657,-0.003782598450531537,-0.1269526984523928,0.005326167167670438,0.036460265336932814,-0.002920829476725282
0.007309060136693847,0.18752527011296555,-0.009849749854056688,-0.1225310491117132,-0.00025078175654725306,0.034170487120763426,0.0019592882123768344
0.004094141857363795,0.19721965368206498,-0.009327443283753947,-0.13749594903929946,0.0033335796011887526,0.04737841833367194,0.0033914542711809513
0.0037601828015713375,0.18917691191827465,-0.010458222047233881,-0.12448707074295491,0.008407060183167819,0.046697063378566335,0.001633070273844603
0.002762607798885085,0.19556507999908013,-0.007532517939160379,-0.13610892067358668,0.00016304421758059438,0.042577277752588454,-0.00903085822263563
0.0019308591862075538,0.18521775410789465,-0.01044334317053285,-0.13067436985481973,0.0009404388555599801,0.03792912461681255,0.006854612443665864
0.0038348203186844795,0.19811763089620155,-0.008411908081350153,-0.13081393882308273,-0.00012752025101363381,0.04400334780995382,-0.004623846201197529
0.006711318295827569,0.18372386484559167,-0.0033766448426697515,-0.13349961311468123,0.013664173637779636,0.05127701747013409,0.004263060997325759
0.0067165684193559,0.18772399315288418,-0.0015086418693005905,-0.1347817644035099,0.012379633759037171,0.03921136989924179,0.005872314218370603
0.01025752159717129,0.192967641368623,-0.0032779592634016694,-0.14330028689378305,0.01093284190428823,0.05729901860924672,-0.001812318428797612
0.009948683371288437,0.19088675970755684,-0.01002337090635777,-0.1366757069138853,0.005809232339267013,0.04106577206596939,0.002583246755535974
0.010911727545110632,0.19217312570477685,-0.004544657965943194,-0.13202498083215083,0.0016507973883174544,0.04581168884529549,0.009749309083200479
0.007147687372669424,0.19583619746268183,-0.004579218303223358,-0.130125963108182,0.002406772582339141,0.045613243945700314,0.009980191635051932
0.009876470304041879,0.1966182286276408,-0.001308514231666255,-0.13024337590577797,0.0006872669242374277,0.05111367455637047,0.011408772868710086
0.008840940491235842,0.19315122392416637,-0.003981402803162966,-0.13349666713595668,-0.003623358065102068,0.04248050815421544,0.0037269387984244827
0.0003529162958111941,0.19027386381071307,-0.004832743667762979,-0.1398655295385349,0.009604868564875682,0.045390350970685674,0.0032227211017103463
0.01137934153100097,0.19352116121478627,-0.009634579460930139,-0.14008945231801023,-0.0005455669061526364,0.040692085475311945,0.007829599385717766
0.010745163491275057,0.19756501465092302,-0.0032436265221228765,-0.13383195299781808,0.006021911932766306,0.049321958889627183,0.005149804748789764
0.002899653957841002,0.20242334886152577,-0.010151281133417707,-0.14014417484623556,0.003779578390911955,0.04061945964427413,0.0044412797429320555
0.008223466600812029,0.1907105360995562,-0.007267828693501948,-0.1210054642723144,0.010642943984574577,0.04695687965030462,0.007883876673385555
0.004203092524723731,0.19483090175879536,-0.0042907729876128465,-0.13732209520671732,0.008337187286982703,0.055038408091856464,0.0066247118074154706
0.005054032311783415,0.19992446978060444,0.00204502632371075,-0.1413425538141586,0.013875019137945217,0.048047700125080015,0.012458448307443758
0.0089245276832103,0.19898837794405305,0.003934440446186408,-0.14616555670787637,-0.004524047296253918,0.043539714743141326,0.00900574658815178
0.004044644995501846,0.20154874685669277,-0.0006349575657214031,-0.14151707446611683,0.002865874786183157,0.029970036246015436,0.008648655552033035
0.0022665057010188196,0.204071697606489,-0.007376395231143251,-0.1416605216858509,-0.0027101774251322873,0.05312134293392114,-0.00697975627722255
0.008116964714383786,0.19734240008682497,-0.003465129926712964,-0.1419828581274991,0.004704494161173868,0.041679549861468705,0.0032188189068389885
0.018398858952137807,0.20435623767842703,0.0023514254861576626,-0.1350643032275085,-0.0036488930817593496,0.05491376997536099,-0.001833173390212526
0.017134508178392883,0.20447328305300333,0.003147627459234311,-0.14420105788052157,0.008942579423972741,0.048050282796187525,0.0012645674562190234
0.005262606184696067,0.2048847147780509,-0.0024001448838906663,-0.1442154647308629,0.0069784385530937115,0.05202838871358687,0.005297916026163984
0.004511858791154415,0.20272344638536238,-0.003728439853522189,-0.1397691354395254,0.006795406288745415,0.05071504882705098,0.010110146058903355
0.004340412534097945,0.20467868783367807,-0.0063340941207767525,-0.13438475950288967,0.0008393863959520443,0.05392355935387632,0.007591068860988417
0.00660756767782654,0.20214211012790734,-0.003494666743143272,-0.14587504914503382,0.009254883152645875,0.052793977195014,0.006759272682154781
0.00784543066494703,0.20930529392876032,-0.0023619502817899636,-0.14391629569323436,0.0019772221221829676,0.05388219382970482,0.009843464618544358
0.0036021638908643188,0.20050281368719858,-0.008567511616750876,-0.14293126274624318,0.007556369396389985,0.04555742590066569,0.012860942175041785
0.013181724050353697,0.2034231847127507,0.00029397685513497156,-0.1471721286917692,0.010563102513954682,0.044779835656447685,0.00723867842319974
0.015196275690402819,0.20481903135339857,0.0006327667254232734,-0.14908429479276883,0.006425246539849112,0.043310730081437016,0.006178284734438785
0.006911044433087598,0.20126995444603377,0.0015797204182567523,-0.1488205460068565,0.011260684294621424,0.04576573137581851,0.0006608945554119764
0.011894798622736411,0.20681430472006387,-0.0022333952220522997,-0.1439251988749768,0.001662442217020779,0.04736635353586584,0.016348844534221457
0.015685000921700797,0.20904660781751194,-0.004690044791671192,-0.12827532653648152,0.013830858082073988,0.04435554144107788,0.004835232633177875
0.009211376236784124,0.20796219745596514,0.003799111013069461,-0.14316646051137477,0.005249622997005564,0.04070966131278903,0.010612151873759669
0.002872545755424196,0.20638044380877668,-0.0003342738571700415,-0.14435589958342823,0.016202366659813387,0.04684963068563572,0.01363668314483299
0.011486641872302951,0.20084291940563986,-0.007765375046713763,-0.1471922698973638,0.0141637104922028,0.041849999081252365,0.014006065405363338
0.0038290769311144154,0.21018936692300164,-0.005272511242572697,-0.14432327957454474,0.011521363842257904,0.05041646318673134,0.0031124891432396237
0.008713584393660484,0.20310823761352476,-0.004426037286438349,-0.14294671386014685,0.016984011038508898,0.05190396791285358,0.0035710182514606618
0.021403992008869825,0.21398258579209345,0.0034379342115552327,-0.14914767933793427,0.014712031349907777,0.05063088060078797,-0.0016621898193106234
0.01308742153009687,0.2133422876054971,-0.005396092986714177,-0.14537968537691645,0.008530569435685297,0.04398965627478155,0.008981733520014062
0.005488693108765115,0.2150146010335815,0.003980559119145269,-0.15557922557643594,0.008537672519850485,0.04589304661230768,0.002446563910064311
0.0041517550655055515,0.21501776355556437,-0.0062714670814990724,-0.14219875270121776,0.007786825039952825,0.04981247590806713,0.005776192718905334
0.008063138208987183,0.2186117501372761,0.005848406844558339,-0.1513934600739281,0.007361284860584489,0.04484281171587453,0.0017077879026829237
0.011103224804966743,0.21472074113699546,-0.002593998452949508,-0.16177027754966766,0.009019195443293068,0.04625543042977358,0.003317121091548166
0.011041343863101368,0.2180239188992159,-0.007610880107911565,-0.1436234600665352,0.007072633750249699,0.04851145362916644,0.005336465994664582
0.012977888938998365,0.21246091723759358,-0.000393533617828813,-0.15226620197709628,0.00276795519376316,0.04344586910641813,-0.0009114821927395265
0.003933869145242669,0.21064541478644008,0.00675669040325942,-0.14691118846568857,0.00855655712297779,0.06227543141203013,0.016711299769884155
0.00819868423796192,0.217583328290271,-0.0016042985142226559,-0.1490554003264862,0.006609383057933632,0.04835352047662649,0.005670024324744481
0.01299596740608697,0.22565474217078899,-0.002887243367984748,-0.15030754595449036,0.010965626437986296,0.05453322799242585,0.0069485875046594
0.013062087718806086,0.22142715337334437,0.0031363134043764854,-0.1484442678863443,0.004205292277549328,0.05474919511777196,0.012263617712519399
0.011491004048736207,0.2244634776909208,0.003312443377645727,-0.15234485300581574,0.010163876431237463,0.04792076639011342,0.004658467556283198
0.018478145603380406,0.21672823360165522,0.004026678010931541,-0.15412456081049794,-0.005090517462210405,0.049999413759302,0.002345614083106783
0.009772376438767055,0.22895956410292692,0.0021795599910675104,-0.15003980438702835,0.015090683768682927,0.054588273119416525,0.006404753233374658
0.01766848698194322,0.22869621846806065,-0.0038304103098758353,-0.15139309576644205,0.006280610427042275,0.04600416799512592,0.005993998821107672
0.014096553556122604,0.22762404929085345,0.0027610936297346993,-0.16554012879097876,0.006424907427134092,0.043401040269812494,-0.003967937521256434
0.009060068279702106,0.2190159476354946,0.00318384654070346,-0.15286262803182124,0.003463262678305632,0.05220884605936596,-0.0012520700075730508
0.014551929105941875,0.22646261064626383,0.0014281028974804824,-0.1468307494804503,0.006117727985035003,0.042851762542356994,0.006391019612995626
0.009667618284393097,0.23048018047716812,-0.0014872291035168904,-0.14988499679225462,0.00023398849552670742,0.040539143860465345,0.0010609542661285075
0.009624896052457126,0.22546485595142868,-0.003786747586565023,-0.15393759647172203,0.005358701903734496,0.049734191790869714,0.003946936386689108
0.011228425529937358,0.21419483329099254,0.008764167078345835,-0.1549023185214298,0.0004640375014053977,0.05533725825169685,0.001370211226244705
0.013699374219307017,0.2237503088789651,0.0020579508007444063,-0.15175526959235752,0.0032947213124384115,0.04876312478710966,-0.004866624329082613
0.009824025681867047,0.22787720934759326,-0.0026585309115901468,-0.16110108746853877,0.005548410361132055,0.052082453159955515,0.0004828231435629925
0.008819000556168074,0.22663266909913016,0.002998521440502352,-0.15173331638751467,0.001824893778203707,0.0540405618998379,0.0022584186540369113
-0.0028287615677793816,0.23310741925653775,0.003882869984274496,-0.15733285048820977,0.005424796065554351,0.052208296483859794,0.011044420815373554
0.0039465480834265055,0.22769931446116537,-0.005327311802345677,-0.14907104007621155,0.0067514071271753935,0.05889297214363004,0.008460252320458874
0.012081711036291819,0.23011762309143016,0.0011554952934936741,-0.1614690056804971,0.011353342318010776,0.054356560005689926,0.006601236412721032
0.01036898745495841,0.23009366032861225,-0.000635957017811874,-0.15814873357644288,0.014157662804680074,0.050569756831854655,0.007205761902358496
0.004778519300650791,0.22223514518661278,0.002815611177800963,-0.15550707004164588,0.0022644570519955434,0.03971191234591505,0.006552586119521846
0.01573842083550656,0.22748954985034398,0.005929586437292384,-0.15942908189560148,0.013490552998413567,0.046132429397172124,0.005799317296145165
0.005043269129821941,0.22838840912951439,0.009682442386603823,-0.16480481209250392,0.012404773609644888,0.041646704238122154,0.0006018340778776582
0.006709623393170513,0.2198617265825194,-0.0030677068351613115,-0.15432333022040942,0.005817271899057641,0.05516907940187015,0.007520941588548819
0.012314874966887355,0.22256283997117912,-0.0010679002154352533,-0.16109237900063333,0.0020771761747376202,0.05055095898652667,0.00519035200000933
0.013606788773583452,0.22927526812597238,0.0028252725799569195,-0.16906064567748608,0.00809455632290589,0.047075397649907036,0.0013338535787345354
0.01947369216120652,0.2232965792988793,-0.009734574927487496,-0.15334306233613548,0.004498023163209574,0.0500894680604267,0.0009477456132385891
0.01512059346584469,0.22919054266629313,-0.0009628369549631548,-0.1543934143226534,0.010626641850335076,0.05169302013523567,-0.0003728235910408157
0.013749730886057526,0.22982677774209492,0.002675314707525364,-0.15653887725017968,0.01127825586632811,0.04261231884553722,0.0003632390877687983
0.018254619734787043,0.2319936162664915,0.00352090535410808,-0.1662849773484236,0.006774911104033101,0.04284445791372946,-0.0061156638100529894
-0.0029147507151200177,0.23006975322050138,-0.002322835254572179,-0.17049072824342001,0.01724527561210022,0.05324060788139935,-0.0009752638096513287
0.009756073756246913,0.24267013562301254,0.0014082040796498862,-0.1665785868117673,0.0036009898400037417,0.04928315443691357,0.0031712976365542195
0.017771688886800596,0.23411420677262476,-0.00267217561079326,-0.16370793041084689,0.008239168601557264,0.04793796103139364,-0.00048511457713737525
0.01400083484052851,0.23496587136263872,0.005912540603684394,-0.16068166373394147,0.00467408396153178,0.040916757220988934,0.001046132318607105
0.006812934038666684,0.23753335456210467,0.0146401365326894,-0.16398758097112082,0.011546479862933725,0.05110909751789891,0.006376604264648306
0.01458178395275947,0.23364243935277723,-7.693485888467678e-05,-0.16768874771869519,0.0017775688082850025,0.04889926223140608,0.005238697734776145
0.006934513954384361,0.23061633035311668,0.003196813423221899,-0.15772453543268797,0.012699851440332118,0.04989091512056215,-0.0026502398097083017
0.01454493704330492,0.24132854345030852,-0.0005182388859830082,-0.15568871038327778,0.0007148157459347364,0.056438545784002446,0.0074730464864618505
0.003422482710233569,0.2328827269926231,-0.0011256422720448106,-0.17666730228693606,0.007969242270519353,0.04449335147239089,-0.0031836506153769453
0.00872129566875936,0.2313105427912751,-0.007679288394214723,-0.1731966237664895,0.003091714895882092,0.04568344571581541,-0.005618652449470356
0.01424655344678097,0.2420327483207435,0.013169923480859387,-0.1756069118330562,0.011581882214541622,0.043006861872756194,0.003040381597886275
0.01083304234451196,0.23659781121081927,0.0005600840827525038,-0.16503938655602868,0.005240507552462996,0.05064431469239663,0.000866557246892665
0.009421691488415481,0.23592579150711698,0.01318231765926187,-0.17020290725587744,0.017782333793790968,0.04420387361877754,-0.0014348633704167318
0.008869212868216875,0.24390542561534234,0.010126251638073734,-0.15986359518646392,-0.00027049251620710375,0.049979939862946035,0.011374499802247143
0.02027916494596916,0.23768237986596286,0.014986160317364546,-0.18215021851532623,0.007066732936032927,0.04367654213698925,0.002538350784966239
0.0091025781779112,0.24080701817329592,0.011083798543125942,-0.17598905768740547,0.0015139701313437032,0.049745443038035186,-0.0027070597653898326
0.006901455121536548,0.2436469014402535,0.007982811430522818,-0.17708653773058308,0.00830852533709151,0.04829552688959855,-0.0017619148890180398
0.006430145324549322,0.2276391363761657,0.0052334484550711595,-0.18396989848206174,0.004773839864872385,0.04588079489332624,0.009755957636458729
0.006633108432237671,0.2513371455943307,0.015542096288956394,-0.1780131892740365,0.0016239941119287268,0.05376922191262006,-0.0015393098023701165
0.004556326227990294,0.24296661186050691,0.009344767011365876,-0.17457108598031082,0.006620265030942377,0.062229639593098594,0.0017935915687172551
0.012223143734029097,0.23634137131332494,0.0068874148547454165,-0.17687647363342696,0.017392357632296237,0.04578702888317095,0.0026386043266530337
0.012456877098995576,0.24771007688292573,0.006487823354803204,-0.18106709195615717,0.0056380230335342,0.04894303195228154,-0.007774923919973791
0.006252127258535377,0.23336261285165402,0.0033943706101555097,-0.18542666871750957,0.006846132948220285,0.049557411174450824,-0.0002354461097601921
0.00936229914933329,0.24023953515025157,0.009897733849080995,-0.18211799200550882,-0.0019440433581942793,0.046397836224017434,-0.009000672935456195
0.01377685267451845,0.24826768377060507,0.007168863467481528,-0.1762331855801788,0.004168916383472748,0.04617830616864742,0.0019041029807928896
0.015725893152056032,0.23852130435400973,0.009926850211900727,-0.17605598248031096,0.0035748110113110187,0.054192966390005856,0.0054077997992482444
0.011493396809292409,0.23965722805802045,0.0019185200613502451,-0.17924039359340996,0.009113601275606982,0.05127467947070894,0.003771151408291376
0.01266539473329236,0.24604857162308405,0.006793640734128503,-0.1809097275459371,0.006988504636898353,0.05147704552581305,0.003193018500559514
0.004388902173932868,0.2456627514309436,0.011483806868750925,-0.18424862764105412,0.006876218293532464,0.05022052110251622,0.001093077998719248
0.009231700915173379,0.2443779223365168,-0.0019341329050810256,-0.17227407717303908,0.008664981280816098,0.037308249488244474,0.0036840891249942864
0.008789716604104587,0.24212721925355774,0.008194644720475493,-0.18710014971401712,0.008585364493964475,0.04937273836144449,0.0037315132800444057
0.008845135999406355,0.24925231639771206,0.003927969975919992,-0.1883524116781584,-0.00014681428969055832,0.04563889321131738,0.004388123726957304
0.013109190882744967,0.24931775491250358,0.013724512385760688,-0.1844553121416733,0.010844258057493394,0.054785694070594526,0.0015310445989330898
0.017047691517254136,0.24814413617303865,0.01748488565496425,-0.1918555824447214,0.002146712422699572,0.05722437903217384,0.0010836187558541108
0.015899618576350492,0.23814640566153267,0.010561348408480399,-0.19613470719837203,-0.0007016867325966691,0.04196221024176643,0.0014576513546011216
0.005712563910527281,0.24384963161097212,0.012056146020976669,-0.1923993912601573,0.009664648937485105,0.05379987455631775,0.0004212780507995221
0.01342498458021029,0.24989453967201822,0.013230651438322269,-0.19238557611745866,0.00953864914674298,0.04605257693803446,-0.004584984765447233
0.010527759845772764,0.2543710310967838,0.012989289553517675,-0.1923834083404027,0.005858360757071742,0.03654538271269253,-0.005418581473104672
0.007354285893314376,0.2474406300873485,0.009698797003251833,-0.1923972537741493,0.011496128818470779,0.04538457316513075,0.005523437934139647
0.001887333427230643,0.2436274201419076,0.0036858312085824877,-0.18182743586999076,0.002777628982507871,0.03983743669696575,-0.007285730093874054
0.00725531904347969,0.24333714714847454,0.013182611689000881,-0.1913310257173427,0.002996243165179848,0.04615888085280324,-0.0059944647613042416
0.009813327466861636,0.25268391354572006,0.009827578822686232,-0.18700837262090303,0.006556353058249463,0.05376192423705118,0.0021909125395128026
0.001981984846864398,0.2487367571016343,0.011644073367414668,-0.1776278437000588,0.007193483532089107,0.04596574151348872,0.003332344681666475
0.006800544387100237,0.25009780252262287,0.006614659210210618,-0.1939865553109224,0.00794003124113809,0.0516845350851333,0.007736604995184121
0.011281503385405603,0.2546090849251371,0.011648751312888674,-0.1872840077236004,0.006673499746481121,0.05725527399297295,0.007768897367876803
0.018622961304438225,0.24740005376798993,0.009372028046330942,-0.18215671163893501,0.011388906931461558,0.04821488718103546,-0.0007468450036972512
0.00903708444163013,0.2597381057799003,0.009222179866097295,-0.18993168159825044,0.006991148666689599,0.05564091644057916,-0.001650567003738704
0.0034875811217237717,0.25681904954354157,0.00827388917996473,-0.19556388383197487,0.01532683984181515,0.054777769603514825,0.0042792774357782275
0.009254000147854451,0.2575719673120886,0.00830344337906204,-0.18709203170498767,0.010658811253780561,0.05158579201421545,-0.0013494096528232837
0.009682102175841058,0.2543513069528699,0.006209044613607632,-0.1894089466368442,0.009479564415742442,0.056928638071387566,0.002401331969771478
0.015522533587735265,0.2588959056199528,0.017440778721561526,-0.188574336570548,0.009406677701295552,0.05871649740368213,0.01156547854180352
0.012373811003408581,0.2529578361030498,0.010850776306910455,-0.18898891649210808,0.006576979963686131,0.05234348833584679,0.006868395566240491
0.011823229068310641,0.26328810086488413,0.012880457176811713,-0.18685169335388957,0.009495845322892394,0.05816630572013736,0.0030955899811924404
0.012014298945263603,0.26027273432459225,0.014237823701743669,-0.19497021262151404,0.009204731275277364,0.05542020175284707,-0.0030912402096263556
0.01652882036793048,0.2597132983311687,0.009937611400556653,-0.19196308891036162,0.004079512001384563,0.061080036355966885,0.015400211786884223
0.011936812546173944,0.2601999044516345,0.008515438134261918,-0.18902130630967678,0.0033220487781479976,0.049234915660773676,0.0024021023108061713
0.013899318546403161,0.26261339512804616,0.016239383854992916,-0.19309752013722176,0.00029194387987980814,0.05952347610245132,0.008605345868599162
0.008821192978748083,0.26404460482183223,0.015370141546307073,-0.19539711603717252,0.008719791804865235,0.05020810598333783,0.00672708321333577
0.011871626130257832,0.2597387749883698,0.008413819932432762,-0.19865289503443045,0.009196078140768121,0.0539627449039703,0.016717464515862895
0.0013965065269748115,0.262989053634891,0.011065784045751103,-0.19027089920181264,0.01059251430274494,0.05089080543025084,0.0059106103430276126
0.014032605259952268,0.26772253356674025,0.01556577430068555,-0.19075724991985415,0.006766984823043847,0.057295610316868646,0.006445183462054783
0.01167553192639463,0.26507841814314576,0.021968455610092467,-0.20601534895903334,0.0119250841825721,0.05542514657798767,0.006307241267983288
0.007344148318904554,0.2670652279120239,0.005475420163282521,-0.19555932410748333,0.005740914826427156,0.054599237967280195,0.011041901642775276
0.006440640352929041,0.2568342274276962,0.012015083246239159,-0.19599470770261654,0.009416613818428794,0.05788395437958048,0.004582454882977484
-0.007550682260953526,0.2694952393394628,0.01836486151741416,-0.1982550239913822,0.009229421675742113,0.05738960546178795,0.0017183897349456016
0.00542240978565202,0.2720287444744671,0.01659706588948251,-0.20713933721576952,0.00859931889526085,0.05948769684730517,0.004471215021219324
0.006735052184181995,0.268485467927991,0.010364588125841696,-0.19967376163231046,0.007201892578645824,0.05853858627967386,0.0017904229223362697
1.8638446693008612e-05,0.26590588598031434,0.013898902972587954,-0.20644609266492656,0.015179526715036926,0.0579045614890435,0.0011149103730939587
0.00784113138819834,0.2683781944321267,0.003950030925492573,-0.19891970220102717,0.005394773612436448,0.05862076005918127,0.0030891840152131806
0.002814035155891499,0.26594584566416596,0.012717603110134309,-0.20268497004056604,-0.004861114242265213,0.05097041664532445,0.006896313063130729
0.012878429668530415,0.2666166847559989,0.01608218650861061,-0.2062239257796166,0.005424350621521988,0.06118320727291102,0.010434621328357166
0.012091849563287085,0.2738737896648626,0.009872396066401943,-0.19587015987970802,0.00042381294171609744,0.05732105425575123,0.0016989319542022622
0.0037735835369115582,0.28007416415885933,0.002975274001657051,-0.19889091865023706,0.00688570336146623,0.05273606511274459,0.00806016677367805
0.0010475272772390532,0.27561933163552743,0.00922743521796496,-0.19738158173680923,0.014077958375626008,0.06403032087327178,0.009139133318592622
0.005251020859956222,0.26817380823349757,0.005736477613714057,-0.19831193537509578,0.0013542481046973963,0.0539391316099183,0.0035490603197814484
0.006513631272888459,0.27361321165088254,0.013402186299915237,-0.20762391195917154,0.011745806987638767,0.05924809024763971,0.007074210018132245
0.01334658942637151,0.2618937402248995,0.017121074533705212,-0.19680052860115255,0.0038137807323652046,0.055921508203511064,0.006197407855177205
0.010399025814945145,0.2791416147335846,0.008497590916478644,-0.18839987667839295,0.010700087166361125,0.05571306006627652,0.00344817709944889
0.00649926809382961,0.2735861432218839,0.008363519254986712,-0.20296162001712065,0.0005219581275738997,0.05623891997976913,0.00399518350600406
0.006637661326719891,0.2746160244342342,0.004820474939565606,-0.2093838121779097,0.002302344120475837,0.05652196572874341,0.005547534067723593
0.003945398857063586,0.2728453356539254,0.01763650249620522,-0.20696636647482822,0.0079451833598366,0.05494207008648683,0.01205734515312952
0.007948615311335814,0.28218887464993764,0.004926959837512117,-0.206778512197566,0.006326074795032428,0.059196501723292494,0.0027115038855597875
0.006059668414449869,0.275427306435504,0.00908665026817904,-0.20032679627242386,0.012984852390512898,0.05591323378335525,0.002891119441219297
0.007076769666078518,0.2808863320380136,0.003786689119538939,-0.21539285154776075,0.010795121169137481,0.058081234695980276,-0.0011315749311780294
0.0006616149121284219,0.2747489568713244,0.006984530874030791,-0.20946978039176242,0.000890646563097887,0.05789598675365234,0.003326757256660851
0.0033543966833929338,0.28441426970104966,0.005694699799236154,-0.21027505643176528,0.009749105780631451,0.0557436630223592,0.008898797307438588
0.0009408901672179936,0.2762789916096906,0.010163244450630892,-0.21087573064653764,0.011173633990830776,0.05811804578557587,0.0033865760329304328
-0.0010658605062168593,0.2866093576087484,0.006426356212611909,-0.21839728064179265,0.013116961092022775,0.050606908079422745,0.00017581943329591804
0.0036582867544225402,0.28706740635095257,0.008646119227987933,-0.2144883620552066,0.009223821562545054,0.052624949201391276,-0.0009713934796027925
0.009168076076539062,0.2810390863348745,-0.0007961162559475248,-0.20647420380192022,0.009511164829141243,0.057997450162167466,0.004472068154035766
0.002708324816815255,0.284586170228985,0.013281699074912352,-0.20845736074806182,0.005107689836516806,0.05331383180656686,0.0031166244258235215
0.003312842473847749,0.2874316637410745,0.01198505067440862,-0.21667642167547885,0.011516701220182078,0.057093903496977724,0.0027078413197152416
0.004573423176739259,0.2880830806250631,0.002130040755768961,-0.20827649357028563,0.004130567154791651,0.05090316235058001,0.00020828160958541843
0.00366426545683368,0.2853607630119543,0.014703516806045893,-0.20621071248024092,0.014740947818354704,0.05639283078147522,0.002808902696664835
0.008864676146312051,0.2885923023050181,0.012220785263541707,-0.21197615351673588,0.0008131583607402749,0.05628113304643758,-0.003620891661982349
0.011823793075020773,0.2950955913006762,0.012051340579017515,-0.2147086411920396,0.007997742466137594,0.05349828653997776,-0.004224589787761027
0.016281007615926556,0.28162452499561197,-0.0017395225023799504,-0.2099543137372874,0.0036520995126496933,0.05556906319918646,0.010760351015836691
0.006574296985751392,0.2845301490525292,0.014867475869358205,-0.2098274595425825,0.0029080200977373606,0.06340602704969465,0.009229289006977306
0.004890796178408981,0.28246134385362165,0.013470841607484539,-0.21567822108037757,-0.003754795804702263,0.06090675471206607,-0.0014113486531909807
0.0037394650369886907,0.2875903686628094,0.002740333223263748,-0.213960243360524,0.008230424938827863,0.0605876562287026,-0.000350615202980097
-0.004447842748813153,0.28561082934563803,0.015361675618861459,-0.21678610435911086,0.006937879464921743,0.05661313325911981,0.0017783584636089204
0.00436501549766387,0.29476654088958676,0.011951217231361999,-0.21345499515137933,0.014687962885346148,0.05701149022451409,-0.003135281309454525
0.0009028025801289738,0.2861002971407443,0.005456111589440717,-0.21644722639779618,0.018046480645033523,0.06299548239678321,0.005862373803908995
0.009938768700446417,0.2918297068799801,0.012803418622716767,-0.20713144284228865,0.0159644513923884,0.06688156118559344,0.0017464056356029595
0.0003452915330539614,0.28726311132648225,0.01201902703394659,-0.22108958448663593,0.014710204797396691,0.0663315483098483,-0.0028727305218074727
0.004097795483404158,0.28865984123163807,0.00680642110482621,-0.20333176519620888,0.014022371886848002,0.062166384881984206,0.0011458548322585015
0.0022717779020868896,0.29918652815940405,0.008582516380915815,-0.21197291636110793,0.008685096912442769,0.060362007016224684,-0.0057312839448624905
0.008600065595226022,0.29179381102338736,0.0071784900720104575,-0.22173175391304745,0.015047236311388362,0.06227033127882125,0.006892334755903351
-0.0019453093999521175,0.29722034163346117,0.014186037866402781,-0.212266526516571,0.012485612915184158,0.06352439576605563,0.0010091652367449115
0.007254321142030487,0.2967179409184311,0.011448075750408147,-0.22006513636959052,0.008525615883268986,0.06110895567940739,0.007859515508262678
-0.0046410963734989565,0.2961938204475153,0.012837088090892696,-0.22229540876566548,0.008731628446760365,0.06574435602885743,0.010947991860519896
0.010210035402504505,0.3035453760018022,0.014032276066346131,-0.21607501095142692,0.019814061084677724,0.05627090990206692,0.0022414952033848363
0.017774301285407502,0.301784368517891,0.0008744341482149528,-0.22889753074153824,0.004973551400406877,0.06002348343673767,-0.005673977324665943
0.022027158689232315,0.29678645374521445,0.005895150039479544,-0.22652857938674106,0.014919841716508609,0.06011266632899561,0.002713977798664544
0.00938478783405709,0.2941227140872459,0.016920761632766332,-0.2161806532026526,0.0037532749314007274,0.05860463555342352,0.0032004677275303496
0.008230237998629465,0.3039653373099399,0.014291532674611453,-0.220440028828625,0.005051043224246359,0.059834479582372584,0.008718678101868726
0.006601297463389944,0.30397342290857177,0.009791168468287368,-0.22416804382196973,0.01116117114696601,0.05309708024758515,-0.004027238880248711
0.007415160173909409,0.2962503120299704,0.006021278307925321,-0.22877382100608795,0.012583989679928576,0.061494489102259825,-0.0019591411613402027
0.009891036306777503,0.2970798680262118,0.00893787220054718,-0.222656364524554,0.011006176342330266,0.0644886906186094,0.005305352176251641
0.005167574375830639,0.3002586493888301,0.01117665820825946,-0.22007240459488903,0.0187124339784138,0.06635318305445023,0.003375533004573276
-0.0021344980630588588,0.30794623658312686,0.007989083745325556,-0.2288562500305935,0.009250885765482594,0.06498469299531275,0.00031445295064361743
0.010596712072850557,0.2881256632849193,0.0064657808861808734,-0.22681219019666082,0.010174041147456181,0.056339470845002675,0.0033024240037828577
0.009621997731155027,0.30099462994121856,0.008916387537869198,-0.2259941204643492,0.014568143534623124,0.06400863492451966,0.002332341350739634
0.0026965658326324853,0.29651266192755377,0.007824963672949574,-0.22482606705843633,0.017366001408789647,0.06126415398141511,0.0020470400295847548
0.003569660776894073,0.3035046962409228,0.009751859483527628,-0.22402423082851244,0.013684014780121337,0.05029555152050025,0.007718830323134766
0.013315381527616004,0.30213059315801105,0.01104018430268077,-0.21736421093889616,0.014957078040562895,0.05787958813385832,0.013309338752061322
0.007545168236369528,0.2943295209289714,0.011818889122306464,-0.2168843053268601,0.01218921418065837,0.06729774209958476,0.011191491022733991
0.009852507853085895,0.3078614472843774,0.015361400217376708,-0.2189171996213436,0.009582514710058164,0.0609319695039764,0.009963243521341737
0.012527010090290554,0.31312107958741303,0.00951954961653882,-0.23042525900420407,0.027110382024457785,0.06162946928498912,-0.0019203924794681838
0.010663123093853555,0.30316441179090264,0.013867184502021422,-0.23042718754912841,0.017832628565797662,0.06327723008882429,0.002854179024290244
0.0007379472614474098,0.3079881590059948,0.01658692011621624,-0.22292765196684292,0.022360099799987432,0.05607388776063689,0.0004506864975872618
0.0014435903198813322,0.30365727574352464,0.009217284948849857,-0.23180818275937487,0.020683515506613962,0.06294438207174277,0.008821617796705202
0.01124828127627775,0.3210718844831779,0.009853655497873074,-0.23172761512338974,0.01135991560222178,0.06005836964053321,0.008869463980255279
0.010921087015437706,0.3009706634468632,0.007928514511434528,-0.22507927887253415,0.01724224206654809,0.0675492783425507,0.009760663213657834
0.010915117118350883,0.31108104293927447,0.010655277629887066,-0.2268668896554968,0.015167255708570037,0.07587754630928188,0.005864105070060667
4.996643614596161e-05,0.30827507793682857,0.011306617874832097,-0.23427767355049875,0.014268757165357355,0.06418384811212367,0.008575058504325005
0.01504576052138915,0.3084554339719546,0.011267752828333824,-0.22895159804099463,0.022696784505219784,0.06360426213033209,0.002128609173729641
0.007524898868089901,0.3141609540077752,0.007616793298093573,-0.23356488388544697,0.015378909684193129,0.06430924846304624,0.012747184065271793
0.011510571617557626,0.3171419353737326,0.010257362930030371,-0.2304488303419815,0.013680493484938208,0.06959569703756666,0.008883912886779703
0.009454375643960119,0.3072891610548089,0.014353242992388033,-0.23465827580225923,0.015041162018829336,0.06305460617390368,0.008574942527965498
0.021182599737967902,0.3024813437442202,0.012786986024688599,-0.22989306032208584,0.025559840581857778,0.05287865020423684,0.012579694710546376
0.009914880866633129,0.3142412939524753,0.007636643243823271,-0.23053184185851916,0.011986811509132514,0.07044655835952121,0.006515723572075876
0.001948839401276845,0.31919885437465606,0.01910717429315124,-0.23146176114217534,0.018911319432736204,0.06300363992237018,0.007311995151248958
0.017443043029867263,0.3241588590928606,0.012591554792571614,-0.24298162297689965,0.010491880837322986,0.06547909456518186,0.0020860721768889917
0.009093145391430992,0.3134972366737369,0.015065905380218552,-0.2352909258107385,0.021481704715320474,0.05763014450163879,0.003370618832950858
0.010263109912229694,0.3125870717031729,0.007759216235358887,-0.23509468886639062,0.021118656424948465,0.06085223451933188,0.00048180471696471563
0.008934977538419557,0.3223365997844023,0.0011584682142101333,-0.2367676861807974,0.02608405131556946,0.06412106642751288,0.007773860896372073
0.014738323709187814,0.32322589675763735,0.008711350722616003,-0.24133842568352745,0.007878773276739973,0.07098122871429202,0.004442526815267276
0.0028888997124943356,0.32625366679918827,0.010070834604902629,-0.22629223846469138,0.007093032889452353,0.06577777693196504,0.0008221518346671185
0.005197879280615976,0.3211461488909577,0.013106972751381667,-0.23586434067742856,0.010632473283046794,0.06647464235798219,-0.0016038485001201542
0.007637496530727062,0.32138159545019707,0.013438057595065951,-0.23972066797094085,0.012332248023360044,0.057642684585699475,0.01413491739392827
0.003173690615957874,0.3228947997727205,0.01716359448906935,-0.24759444638787678,0.005384119978944278,0.07187330351743557,0.007070117781738031
0.010098865430223621,0.30993639113279564,0.012438028313991384,-0.2490415877379436,0.022858786206618232,0.061704280438715044,0.0040602487682114274
0.0006009775217158796,0.325462449813398,0.009024603363134391,-0.2401277628515246,0.011851714460260603,0.06086588096447445,0.006064573135080168
0.006324835668773487,0.3274832619113853,0.013397000783697731,-0.243363346084328,0.0060555199913500096,0.0634271101892317,0.010855039366562291
0.014388504737797563,0.3234772451930074,0.014023175636124643,-0.24051409086713715,0.012954229911961799,0.07343564718927012,-0.0006820949463071518
0.014895690613459191,0.3182397928581239,0.004864726033847165,-0.24249533817606614,0.01711843672618646,0.06595235565837705,0.0039680590654048685
0.010160963100512697,0.32417289604280997,0.019949479044511956,-0.2398305024051056,0.01201267844523307,0.07088265838966601,0.009130937217776062
0.010852417483129713,0.33252674230133095,0.009119318581960426,-0.24766400352541765,0.01588069375102661,0.06635326533529924,0.005629023946916498
0.004822402216210507,0.3338812350292763,0.015162307175178458,-0.2533106970745536,0.022102802428529626,0.06603164504635509,0.014280464911991007
0.007810370925036343,0.3268287168682891,0.01924257856698728,-0.24385870279551394,0.019576697205467862,0.06372834971931661,0.008243542668488514
0.005696907693282611,0.33030910625996274,0.012006935098177735,-0.24792819282741232,0.021033230144729242,0.06742677486712391,0.007554449341661494
0.014383151750712798,0.3235852874072275,0.019639556061910635,-0.2527619256686579,0.009940613223492961,0.062032766843073066,0.007373517532167426
0.010212254564860631,0.3311270951091335,0.015322438010351595,-0.24374994316168958,0.015701004807061093,0.0656474886038053,0.005533277801228384
0.0004418234898839763,0.32899390928977534,0.014721830390705196,-0.2514635483076763,0.0059978290446414066,0.07311990843739538,0.013446609082920499
0.010483478302726836,0.3198923371845619,0.011742536297554548,-0.24496318625286054,0.014835326576918568,0.07173758571076129,0.0003226714393964351
0.014021709538769855,0.33883130141701767,0.02165953546919631,-0.25094161625823835,0.007555281712214571,0.059381649710317654,0.014665267529408197
0.014247988453934737,0.3262555706395126,0.013714473874073884,-0.23709262396867867,0.010725806487603778,0.061596248663957714,0.002591988384990464
0.010003804187115469,0.32763716161729245,0.019892056298156408,-0.24635673908647868,0.020922556628650446,0.06980460723226714,0.008218292902035544
0.0030780775430200025,0.333522240831827,0.014145235215142063,-0.24179130017958725,0.0062665071372736275,0.07574910492783174,0.010558383461504936
0.01994648044239649,0.33678538642366096,0.020190537295369626,-0.2521236666552422,0.007214156179673003,0.06512237108518676,0.00590290409279839
0.016796775475926597,0.33747474267952665,0.01689328414896468,-0.2545220786422631,0.0169405032746207,0.06403844861162693,0.02159755741818236
0.0030978060897157737,0.32729643969978817,0.006309481012871697,-0.2437393933728778,0.02356541901234318,0.06983327920096825,0.011627017817403188
0.011739665560208886,0.3345082673978119,0.00976985171347609,-0.24965125580836084,0.018085930177024867,0.06500745107628578,0.002279751014116465
0.013962086890259134,0.3339923451315668,0.01510316595398238,-0.250607784726708,0.009534483290595771,0.06828217136014803,0.016863237502470825
0.010410772500854605,0.3306765347924276,0.01978456060690313,-0.24622700685873403,0.012470710126077396,0.07440922441922437,0.02393141856661167
0.010691443131439778,0.33048540142681593,0.0036305380471689692,-0.24391583909162956,0.015561492450851746,0.06973993630046528,0.01742551662546144
0.00977408180380685,0.33962547397815424,0.007963138607075718,-0.24599988358343103,0.017115535041252027,0.07917620233866918,0.010679281437494045
0.012760568764094052,0.33780881266660595,0.0088423892587586,-0.24996390050383882,0.015001135976855571,0.06864225707923743,0.0072437729649338185
0.01144584447033949,0.3322169471360376,0.007234741486296414,-0.2528562378828661,0.01205103849821008,0.06952689909975011,0.012264848598073134
0.010451043565360764,0.33403011198325333,0.010775234931821814,-0.2571871515154163,0.01690856231565679,0.06955139126374604,0.012955180794253465
0.008197434992506695,0.34391944136241775,0.011703724944235813,-0.24656108128821883,0.012054805783004668,0.07023367466087786,0.01320658336097142
0.006334921502806028,0.3360153393279611,-0.0009162858484300269,-0.25644327606028616,0.02000069355595118,0.06944246998888398,0.0027917368361692705
0.008619664703115466,0.3382126123437398,0.006450743561522267,-0.24700707135714287,0.009156305021316733,0.06582811608071397,0.007481259199921285
0.011826557546572442,0.3363913270419364,0.012636571576987235,-0.255478861451951,0.015745670468317492,0.062315565225762676,0.01479232376451008
0.005508408817701829,0.3427594923632268,0.011994498034970744,-0.2521732703153628,0.01123332323157406,0.07062028137686263,0.010918603246415127
0.011614265419423002,0.33892102594762563,0.007940961217069081,-0.25661390322267014,0.0152503546638549,0.06951949656241418,0.009587790680616182
0.010855380875175267,0.33972106624630866,0.0025615941281903025,-0.2524282519530451,0.013335432932935582,0.07266270423946233,0.017583215573474614
0.012294422772210602,0.35135037386535356,0.015442909867833563,-0.258311643970722,0.008976014392989562,0.07233073576440688,0.007176361074115951
0.0006907918110160057,0.3434434867905126,0.015186941219329765,-0.26193156635778475,0.003893915891853875,0.08038788648577029,0.010046686658495514
0.0029686067923092533,0.3512833300189352,0.006036139221146974,-0.25235157985622275,0.013930857212240595,0.07748185616845568,0.01896347401502837
0.012683625292047983,0.3333109062868716,0.02135638114312216,-0.26921709564867746,0.019418834688382992,0.07124243889471359,0.016174664647077754
0.006746095788415291,0.33968944801225426,0.010447867622037773,-0.2606172584997192,0.018653369419834392,0.07182977738721538,0.015131373822666326
0.005789723836356356,0.35260289814135004,0.002685917696512625,-0.2549550418179639,0.014263084974536619,0.06349645749972795,0.008727943361161353
0.005393847949008806,0.34546410008439954,0.007457915491222896,-0.25944166534317026,0.011712143035958316,0.08496284216467521,0.0023234045811799144
0.006571692323754603,0.34375794082647665,0.02444402196656984,-0.26780358803784843,0.012161395883942187,0.07396905214680032,0.01587102898345106
0.0017819885986476835,0.3396567869831482,9.33158726641372e-05,-0.2624386159962031,0.011087578034241385,0.07138627178712662,0.009984543930017532
0.013509726578438318,0.3417548839724037,0.010654396850411982,-0.2612180946855445,0.017653448869481878,0.06468928901892522,0.008861844647671889
0.012014989827069592,0.3440807998686975,-0.0009764652518326235,-0.2640371237664989,0.022309255220627742,0.07103040963401136,0.016103580241497627
0.012195566154588056,0.3462273228680051,0.003446826847594231,-0.2613924808325834,0.014747739661172496,0.06357159541126271,-0.0017485274966097322
0.009943417697923854,0.3588123562168872,0.01589468606856033,-0.27100603571651866,0.011550484475527355,0.06634388840858199,0.005723368596415897
0.007804682678040912,0.34786077592500586,0.006448008329213706,-0.26491112887986207,0.013730792260702316,0.06919812737477309,0.018980904720371533
0.004233394712478779,0.3526322693038527,0.013608289278258967,-0.2605155082342717,0.015716167572786734,0.06947611365890728,0.0028424786139561575
0.003561081249745888,0.36021212932866004,0.014497839299146387,-0.26356687951962926,0.0045595322302501694,0.06590992059796301,0.008589386016638978
0.0019250028435997745,0.35220291928018155,0.01019688113734809,-0.26918634121573026,0.008328161787052923,0.07233030134842246,0.010364792553489436
0.006825994745138581,0.3626453246697548,0.00562179575301478,-0.27456172264242584,0.010125047630507615,0.07118693830641251,0.014564125919969343
0.006914159596425724,0.34398040050220047,0.008692918733195006,-0.2574944606745246,0.008803494227843869,0.07489769097487539,0.005490273441576203
0.013789994165265156,0.35761003181370327,0.0072219747105164035,-0.26700577174598783,0.019968885858183218,0.07996202841667183,0.009439500973946819
0.006345485887208175,0.3520410146134974,0.012969825433899192,-0.2770485964649542,0.019504030580601343,0.07755307092366424,0.00696467787395067
0.00034713116876354706,0.348862824100451,0.010376366802431479,-0.2649972278751954,0.014735780049464823,0.06817412872364734,0.007134243685532903
0.006424193002933129,0.35866913601513617,0.011742992890449125,-0.2671485094089423,0.013723137975773942,0.07533317742051278,-0.0003804690476860821
0.007684637116240358,0.36108674688663384,0.019037766737452652,-0.26954200394539296,0.015022006819133411,0.06494121512085266,0.004006688025318481
0.012281758912965488,0.35421609666647996,0.013871220567791552,-0.2742859734020626,0.018217703775822474,0.06563601370070124,-0.0015191909986433001
0.000569810778458542,0.3518176948982083,0.008489644931574558,-0.27751645498684646,0.011900582305737609,0.07386139696681286,0.007532902962015211
0.009114236046394119,0.36402347456821366,0.00586526282214872,-0.2763149312930457,0.007074102325054356,0.07810531319657081,0.002350994825594461
-0.0011617466820088304,0.3578293040802171,0.0018389127084854212,-0.26930625592780555,0.013881551825365563,0.07472811778088836,0.0035501122436148243
0.002809631296292344,0.3638643111044986,0.000755920563599341,-0.28920574831949675,0.010934013486258535,0.07856023020973925,0.004036783874772089
0.004779810519515517,0.36618369902214454,-0.0018651200043366609,-0.27604387273696895,0.01787549279891797,0.08046765893334461,0.0035774857629639325
0.0018755031933389912,0.3596005773066863,0.01616377359766255,-0.28051382761627885,0.0065562489902658136,0.0751483156895083,0.0056958848463444615
0.0056085976556605344,0.3665716207308358,0.004110624187223658,-0.2772607292076514,0.0033987682264951143,0.07247121727334833,0.0026058527267577513
-0.0007108355977563357,0.36940357228773907,0.008270267040984955,-0.2749954816540363,0.02166764754781693,0.06579104076025656,0.015749824944034665
0.012773942458613682,0.363075210021285,0.011639202341769392,-0.2767474687525675,0.017700960416469645,0.06024312466170497,0.012487598118810624
0.0019482392520193854,0.3652966209978497,0.010961537120604695,-0.280707970869692,0.017938928950419528,0.06463649482272829,0.004675011000259176
0.0037571909545552396,0.365115635888785,0.004026794582147273,-0.2847362036778502,0.01879720995165101,0.06746735518942407,0.00837383780308108
-0.0005419597448271963,0.3700604555928993,0.008190187297078128,-0.2787211694032575,0.015812233866790166,0.07303001054531702,0.005512866043599643
0.0069189498252744275,0.36451342351199395,0.00695571846234155,-0.27836857986884317,0.023762357011382816,0.0707418413585717,-0.0007280878254275168
0.004450241113067302,0.3642287502150593,0.007155875512276139,-0.27272015704141545,0.01985565834550265,0.07369563107607312,0.00919481553023229
0.0012228211597736707,0.3704877081995931,0.0008718122289864448,-0.2781965492520265,0.018367064708701867,0.06140847465569294,0.008688827092866575
0.007379759203784453,0.3634827805683058,0.01653361374783835,-0.29063390389305677,0.018535167771254385,0.07343968981238146,0.010225025631505028
0.0077327491786885316,0.37594290248772055,0.011396795501354605,-0.27738052281776,0.01876339193268265,0.07252128859620181,0.004138184576199323
0.0021028136840961107,0.3759008137230221,0.009675635374952031,-0.2849446068482236,0.024241405001267202,0.07098190844273392,0.007614886791180121
0.008718512112914474,0.36444578487746565,0.00816804213802062,-0.27606053820240634,0.019964919859087615,0.0759823855917521,-0.0029520269070299693
0.009650528287633275,0.3668177445360357,0.001518950553434032,-0.2855169220788063,0.014242749498316968,0.07880659707351062,0.003770440583018391
0.005799630530595416,0.37090638039336565,0.017061218784464073,-0.2875412901932024,0.015044079466134013,0.07527228520164396,0.0032723915376257477
0.011169528763763394,0.37521748791066006,0.009257333936797459,-0.28459635964818963,0.022645767805911432,0.06574942127047609,0.013456166176101778
-0.007433400110346183,0.37209095998544434,0.007926823184782954,-0.27959990618672487,0.02318899307368524,0.07111192858524168,0.006106741424767044
0.00647892460196599,0.38369057061597556,0.01305539532670532,-0.2804550935498728,0.028177357306695308,0.07153494939099903,0.014862792825921067
-0.007592451394238619,0.37753461059206933,0.014729831411770786,-0.27890075434134787,0.02246611777440883,0.06735948902344098,0.012453264222709284
0.00761778950029985,0.36920585737046197,0.014243982093201076,-0.2837816380227051,0.02441392926298873,0.0770199519902948,0.0034400143693866965
0.0004594800296969649,0.37859173750592146,0.010758725638251379,-0.2884221999973736,0.030640625534982466,0.07392713969603583,0.005908408149871933
0.01069590447392198,0.3714215098356361,-0.0006792182773635771,-0.2866459728466033,0.019572426270050576,0.0725829598958652,0.015059644547826202
0.014077612481415112,0.37729572821046736,0.006967578769064632,-0.290667429248702,0.010540651833517068,0.06486283358276508,0.0031991843386945202
-0.0002347670152588856,0.3704375401418811,0.004994106408120248,-0.28156026563522146,0.025999744832871433,0.0717435843232237,0.001066288301895881
0.0017731466158264612,0.3765768377016482,0.0010728994753660976,-0.2913980593379841,0.015450161913863694,0.08400454246654314,-0.004916110368477041
0.005003490784411057,0.38396449801949645,0.008323682123111197,-0.29574687395137544,0.013544565610376914,0.07613320019526111,0.002718455338394179
0.013064368022039283,0.3823929863144604,0.012166144653819296,-0.3001603779457001,0.020312106679423944,0.07676984863518536,-0.004401173238772324
2.6205285934154457e-05,0.37038404179635354,0.006996638913846957,-0.28673953682201875,0.02524748952541643,0.06630731682776936,0.005875986170042172
-0.010605492117081644,0.3833292048404694,0.0062084087509426305,-0.2871310990084202,0.024192061674441184,0.07080368309147685,0.006115045039789353
-0.0010015376671518748,0.38389471406436854,0.013998278287331158,-0.2951890768147557,0.024031422311852877,0.07233831488383782,-0.00389209788649403
0.006290617377167343,0.3879878352668293,0.003212693237890035,-0.3006737357774414,0.022603510980011756,0.07836960705055815,0.0036010302461002104
0.003575718280090743,0.3849339723083904,0.007034233158758198,-0.29568142931802743,0.018884333963670428,0.08038066315586377,0.0054975470650494955
0.001652571970724635,0.3801494210714979,0.003587995864173175,-0.2930167528923081,0.02638125575853829,0.07851352443717184,0.004533904015158724
