rohith-poola/MR/Project1/data/mppi_actions_20250415_122951.csv
joint_0,joint_1,joint_2,joint_3,joint_4,joint_5
-0.0055054853538248185,0.015057736454259967,0.004759162967228706,-0.0006707224527606709,0.0020074215112213327,-0.002664375602517596,0.004906541874572094
0.009515837017082356,-0.0012384358103254218,0.009701071192216177,0.005834927059955277,0.0002158569117083862,0.006501228664213,0.0021077998686490867
-0.008682684282044103,0.004994875643485851,-0.00015748304308703495,-0.001931326433374435,0.0021274122571171,0.002688524313646566,0.0018456187683216425
0.0033436889632353726,0.012895834485388209,0.004834960428768349,-0.002353890786861132,0.0005128985248088853,0.0012826276755400865,-0.002698082683905298
0.0024927542784666953,0.0015851303076504046,-0.006441106085219867,-0.010102352444592008,-0.0049138297561789465,0.003637700660263754,-0.0016374352388794822
-0.0012491914639846408,0.0008125785256530412,0.0011407597689048938,-0.011856988501903181,0.002733435393721833,-0.003293806757386886,0.01235323557909383
0.00037113264500439336,0.007622680135859991,4.431385184146608e-05,-0.002891835797175453,-0.0008079552120298713,-0.002534628602221837,-0.006466730773098725
-0.0008994289023263367,0.007134572872464719,-0.003590635028528427,-0.0014141025998723798,-0.0009189495979801471,-0.0027531378954412625,0.002040005407666938
-0.011394151539455015,0.0018954783619020196,-0.003766044122022674,-0.0013649299872584549,-0.006649223695167633,0.0005659369329584856,-0.00044248808249705595
-0.0039396933960624105,0.007857229532927312,0.006367155052450652,-0.004424539827152504,-0.0007464407040883172,0.0019034154498642033,0.00015015742772683056
-0.00945741900107142,0.001106157155502748,-0.0035475138258144008,0.012098657752825868,0.00047364639585097666,-0.00925639021574791,0.01200898938201233
-0.0076953705516873494,0.013785521845892256,0.0014940355704034008,0.003970107885344595,0.004475800297420354,-0.0013120539535878806,0.0031820375417139324
-0.007928554829514645,0.008260804024926426,0.0063203432760241115,-0.0013309954166392298,0.004093564791287065,0.006515571678236841,0.0013795188932525008
0.010268977068036159,0.010725849069841415,-0.0025975678888157075,0.0012217599002239548,0.0033487381788857695,0.004581051643914897,0.008929412597049194
-0.002093611963961464,0.012528199188343964,-0.006662616354879846,-0.002917738477572246,0.00427506181037159,-0.004582010714834228,-0.007211031377163564
-0.00653973779924694,0.001945072249456416,-0.007502860753127546,-0.005637379586598661,0.005035849010863703,0.002460319037696496,0.008407873525756887
-0.002034461026122873,-0.0023365421589120598,0.001972204330948572,-0.006710937108742115,0.006516368489559845,0.006200862187457034,-0.00032545743760203954
-0.0024202655092338612,0.0035831862336854607,-0.00711206160671308,0.00493768308246202,0.0040071144181699145,-0.0018778880887065682,-0.0002804862871057476
-0.007602747525618482,-0.00400490945314485,-0.004770653246495203,-0.0035350452107129116,0.005082628295503714,-0.0020909040389685105,-0.0024508965277287623
-0.008188919592483787,0.003524061001976492,-0.009649933563870209,-0.0016072875658760194,-0.002969341366055288,-0.004120944083997657,-0.005461110081762712
-0.00830756074320688,0.009052442095104403,-0.007743417520902058,-0.0032813577936362842,-0.0029507933346082714,-0.003743731108728313,0.0056756798114234504
-0.002932613044892702,-0.0010496493430122147,-0.00230399672936777,-0.0007265600746939326,0.00712226539073964,0.00501827761962551,0.005924393380683751
-0.005992169449586845,0.0021720704518562086,0.0029602371543509887,-0.012577966821224501,0.001113781104665086,0.0011656771825657903,-0.004836096954316416
-0.0023567081030359312,0.001063339385099393,-0.001817213793144061,-0.0012036091871933038,-0.007577976618933338,-0.010765483597931233,-2.1199358740078887e-05
-0.0051770500425739035,-0.0008659666489472446,-0.003748982171686721,-0.009976349363345183,-0.00508316358630215,-0.0017944444262079052,0.0015472859639040892
0.0037120538671118336,0.006079584704183199,0.009239066298301254,-0.003021207686664314,0.00860548153694766,-0.0031925921693294374,-0.005127534786643947
0.004405296711398356,0.004533526437327201,-0.001428556849328669,-0.012238854618681985,-0.00666833734847308,0.0009577823969033959,-0.001853999961890603
0.008187532994194419,0.005642367569226843,-0.012239951399984768,6.526209912162536e-05,-0.006046991929083591,-0.0008420822865353138,-0.006068330000893016
0.00506979131451161,0.007408711006719172,0.004798790502190101,-0.004150368071567136,-0.00423982939871333,-0.003000871923478289,0.013489898203809915
-0.0004968298981206563,0.005185316535684957,0.001038379867414465,0.004801176737243269,0.0053879487570271745,-0.0011199448805640315,-0.002874065030865143
-0.0032611859133167987,0.006355985207190269,-0.006366486061802894,-0.012954700114053868,-0.0050735285259489015,0.00780818458353047,-0.00648284655723774
0.0010956557172440895,0.0003091884698678381,0.0007464020471517351,-0.010011391649227852,0.0027667627064923077,-0.0011198785242727202,-0.0021478666777180644
-0.001611757805965612,0.0058807881657091665,0.0024263199563799337,-0.011272396923663008,0.0011768502367039294,0.0042727594394933,-0.0005512531809562691
-0.0013757089554825516,-0.003194481500459089,-0.006564848090852001,-0.00946779522251621,-0.004573291144859641,-0.0007794435814998399,-0.003079386329905174
0.0023557001522941353,0.008864018521071758,-0.0050243584615993755,-0.005082640206999595,0.002884002521997176,0.00030919506944856,0.005376216555322811
0.0009198481632655534,-0.0040853290866195305,-0.007810974206126687,-0.011356730711717142,0.00037167889230532535,-0.006350789952969126,0.0008882062303837346
0.0034520576423884785,0.0027369726763747143,-0.008147789927471408,-0.003209159930759112,0.004038997523765223,-0.01187086483276252,-0.0002057912982320914
-0.004240946533294987,-0.002394970789053539,-0.006659062499525227,-0.0008410180990592556,-0.0037542098239070542,0.006739736743062116,-0.0012042568066834292
0.00030938157068014936,0.01378334075729727,0.005881144394720001,-0.003171325242751405,-0.00016690823194755788,-0.005726278131742759,-0.0005531988337022482
-0.004769480120293236,0.005918982316856468,0.00044231999044640354,-0.007319746407410484,-0.0014362455450593154,0.005025817162678662,-0.005338167186726252
0.007624311915950174,0.008740660774553894,0.004647272566760465,-0.0008284418116722245,-0.005288235040003727,0.008828255052507603,-0.0011755958711706293
0.005551215546826374,0.01656712213307357,0.004654704650592946,-0.008932954142491241,0.0018198694829623335,0.00556078187575831,-0.0018975401336569885
0.0004184420590692484,0.005683639215657568,0.005079119006210562,-0.004678618955774122,-0.00416259812632674,-0.0034875803529208606,0.008690863982914764
-0.008643039134254208,0.018090207619661184,0.004890091620675409,-0.006196532940389395,0.0034868170217442996,0.0018506942621224181,-0.00837325328405559
0.001572580218154917,-0.006901630141614623,0.00021553041357988238,-0.003262699311023134,-0.0004445889127194372,0.0034303341456671066,-0.006440335169213258
0.0013613033642376434,-0.005739105030174143,0.0018602278081873529,-0.004465941375357975,-0.0038752020397525046,-0.0002687869152202849,-0.0033517293619209102
-0.014397358268861593,0.010624462011027026,0.005320597452206444,-0.0008021260147376831,-0.0005397648226355626,-0.00865332078669089,0.0043199234015340385
0.0024728698698636077,0.015475050860014853,0.0011357685207841715,-0.001247950140535756,-9.766293153850225e-05,0.005509397450995179,0.0026555242679214145
0.0006832179951958601,0.004508247702575623,-0.006956351800548399,-0.007178967881060086,0.004286556790684238,-0.0016040027844212784,0.005036470608315843
0.005470992670899362,0.0011330229638461724,0.0012753187051986322,0.003980039790752177,0.0008790364956968451,-0.0037878299678486952,-0.007266930142543737
-0.0015113744182328138,0.002050983427755536,0.005030243377843668,-0.008240970525000382,-0.0009689766074075676,-0.006196962626329819,0.0022724445045120643
0.007725981749767098,0.002983687114037468,0.0012468248954360375,-0.00466461736410932,-0.006179001953845113,0.01082917360233415,0.012321849553417051
0.004982659028714626,0.008205193216988954,0.004607389308717041,0.0024366914321285998,-0.0034071861515831384,-0.002152171928453666,0.01009742062154169
-0.009265411698901176,0.001162069722888035,-0.006288967138443294,-0.00970065721334808,0.007507428951816738,0.0018938949714278153,-0.004951909781321661
0.002614613549150523,0.005903026741252966,-0.0037039802074601284,-0.004715050305579925,-0.004927382107500143,0.0017047864023826914,0.0025047495964767626
-0.001683995245262982,0.004452421178284845,-0.0029908588720154415,0.0015749746606210282,-0.0005659436160454269,0.0029063470583313798,-0.00012841223290984414
-0.006727321244891156,-0.0015968936123612523,-0.005583370287547271,-0.0013736815890656173,0.010609226357138657,-0.004669924420472492,-0.005680481704049429
-0.00404785219044424,0.006176451007910924,0.005731315269582076,-0.0009890160444204533,0.0050024192742962196,0.004234603734547071,-0.014179713199719956
0.0007393951590974964,0.006295912550122493,0.0006056595029752603,-0.006644232840360289,0.0032138201828236443,0.0018596062053426675,-0.005688740707986347
-0.007037980945443122,-0.0023468107828932944,-0.0009731397128449151,-0.002571877083142955,1.0635580163853965e-05,-0.005547961752996411,-0.0020866441464108634
-0.0010082241460287367,0.0020161366689680793,0.00815681142312027,-0.0029432278814568408,-0.009127556831984872,-0.001117085459974629,-0.0017240409859136862
0.01397349976242846,0.008033831289054877,-0.001987330206950618,-0.012651808505805462,-0.0014665469225981415,0.0008872465745320835,-0.002167627475216646
-0.00251420083869279,0.006683020916845077,-0.0063354975651793745,0.004022202240261666,0.0017026512725429916,-0.0014233326933016108,0.0017500839771003945
0.006379277363473104,0.01196375992860069,0.0011643838419431996,-0.00798257245414562,-0.0023963385622068492,0.0018961694036966391,-0.00827015337266522
-0.0038891162781885228,0.014917438653604105,-0.004450801637872052,-0.005971319806744103,0.0011145213067717981,-0.002087196442019266,-0.0001504206610286001
-0.005738403947738701,0.0016977833626533381,0.007151105305170068,-0.0016137119998631826,0.005941762928868598,0.004665034667154084,-0.0027334331668719776
-0.001267159942185903,0.009603775368248893,0.006655542143942593,-0.006180630150361124,0.005463496464743428,-0.00293618037108338,0.008129652676654142
0.00587332970983001,0.005136210951373173,0.0020211559826460966,-0.004929829360079618,-0.008317496541519665,0.0002962286610668549,0.0029402557299738263
-0.0046476235530767355,0.011812827572058503,0.003916015557386553,-0.0011348250410787336,0.002312005203173453,0.0009767899718471948,-0.004297249283832002
-0.00443688760317935,0.0020183163415042546,0.0018153343813866398,-0.010166680610910198,0.006583740213450324,-0.00204883898833566,0.0009200646788671211
0.00267633132078366,0.010711402766444448,0.00500109321657309,-0.0002641992683058706,0.0062706318661173936,-0.00445161855099833,-0.0011946914045773051
0.0014415268755619327,0.004597837293481291,0.0009261659647113971,-0.006738612456907381,-6.37273146702558e-05,0.003608944361952399,0.0039770171175943884
-0.00355870547589831,0.007845234498625828,-0.005106649975829965,0.0011194527374657638,0.002862305946767332,0.003920299565132257,0.008917043648356937
0.0020780345655771523,0.0044152209579427434,-0.001040446915871236,0.0006908743209883219,0.0008101196132855139,0.007877594115847044,0.0013901353805425621
0.0010070314733229809,0.002709503202838661,-0.0007540193254227004,-0.001952853491992787,-0.005198978634034224,-0.001086208087587665,0.002500716222052402
-0.0007636518509128998,0.008179008231087624,0.008901102904693158,0.00011279768453233531,-0.005015585183361355,0.007557433425924178,0.005001544499180345
-0.001653063109006709,0.01311582804486001,0.004655832875841321,-0.004203744922507423,0.009289951222904231,-0.003934375673201339,0.0014663647639244837
0.00037481671197998846,0.0013942237405355899,0.0030507042243996026,-0.006723043438044528,0.0019614461057674178,0.0006657468219860174,-0.00012887198787138617
0.01538601163945414,0.0031038796117786017,-0.0001695142319718464,-0.002437149091938058,-0.0022897097301644784,0.0035013699121635407,0.0005496701568782113
0.008755009243552495,0.0007847976548594519,-0.00609787573326402,-0.01466672871074964,-0.005612024962468549,0.0037819166621648657,0.012112677429912082
0.005248272038763588,-0.0009391271962999523,-0.0009951639125607857,-0.008457639140763518,0.004886145340464476,-0.00023497451627404987,0.004690353088151525
-0.0013068669577571425,0.011174512898529615,-0.012032565597998743,-0.0013003590255480457,0.0018654393744426219,-0.000675841665919831,-0.0032938382469830507
0.0011831571233568562,0.005115823611175577,0.0063060431075881666,-0.006493930460801971,0.0026451570370325268,0.008824680275226603,-0.0026501734053402544
-0.0035954451864975145,0.00963857636416411,0.00024175715566622703,-0.0007225308820913918,-0.004045600271255679,0.0063263380389917455,-0.0058432367580282425
0.0005163438741190014,-0.002734008967822035,-0.0035661088199272586,-0.005356738923911193,0.0024370066514838376,-0.004105815497512255,-0.00658846810465428
0.0015614532998705197,-0.00035573869993645653,-0.001436918786375978,0.005384600928471124,-0.004572271504096629,0.01144321392064358,-0.007080367999727796
-0.009448647604268315,0.00819483156362743,-0.004181569437936154,-0.004471245388928122,-0.0022692238788694493,-0.0008807037502396531,-0.0003066251349221066
-0.010452545247910243,0.0017654813589191162,0.005515333747465447,0.001540939090959828,-0.007016221022562439,0.0013178075260288006,0.0021388383028899606
-0.0023883737821317618,0.0034698815615962124,-0.004172589648213331,-0.0054092900018372905,0.0027162975299828713,0.007043525806112689,-0.00029078803818656366
0.0023485552231463556,0.006421083411759631,0.0037634885468325998,0.0003258312286249672,0.003622356364808016,0.0032106330736036285,0.003606569527924725
-0.0034317842196271457,0.007496754258937044,-0.001353451342744234,0.002043318576909783,-0.006635473779556441,-0.005839406099256436,-0.005534881797948481
-0.004763501193846184,0.0032975848624134923,0.003941192299850278,-0.00817782557017464,-0.00217081328435291,-0.0028682015298755166,-0.005587597604326111
-0.0010476922788308896,0.00036625729533089834,-0.0037396570384806726,-0.0010902751686089084,-0.0013779118953778648,0.0019295410025213686,-0.008613073787836061
0.0025750403592727823,0.009108058727775587,-0.007918677524333482,-0.0023982884085682475,0.0037828256153004665,0.0011532468209863723,0.008334171548332063
-0.002182927240469399,0.007955697122516613,-0.002279478326362735,-0.011141916077985632,0.0019681101618594732,0.0036108249938055213,0.0014206744933045468
-0.005710222646994011,0.00941074938783424,-0.0024896504407634643,-0.005635060732833554,0.0036074122277217485,0.004779713574818505,-0.006805978288729011
0.0010200866182080996,-0.0026583777141592413,-0.0028886543434798215,0.001889157590095921,-0.005471744897339924,-0.01106769908567047,0.0014579876026958245
0.00387171121478465,0.015005657966462204,0.0008318288728558329,-0.015333860060030461,-0.003761710548953375,0.004720122398214481,-0.004007215461334911
0.0012849496286670816,0.0027414729309473557,0.004035309090161972,0.005433557194405483,-0.0020351240522799895,-0.00548845757035123,-0.0075729246918015344
0.004012272599279318,0.00628832832933989,0.0001847293670180721,-0.006655401882810023,-0.0021301801079436,0.0019706738891143894,-0.0024731685405725325
0.009808762341502367,0.014135091619498153,0.005788271141478359,-0.00515929896203522,0.004927452310301691,0.007321135199768808,-0.0016439282709717123
-0.0003636372292742154,0.0038566300892042236,0.0010756023978242344,-0.008510097431636244,0.0019581520851803718,0.004764942803864715,-0.003641740455825966
-0.0006549064100888841,-0.006080181313525381,-0.005968320071037035,-0.004942789631030158,0.007035810672528076,0.0028402513934342836,-0.005446820304906352
-0.007256865836661605,0.0006679414978260161,0.0003068035255762811,-0.0022313213517471827,-0.0010731612592834415,-0.0021770132528679507,-0.0029721302054531574
0.006509039338143109,0.0014625469322389745,0.004613012949235875,-0.0011496048438205191,-0.0007673841430756742,-0.0025891514654461456,0.0026740131088386966
-0.007078277005125591,0.0067178486992233765,0.010647253765651885,-0.00226708215477209,-0.004992019136979499,0.0029434814937106903,-0.0015600922346495091
-0.003097293604220153,0.007208897182235949,-0.00375230985527131,-0.0063156779786964126,-0.00765757623779346,-0.002399244392485336,0.0008313153546430335
0.0025520858079638494,0.0017281850083086794,0.0004277777833558271,0.00420452483482319,0.004345572664393644,-0.00313735273032938,0.0064458703158494736
-0.007253441658353553,0.006394934834893401,-0.00033944261168984593,-0.0036448039219657206,-0.002733617458188177,0.0011631144018151587,-0.0019927763145923916
-0.0016597280505228425,0.0006693533040136447,0.0037393787088719657,-0.006554042118534124,0.0007222488714753175,0.0009175794919830055,0.005421470192478714
0.007565318097918971,0.0008635764256185119,-0.0015131391509172517,-0.005270230015428192,-0.0012977484410723508,0.0011340545108450687,0.0029023762334106948
0.0003782649890964247,0.003543496469632546,-0.00410756016022418,-0.010642166085331597,-0.009109609436039123,0.011163215940894432,0.006315741012493727
0.002410228190911817,0.0025150746778089374,0.008214681267784858,-0.012109158413738986,-0.0034776403055221915,-0.013961647315797123,-0.0012655947506321817
-0.00853039182730336,-0.002801882079402554,-0.006125433652044196,-0.0013902935677460241,-0.0003800877218618642,-0.0030928276581802384,-0.0023271899428866823
0.0006754785309931791,0.0005411908451479642,-0.002850459171872794,0.00352806714146691,0.0020722256202621633,0.0009159383675379437,-0.0007263424233287596
0.000406335324293867,-0.0035482250357401434,0.003518686019926118,-0.006479854166427887,0.004911055099200259,-0.004200809424611238,0.0010071355137492891
-0.0021694637118912083,0.010475721492574286,0.0007502665802367761,-0.010683910825649493,-0.004056768444104693,-0.0008594832546778094,-0.009582831422889139
0.00026321524357561326,0.001070510771961741,0.0005028196152643292,-0.002812067246614151,0.005086213485772748,-0.003340711141684736,0.0024217529364557663
0.0046264815553636795,0.007193642895050623,-0.006066630348078728,-0.008987295771356922,-0.0015085940656843688,0.00830099152191761,-0.00246986571037811
0.008195984535509836,0.011201672339237686,-0.0024821633329707663,-0.006307318337853504,0.0056511325792256845,0.010735447929710009,-0.0031010977349694526
0.0039656026738932185,0.007314880044376457,-0.007328735255773653,-0.0009297583008866184,-0.001048418432771763,0.002899788964482149,-0.0031793228451998594
-0.010379543680277192,-0.0009740449911796673,-0.0020325524643062015,-0.0066213155334381634,-0.007963747528764187,-0.00041927230054172366,-0.0024521293809829426
0.006569468753516114,0.003402773280364023,0.004434400140304574,-0.018594946867437016,-0.006159786884916659,0.0005736583264970871,0.004294941893574092
-0.004785987488565227,0.00382823854636586,-0.0031582169729669697,0.00011737028484616163,0.009984360295102655,0.009862749111462383,0.003922547016198383
0.005577415774510359,0.009797578878754019,0.005056015368833406,-0.001035597678636663,0.0012105122510875314,0.00015037905430849479,-0.0038659226621139387
-9.198582045568646e-05,0.0038399538780846936,-0.0027535046283394754,0.0015139784206918375,-6.485655887839199e-05,0.009744660788534322,0.0016198315295497504
-0.0005632670152913546,0.0023558085663682995,-7.741207292103348e-05,-0.006739757277556746,0.003055782089282301,0.0033642945123519698,-0.005557731197089627
0.011680140755151645,-0.0006790714359666838,0.00934419411866539,-0.007517085588111399,-0.002861630809956574,0.0070204519397846265,-0.003438537895120044
0.001401496222542523,0.0001325600597339767,0.006109949676286846,-0.007970211153781725,-0.0012082662664763852,-0.004137248386497799,0.007362789099199819
-0.0025146828260435685,0.01632216495445348,-0.007037063298580414,0.007460984347992471,0.0002537246924563416,-0.00033013926582162385,-0.004233069715505483
-0.000695701129825725,0.01146184352213703,-0.006744813386077903,0.0006877067371261202,-0.0014229848003750134,0.0038154684149633517,0.0019931948923108183
0.006405000678814879,0.0009024535531204532,-0.0005513700363211749,0.0008973682599981641,-0.0045635525942470815,0.0012187967636727243,-0.007651127293883659
0.009831131127118224,0.002267349283626678,0.006349354461507835,-0.007882884291283412,0.0006867292209979477,0.00433552583928664,-0.002985078781298252
-0.008565066486344478,0.002611664157105874,0.017002086696398105,-0.006226754016266358,0.0035197215689960785,0.006681442105118967,0.001477367961251783
-0.009976751270425329,0.010090372671815409,-0.00432054873282289,-0.004204789975336563,-0.002298834503127722,-0.0004244417950287399,-0.0026949347470189814
-0.002749813796453542,0.004999098821375934,-0.005801215145517003,-0.0023119025413390662,-0.0029281519475686246,-0.005836755007305893,0.002093668627196863
0.0014971998018097788,0.009498796409575221,-0.0006448495369438532,0.001576919905889323,-0.00907233966974513,-0.0011743727551921746,0.0067902551421659615
0.003472733428733795,0.005699990129182939,0.004497410450102806,0.002096168927317652,-0.010330623836213026,-0.00018558137515894935,-0.009477423317067508
-0.011094849276447771,0.003168233789746854,0.0007592582251732961,-0.004789173773476257,0.004672645105870074,-0.002923425972979218,-0.0040251269745522475
0.00533684251041851,-0.0038515395406535403,0.0013554160877159915,1.3287703682801004e-05,0.002879702261739567,-0.003914369911440734,1.6696735607734465e-05
0.005159586087577677,-0.00011199341866427313,0.0072022405269077305,-0.0019102530687485513,-0.0035777400146995817,0.00028825620366616957,-0.007399186203780233
-0.005011996611950496,-0.0027988242776558862,-0.001290816185810266,0.001630497729600523,-0.0013426547358227992,0.005459078506866373,0.0021602719011202484
0.002732607593659569,-0.002901784355650636,0.0015761162582574768,-0.00750271398868798,-0.0008755638939590004,-0.003155433338118948,-0.0026157533915815707
-0.003152990548260102,0.0023599065379120436,-0.0040705373423175935,-0.006354109009923252,0.004115995566822429,-0.004367721941604135,-0.005314393928567695
-0.004970473160447903,0.004547924027013848,0.004137106261869955,-0.004366252318342837,-0.007280703258598208,0.004527271216665099,0.004572140343999014
-0.0032786265837390157,0.006707024159860602,-0.005330145096554387,-0.0032508928331785496,-0.002818838860324496,-0.002431327115579071,0.0007645914737291004
-0.00572945262374543,0.009623865995959139,-0.0035087650276794773,-0.0028084654626593666,0.001931071200654878,-0.0019981401284367593,0.012160067395535698
0.00455072921853204,0.006761440822462835,-0.0031256566488173675,-0.00448619417377202,-0.006406395176443821,-0.005583093073551647,-0.0009395800292936202
-0.0023688090860216433,-0.0025934584620004647,-0.007296736329423056,-0.007239659166140926,-0.0077522878349101845,0.009817321708579603,-0.0020296227753908106
-0.0029369524983965676,0.009059316562144088,-0.00926673049402481,-0.005788804233211704,-0.006644374495556396,-0.0062687116507451224,-0.005917492562473928
0.0022251858574507608,0.002148156891130316,0.0004642940613535691,-0.0038034075314135446,-0.003965687358355252,0.004003943127061383,0.003955595361242974
-0.00040821974503228644,0.006404626946577178,-0.008962609128060833,-0.001950376947082553,0.0003121067204289009,0.003772284673279422,0.002708056708851635
-0.00471155645014095,0.0048441482399430935,0.00013836118089771514,-0.00959287558409305,-0.0019090362068315788,-0.00700250615149551,-0.0005950655307264863
0.002392892136284825,0.0027234237259759347,-0.0008323044655932434,-0.0018490210976422417,0.0005313672833121413,0.003978985440826343,0.00026210095662752885
-0.0007842440270896538,0.016016895941726995,0.0032442804983445622,-0.005759393361259725,0.003865089340738227,-0.002107868497778932,0.0006883527016483559
-0.003890345196105209,0.0030118044997128014,-0.002029719514467026,4.983283651044569e-05,-0.01015271086093235,-0.006799016552339028,-0.005120627029296129
-0.003125547754011668,0.013742563905418831,-0.0017074113036878084,-0.006044083447085282,-0.0027743414555339426,0.004491602278567459,0.002797596708565586
0.0030664652874392304,0.005031641503120314,0.0008121750822847146,0.003013811106002915,0.0005961683845054973,0.005472611417322913,0.005708337690763408
-0.004210375151336599,0.007149690607575328,-0.0010364539174444482,-0.007019903151520891,0.006234749128529046,0.005757606017725826,-0.0009411201696634204
-0.005589916468705594,0.008242223744260868,0.005511576881737408,-0.006687099082441663,-0.003203497606539117,-0.005112955103336864,0.0019609955510129272
0.00034039339397076327,0.005796053131403522,-0.00011794071780949449,0.0024460345647392945,-0.00018684233966086882,0.003857280346063867,0.001900813335520282
0.001897093636155746,0.008423949629183478,-0.0028402688303236947,-0.005253578728858954,0.003475746309564207,0.0007616394503876454,-0.001919027094731074
3.170360408707442e-05,0.004256909860978409,0.0008574304375629686,-0.0010762231680533324,0.0008740582121073996,-0.006674377032369372,-0.0015175975035667684
-0.0008148694989774446,-0.0002625736784308759,0.008888067112952694,-0.002638651618990711,0.005464188755949553,0.003527013101600694,0.00226965837501833
0.0028472536038002785,0.0042699450671563775,-0.0008666445620978951,-0.011101672876274756,0.003241421041172743,0.0035063256035082454,-0.001887310941972573
-0.0008034982005788821,0.010997236211173149,-0.0031030984003563647,-0.0055385776008786075,0.0051263775339853036,0.0058551620202083755,-0.000461272054840973
0.00046034786077895143,0.0037093591141035206,-0.004010231078656706,-0.0015761087263605502,-0.0033445074729614496,0.006544895902979485,0.007884142365993633
-0.0015686062360691859,0.011562938330709796,-0.012945415087993238,-0.004348343295820944,-0.0025707422898560697,0.01022693897925653,-0.001997012182687356
-0.0019770941127175727,0.00464384181750051,0.0021093825491956585,-0.003932391082393802,0.002864002387221434,0.002795848903573432,-0.0038723573452202637
-0.009023186833585498,0.005781107534605329,-0.005459644958037588,-0.009357939673257862,-0.001931959342722929,0.007874151877092034,0.001832411755555005
0.0019206479026421482,0.012161748609570217,-0.001458746384499957,-0.0029393080458184283,-0.0010932356125616975,0.007233319186779084,-0.0032888779024746514
0.0020447203368359696,0.009798501950836693,0.006500326523139865,-0.004643673984553083,0.0012640329954880574,0.006366679823848552,0.004531363384944182
-0.008542386167215222,0.00880593301672936,0.0011651496696468992,-0.009387510740387085,0.004852308234196793,-0.012518769401677675,0.00489135471344364
-0.0021884981760326855,0.0025317447829779232,0.005376263434694422,-0.006168906284783933,-0.0023201351064966384,0.0038845986847225312,0.0007225700025714701
0.0015116483236500575,0.004822980886563951,-0.004981473227528833,-0.004032330740877058,-0.001713373957429653,-3.567992533368376e-05,-0.009513964257397272
-0.006563082381378784,0.013005932702435155,-0.003250545970695785,-0.006972127282313545,-0.0010757426285273352,0.006544324059690146,-0.0021459599945202884
0.002119942616211206,0.011014337830814708,-0.007986645209401202,-0.004705219252979489,-0.01639874459023566,-0.0010096941051043057,-0.0017948618325894644
0.004966101184545095,0.002058442771806536,0.00034838803899828663,-0.003725136136444681,0.0034763605210965196,-0.011636944158936385,0.0004325262042226782
-0.002869413020765857,-0.005470115915114242,-0.01050897139037906,7.870329627339683e-05,-0.004016821349868457,0.0074862357139831425,0.01306163540834798
-0.007369505274874771,-0.008019058773186932,0.005026403379161042,-0.005977215852865499,0.0015071756105676237,0.004072976019548851,-0.00584849152842031
0.005333729381172279,0.010001984260181932,0.004182055252824587,0.0008261677026630311,-0.0028521273456635155,-0.0003539587120224571,-0.00182524159628803
0.0016463993079371627,0.005624339058736324,-0.0011549068054456314,-0.007951044387002804,0.0035296485826835713,0.0002114027678303687,-0.004498919082401404
-0.0069063147472237275,-0.005553960374120081,-0.0027866729542786297,-0.005286653343100293,-0.0055213298866508284,-0.0026151285092146626,0.006087362972280699
-0.005489809068206857,0.006760492921458373,0.0005534180661529479,-0.003726304224630764,0.0038350446381096416,0.003236547481335529,-0.010616114114892133
0.0019071783995180435,0.0005199703128271927,0.001134208789221638,-0.012553588581036708,0.0027829393513434885,0.005321246949578814,-0.00326429126105505
0.0030280200062592,-0.0059462145816888195,0.0005877666266011843,0.001666902691021886,-0.0014087059872987377,-0.0019447717425898105,-0.003153164049605509
0.004197121671042393,0.0066279458400338625,0.0005438410953554614,-0.008365883561107136,-0.0026177427555070664,-0.0058644263979807576,-0.0013941815816785061
0.006240795088238583,0.001972004589225681,0.013453601639515207,0.007461055211804561,3.85652141838278e-05,0.007580157553076082,0.004392759653410498
-0.002877129557902369,0.0142216263388611,0.0009581305390808984,-0.0011003741077498146,0.0009716165600015404,0.003281512416224732,0.011386496700022869
0.005011114104746679,0.0002554351568361048,0.006719172399315804,-0.006871382630746904,-0.008800756706317359,0.011274320610771316,0.00020881558141917184
-0.008918157192262287,0.0005457442409982987,-0.0045558733362533734,-0.005259496838373814,-0.003766487911890515,0.0058010154956340924,-0.0061580285162818596
0.005250598083854501,0.004456269246789112,0.0011781056322606805,-0.002650841274713438,0.003458112663543024,0.003969862198148067,-0.010924897791085629
-0.0011688404699639549,0.01245632317509322,-0.007361156540958323,-0.0044500294635648795,0.0025911126778866878,0.0036037459569541706,0.0030983695436812933
0.0028901268703906704,-0.003065894876004366,-0.00013048822030327367,-0.0056890427244906455,-0.007848785011093323,0.00046926695391441575,-0.0039387539998343634
-0.009132703683706077,0.0012477180916112777,0.0044230102952826375,-0.00901444020827784,0.003942975001185983,0.002785373658000449,-0.00700828920330738
0.0019132957950078432,0.004428496368255271,0.013376913719529237,0.0021887540660871555,-0.005845998950516633,0.007332046317155361,0.00271775544708565
0.00903602512421932,0.007608569488683094,-0.006566919902210465,-0.009399233750558691,3.4279125585306926e-05,0.0014761779729564857,0.003089060883049105
-0.0012126133946600297,0.017758241993532785,-0.0034552449740169466,-0.004875240389928998,0.001067357448719419,0.00622068416100528,0.0008362128323019046
-0.0063822210520067734,0.010802650558215011,-0.004576345458912366,4.95501583084816e-05,-0.001462988383257516,-0.0015159032066454571,0.003925928063546489
-0.003501426064402133,0.004151314762819224,0.0073311631400710675,0.003822216647816056,-0.0008423724121239943,0.0031199858594707923,-0.0014598550734509612
0.00396489013419475,0.006825876296576232,0.004414843696656923,-0.0026408116319430832,0.0007643048890688194,0.004378714159329249,0.0003335489145640302
-0.006844580295531835,0.007358229121489135,-0.00036000032848787934,-0.011883907876955917,0.008112244813376681,0.005000168536577912,-0.00939348034561469
-0.003315877603832121,0.0006753178389848245,0.005483715595386324,-0.01222700822235251,0.00116620680211204,0.0003057118230079357,-0.00458593990899205
-0.00648049151146194,0.007263745590145945,-0.0016367120306665598,0.005966551604886902,-0.010232367106558837,-0.0006114280998791368,-0.006306671123840276
0.003481194343842915,0.0046877555906832975,-0.0036124693662127317,-0.006133228556470156,-0.008586417056460415,0.009507742380397071,0.008756569630424298
-0.012910015876083895,0.014107543333284792,-0.001672428740619938,-0.002679794370441778,0.0008335301708202706,0.007847119647595031,-0.004309879879935687
0.004412334633283981,0.010339184424805484,0.001907053999473596,-0.008141055322849476,0.002737723019542964,0.01609219258599213,0.002086720711164136
0.00081731549120018,0.0050678642237581605,-0.0002992342389639956,0.00412926322750917,0.0010678340711936835,-0.013268868305994785,0.004877323221500302
-0.006677757414635904,0.00511305505200395,0.007302971463260972,-0.006596872477427942,-0.0005345944379388773,0.0012001878629946262,0.006078342251720513
-0.0034756041323670147,0.0042742869988095285,-0.0018507435794587186,-0.0038260276042637,0.00563048112269027,-0.0032364339818988577,0.00012965832887762568
-0.004523852892541673,0.000288070523656444,-0.003310287885147099,0.004289502572462908,0.0023945007896546285,0.013119560635709824,0.0025311475183588143
-0.00570081307402099,0.01421398264775087,0.005653594838560855,-0.0077764824053071745,0.0005185532727269673,0.0031129409633648755,0.007627782754514568
0.00030642921898684265,0.015407959860892852,0.008094527419500237,0.00043396848395566923,-0.002125334009288318,-0.0003273593019103351,0.009209106802831421
-0.006989614416104944,0.007992885461686541,0.008537865392161314,-0.0009564937621397288,0.002508192544457293,-0.0006105674865808631,-0.0040459488622996975
-0.0027449632613920764,0.007270651127215775,0.001996351738509637,0.000617660612250655,-0.004478382682646016,0.0011652494792884522,0.012912598521515224
0.005667370045686554,-0.004039037281772511,-0.0010149508119848617,-0.006039557376871828,0.0033556138523102275,0.0038531790959092406,0.004031347245455939
0.0006567251564758625,0.007039809811795113,-0.005793322669300657,-0.0014981809427662431,0.006510342757598407,0.006761950689757191,0.005753850318260853
0.00624112453123753,0.005071618359035406,-0.00493532489914512,-0.009795572470521523,0.00863637807798599,0.006318317625395425,-0.006775480953396318
0.00045670058193591795,0.00957452617755088,-0.006402273702604113,-0.004342595185442405,-0.0006058726879574138,-0.0067393428062532965,0.004624750260724018
0.00505931515580733,-0.0006950209635668824,0.013383081093512845,-0.007804022937159916,-0.009321669783522547,-0.0050750336795561115,0.0067936704484826095
-0.0015851256289248358,0.006503220788741827,-0.007198445889270063,-0.011210579893691012,0.0034593318691140524,0.005674136309107841,0.0027836011283903237
0.005078054675043864,0.00431786414737006,0.00020647486613955315,0.0030848800893487527,-0.012330465960614951,0.006594965720833858,-0.006478412142337358
-0.012231120558914739,0.005105327325074195,0.0017967370026142873,-0.0031393582086412,-0.00420796906025479,0.005512108286749665,-0.0029689832425222685
0.005999728766628796,0.004650401417106909,0.0012407679135936452,-0.013321603694680433,-0.0014846135419911487,0.0020603417785827935,-0.0011691619838346426
-0.003406828299784581,0.006931637253315225,-0.0028125043619803294,-0.005097453062966291,-0.011311194087814747,0.0038383698392042394,0.0020320555003903503
0.0022462827035128227,0.006050194287515177,0.007117267191986151,-0.006338795421152706,-0.0033457734338887563,0.017709108028857057,0.0015744269631072787
-0.004896811179419752,0.00010811898140773539,-0.0005175435445486213,-0.0005107741950395021,-0.00031180628062496226,-0.003991259750801313,-0.0013266734782809949
-0.002292211573726816,0.009750056181479448,-0.0021375119355683766,-0.004312765847544255,-0.002563050565684361,0.0029512486567184627,-0.004777936426668997
0.009621092360112405,0.0009424042422604116,0.0034034566056095287,0.0022343699130305044,0.004589454126536777,-0.0008017734725640187,-0.0006267150671948431
0.0070946139823653415,0.015471862713379138,-0.0018259518329349766,-0.006753159946260932,0.0006027071476569802,0.00698493499220449,-0.0004798771119615396
0.00909328107168697,0.010021923199578004,-0.0038370250739025447,-0.004379097556527721,0.0002580667605181768,-0.0009347144385845677,0.006477286535532886
-0.005231584341180618,0.0007974591502627674,-0.0033907749130260654,0.0020426614592556056,0.00039674003502228414,-0.00577017022054025,-0.006453644169396277
0.0003533907531517263,0.008205978738585236,-0.003596502463466865,-0.014453270287863852,0.0027233486489150194,0.009307246477215498,0.004111892764066704
0.0037119501709689264,-0.00063505169170559,-0.0024850379962397533,0.00476934629386058,-0.006857424851089142,-0.0012617135562950168,-0.002031763048296073
-0.002322482909959461,0.0023379102887719897,0.0019883530654327877,0.0005993198916608362,-0.001048579452100669,-0.004517031621182492,-0.0004855931797633767
-0.008404016631843824,-0.006184581366091878,-0.0005001427256927785,0.00120202765820252,-0.003474032351863432,-0.003394431641833661,0.0025487173372700424
-0.005943460942879907,0.0067349111420052414,-0.006614872319888601,-0.004866163015600385,-0.004212391199654756,0.0006269849747367478,0.0021346976835485035
-0.0021025387624718037,0.005120487393440787,0.001189408866882057,0.0008312349021432958,-0.006024579209255379,-0.004162553122722394,-0.004848648262593566
-0.00442248299182489,0.006943492027494728,-0.00019459148986677608,0.0005483422105350296,0.0026254028796817725,-0.0018108452481066352,0.003924637628194765
-0.005264477563232389,0.004821194149547896,0.002684281323543316,0.00796115020888388,-0.0008660372510194447,-0.00047445713968211273,-0.004899135140836869
0.004954349162157507,0.0016803723266634015,-0.001950410283207697,0.0013876341903328454,-0.0011046741344922027,0.005185936634813788,0.002504144574183768
0.003778877487114802,-0.001273889532277611,0.006125745788991202,-0.007206682020005092,0.003250452080894,-0.0039036740847686715,0.0015807852385798628
-0.0016517284206830998,-0.0007954945245701293,0.00032620453153667977,-0.017315522045036117,-0.002407666950346916,-0.004525190088041707,-0.0005676510783366005
0.005692865492888654,0.011135341746556539,0.004837137137009261,-0.006868778254560514,-0.00642027229772311,0.011132668555900836,-0.005957720658645729
0.006939927873860114,0.006857863090460604,-0.008830702276124697,-0.007163406192201564,0.0008524081899572291,-0.011788069479939845,-0.0049249778322241556
0.000868267223590315,-0.0024283503215624235,-0.006008239137371961,-0.021444925262941866,0.00041984967501937923,0.0022398696196501227,-0.0013493656801291912
-0.011269454028412826,0.010437848563954948,6.488577475903046e-05,-0.0016581311435269947,-0.0006512126973913127,-0.0006650230138079961,0.003004235811285637
0.004345410426533854,0.002010459857972073,-0.0071504345010198166,-0.003638148744228483,-0.0066900741681219286,0.0019769232653939345,-0.0058955857574914255
0.0031660330384402882,0.009146390142221274,0.00826184550008105,-0.008919343028833631,0.006329271516322552,0.005148515886425702,0.005312379302602524
0.002431378165635451,0.004650788963732707,0.012043101780883553,-0.003924064904487109,-0.007234021588655589,0.0033231663835843854,-0.00030488617609256456
-0.002566255208086675,0.002232145461360158,0.007266501502915635,0.000872165004102762,-0.00025420752202648617,-0.007086966011293355,0.012149394272903532
-0.003346948904670379,0.0029539679336666493,-0.0006215079787178922,-0.006710818031860492,-0.003141913124083604,-0.00026304071094517966,0.0038287039530687044
-0.006447754223343836,0.010380990184835123,-0.004494368196966664,0.005102785390392029,0.00026909261293512346,-0.008409516033417854,0.010559793911433933
0.007937116810948516,0.010615326448813356,0.005808170053769388,-0.008981216208259469,-0.008648794159162454,0.007817238591167994,-0.004235961864701078
-0.005000493950014696,0.013333509465346241,0.002104418956519976,-0.004283282235007778,0.004596725183178031,-0.0023475763908618863,0.0030241592495858847
-0.009445141333806235,0.0099558858091523,-0.002075430238751194,-0.006043529673415459,0.0010889783407111902,0.01606139920218901,-0.005363757700530437
-0.0006510601726334602,0.0031984923258422397,-0.004625769140822969,-0.0035055768752507207,-0.002661865796610843,0.0012115740711907022,-0.00401303348625758
-0.004150780685527111,0.016872625796292156,0.0014463207808921535,-0.009932229274636488,-0.012551614318983223,-0.0008652562539535806,-0.0033148410945566744
0.0008301333195506242,-0.0027263335229219116,-0.004715852216921001,-0.0019005984258317205,0.0018656364473667944,0.0037396219113851074,-0.010267187614360901
0.0028615445082159044,0.004066547007195872,-0.006511979493702142,0.006573658514666424,-0.0030145103337731096,0.0038763463568901196,-0.00019038959649938147
0.006883437891608062,0.006488051748684428,0.003543493159136273,-0.006969312910782636,-0.008198923128001764,0.007221895815471277,-0.0006808817123159778
0.0006481455113607543,0.006777451400372385,-0.006839118236420202,-0.0076416352480917805,0.0003125023758193741,0.006056223140689045,-0.005013650929879322
0.0009061881201246083,0.0038332442196488555,0.004459410069467772,-0.0045880283544510805,-0.0014986306486245845,0.004179735902512158,0.002649091295484169
0.0017042962826070973,0.008649653813645424,0.004921200386142118,8.178150488720952e-05,0.0007557723279037734,0.00038579486140003394,0.0016460825057874318
-0.004214587336141504,0.019444176496276788,-0.006413340971385966,-0.00574777311912474,0.003947799847338707,0.002122160689137568,0.0015806580885020256
-0.004054801824355622,0.005697839154507117,0.002020173653347559,-0.005504961980085615,-0.0037887591823821424,0.001743644267811231,-0.004836526363803596
0.0016179145827090514,0.0037669880205533335,0.0008552823597218742,-0.008097684876990285,-0.002794272941457098,0.006085104094110489,-0.0025557321122168064
-0.0009453705437927584,0.0004163619724134389,-0.004660191171271715,-0.012891736097434266,0.010132086396005784,0.003937335070465714,-0.0021344891150325493
-0.0011587889730842894,0.0005599802517715631,0.004483535847212444,-0.011669554946552557,-0.0029812496529794796,-0.005785315016180215,0.004304030388485389
-0.0001894925144595014,0.0064692804812019255,-0.0003008479829488979,0.0004632593693366146,0.006183544646171184,0.009158845082511462,0.0021311089262479265
-0.0011462910462632188,0.0017889337742095464,-0.0027085294144569023,-0.006347324284925452,-0.005478190358951012,0.009467646603341916,0.003781258015371544
-0.010706199625558055,0.008217280826579755,0.006793965474069563,-0.010899603272522715,-0.006906351985970226,0.006001016536380497,-0.001947231202882159
-0.0024041006005867836,0.01311330309044993,0.0009759726002610973,-0.004020339027135159,-0.008859751089712436,0.0008280768437422714,-0.0006008891731688423
-0.008117270486197004,0.004369005975380419,0.0012415054936712475,-0.0024989378142618946,0.006130543970959967,0.001579124695137869,-0.001286383630022098
-0.007826151186265406,0.011353476254369974,0.009665221233164253,-0.005396513486823047,0.0038393714420588386,0.004112031647043063,-0.004186315942259886
0.0008464291758715572,0.005838093594021977,-0.0008405022664019748,-0.005973221478899026,-0.007247367685368163,-0.0031122660071487345,-0.004141301905166792
0.0017950757194728686,0.01013500163511561,0.006603331144767215,-0.005540945448057936,0.0009982755029484716,0.0030420528974899616,0.004819616290258748
-0.0010654372052667713,0.007497881389421793,0.009288320443724721,-0.009176247164371472,-0.0034082585717661053,0.007137610514775796,-0.00019349475685946733
-0.00657548782234753,0.004931538398058727,0.003552307281914287,-0.01164989498920203,-0.0002291867462151206,-0.008910657344911586,0.0002383898078280165
0.0020471750276155843,0.003167472661820817,0.0009668747157699768,-0.004252122047362493,0.0009127310827359987,-0.004741724095278308,0.008281362687131616
0.005015701169208444,0.0025434667363457403,-0.00478283801585596,-0.004546642441881135,-0.0026005555608341713,-0.0008430069694738474,0.0013613472160952766
-0.0009919954488982518,0.008604879997192533,0.0025468316729889964,-0.004070290884075399,-0.002062295630207542,-0.0005487975868322013,0.0016648581359065152
-0.0016462079095620622,0.018229848490812762,-0.007926741002186086,-0.006684606196871106,-0.011156490571678022,0.007015629364578377,0.0027910038904419756
-0.006104526985996121,0.012944321008993937,0.0002709722134966641,-0.0071315007228494095,0.002483081208467513,0.001210238716149643,0.005844174751537988
0.0032133363372906067,0.003822887248135413,-0.004183279909234593,-0.004843793672998752,0.006978984628553237,0.005441018975244472,-0.0017243299896949477
0.005773325319075642,0.006139602254211784,0.006232786570436199,0.005999084890578489,-0.0021408493746708857,-0.0025698300782801193,0.0002651908797941309
-0.007128959264041551,-0.0011625467853167127,-0.0038504659258407677,-0.005632185032526051,-0.0004419917381287019,-0.0029569438054491658,-0.0030821920149724036
-0.008849594304270802,0.009185307216507049,0.003653126906099198,-0.004658536399495428,-0.00034895319945692053,0.002652937673294364,-0.002381826221805548
-0.0007739912553553175,0.0035702278882656976,0.0007945031829012482,-0.0005015629141412348,-0.003845815827199716,-0.004966094059788487,-0.0012461559525346008
-0.002988319596641346,-0.0004982843435031221,0.0016146893801088687,-0.007239876941024828,-0.004983095669160585,0.0022582998608819817,0.0036027524697813556
0.0003652457777911693,0.005019408388916726,-0.005851687846931105,-0.005954879917042016,0.008813820041159097,0.01386130341029596,-0.008107299544682867
0.002729497616826874,0.005583317259766716,0.0028751924284010624,-0.004954517253299007,0.009917865871796161,0.005742205503439203,0.0030169853971233705
0.0020809811122365993,0.010008715504110787,-0.004477242205205422,-0.011372258386459425,-0.003090436727666742,0.0009778377581919722,0.0013263622471703543
0.0008452782176005166,0.004241232418331511,0.006558372577655665,-0.009957359146015933,0.010862455746662624,0.004433936545692942,0.002333197116395753
-0.00311289013835973,0.013202059211471943,-0.003137969453785446,-0.005308411006857781,0.003008978149959448,0.007485894446139348,0.004019227037561622
-0.005063215807932539,0.007690865567939634,-0.005837870485271166,-0.0024533838637576908,-0.004896957389395791,-0.0125377762240817,0.007022625093301834
0.0036290816813921924,0.007019238727678574,0.0035309276376384764,-0.004705408446183886,-0.0004376733838349353,-0.0059986047150484305,0.004599022769838839
-0.0003459869889858186,0.007124684560238015,0.010887066771883985,-0.013159770464247832,0.005336546324396288,0.01568524670909119,0.00884184118487094
0.006036040740893401,0.009651349904050106,-0.009052717005125974,-0.0005979513531493681,-0.004679677957941747,0.003357617794136038,-0.00960917540311436
0.0007464783990239566,-0.001788344496964665,-0.005705471660778609,-0.006080337124654865,-0.001953908163567287,-0.0021708559592659325,0.0071789482067048166
0.007072111261118625,0.013543851486281712,0.001613847134479082,-0.008795835301461769,0.0007491409784385208,0.0010176869445746345,-0.006280333588683676
-0.0038293558053599528,0.007684850888673872,-0.0021019996959302737,0.0023627687639011393,-7.868993751820511e-06,0.0039251244552634505,0.00030312290668186974
0.0071883650746629914,-0.0006231432052084115,-0.013531148142925832,-0.007933485435982638,-0.0006372644761942755,-0.006213284764521897,-0.00022038059357050194
-0.002701734698054513,0.006367921405097906,-0.004563758200188004,-0.007956621219547742,0.005882322752330192,0.011363464405125612,-0.004787847017066421
-0.0026376256751275717,0.005170333486591546,0.005445643647185128,-0.0011735768506463513,-0.0031467709813514004,0.01086216129607637,-0.004349325172892777
-0.006143208162635952,0.008865063120641664,0.004792016349224548,-0.005938113786389456,0.005466125602024974,-0.0019614831828044603,-0.007372597632132937
-0.0043277242367930355,0.006959666440202213,0.004985028386077378,0.0009784175396620228,0.0015604180964475074,-0.003822194130577416,0.004251892798567452
-0.005056969112263632,0.005409701638000551,0.005908019375655547,-0.003896547794913797,-0.003565266701552091,0.007417195597694667,-0.001306475262306156
-0.00492286266320809,0.01199293257275625,0.005208803185290488,-0.00715666626971067,-4.2579034130064064e-05,0.0009442280396887233,0.005634418925382539
-0.00245867848072043,0.004343374988925251,0.008465610639809362,-0.012131816891680533,0.006174422282763269,-0.0036914186170738006,-6.452725917265734e-05
0.0029061853140722833,-0.002275967937527029,-0.0027308132354892777,-0.007769580070473594,-0.0018194027116678023,-5.6909606118400974e-05,0.003467028329854743
-0.007696588901794355,0.0026018649001735604,0.00025473000333363176,-0.012558903130269842,0.009857412512432337,0.0018894076919190586,0.00275122496173411
-0.000823454568091105,-0.002555410780983263,0.0021893526862058095,-0.008580129543153788,-0.0018907686732142987,0.005817788359422663,0.0010874378192152064
2.755671638591888e-05,0.0009986297680007856,-0.003086980917984119,0.006190710334830876,0.005670331542068178,0.006478945583247931,0.0006327861098026332
0.003095659506400053,-0.005824449831074501,0.0002704612387198619,-0.006932376272676602,0.007621894081034205,-0.003978656101744571,-0.0010255047151239095
-0.005662462964713317,0.0006923512485526379,0.00040933518303371377,-0.00721999410442884,0.004264411926361738,0.007120120503353734,0.006724412713425143
-0.003461436765539468,0.0016456983078193652,-0.007974612777563372,-0.010142233762776499,-0.005642879488736389,-0.00014421080771483792,-0.008284451411726209
0.00322742135193995,0.006305108715151605,0.003541136180329646,-0.009081490035811655,1.1157085660855608e-05,0.004952228706174825,-0.004080603367592357
0.007000347848192816,0.0015571718320414546,0.0044987568112893495,0.0028961304455525074,-0.003328334798555037,0.006775450703766015,0.0049654172757101515
0.006171560054241776,0.0022006614681354575,0.005172427597190084,0.0027510322649967993,0.004115625650428931,0.004283313282913627,0.00025928641446893135
-0.0028943021317867,0.001204723892551865,-0.007050808605313655,-0.0052515252185268745,0.0017696602840243747,0.004778135274808436,0.004610569127312266
-0.00046404048798248237,0.012329825049659184,0.0005893754445039162,-0.006977869504317611,-0.009086865501687897,0.0006296080281130855,-0.0022411018833571666
-0.002017721316674107,0.00970234985294112,0.0021560627673872824,-0.009791239515256718,-0.003977033498438151,0.0005671845399914635,-0.008539128492799425
0.008310171388917532,0.003096682978273388,0.0080300192552109,-0.005538420316857686,0.011994426847438991,-0.004892290370539497,-0.0011542718997658342
0.0020307075961908776,0.010427930742768914,-0.0051227579515637665,-0.008346462812927937,0.004847714815156041,0.002723610682010322,-0.003043965566363121
0.0026133031479595153,-0.0006260441547646935,0.004660263393715026,-0.00844091556076368,-0.00548185511129493,0.0016087545447816963,-0.0007377258913206498
0.006826167294557913,0.012167819024619544,-0.007742068058207837,-0.014067991697410093,-0.005916009785016942,0.0001881414306211045,0.0007185024040040761
0.003560067653641356,0.005212698868448689,0.001803111882706493,-0.015363487454402313,-0.0005556157282020928,-0.0014526701498977176,0.007684834579372257
0.004464755833268675,0.0004061964388399099,-0.0025718688665856432,-0.0039016062127143984,0.002743843621536222,-0.004029087846555424,-0.0034629040515602692
-0.00931753783739165,0.01083699213473173,0.0009531315832411266,0.00019208593531036582,-0.00016459803624360817,-0.0008914076279750156,-0.0032730883451217037
-0.0012571609199079675,-0.001817706499769116,0.0024135332090057886,-0.008796905966499855,-0.004827698164466791,-0.001988323650092664,-0.0006770077662501093
-0.005604169021966743,0.01250916095640609,-0.00031719908126862567,-0.010795687024651715,-0.0018453955918403078,0.0028719987470863005,0.0008105845909430749
0.0028694432279422867,0.0004084790265342815,-0.008863728637379605,-0.007661363617471942,-0.00420449029951769,-0.005211481682930877,0.002253960696096305
0.006421517844846622,-0.0001601133733609713,-0.00041415680490115457,-0.0042114836139397665,0.00515305308557008,-0.0035391299346665,-0.004994542464676788
0.007414762367764209,-0.0035492459045253616,-0.010359133761732722,-0.0053397439730793715,0.0027090302963310164,0.003318726455474265,0.00047244836043930155
0.0019535177870201145,-0.0062282362245922865,0.004868961228430502,-0.0043186471960869905,0.0051296400925938245,-0.00848021182147166,0.0019429197509367394
0.005181971291273061,0.014597659901459278,-0.007348067937606804,0.0019174638297330003,-0.007334886802233673,-0.004179930856635662,-0.004182730859090162
0.0001577549497972734,0.004240884642929236,0.004315308210488055,-0.0014139029820849887,0.0028215015322247726,-0.006521895331317574,0.0010323202727789162
-0.006281582124681588,0.00045730810391391016,-0.01298746520566784,-0.0042769725779911085,-0.00328004063320024,0.000952203791744814,0.0032450995201021935
-0.002222272268940541,0.007808314492870459,0.002271471788654423,-0.008954821754860788,-0.007637337465167715,-0.0008396044278454961,-0.005494302018959504
0.006505432266996827,0.011075587541046213,0.006283842995177097,-0.010370249008280255,-0.008179086619023963,0.0002895002735075608,-0.0007124368946935672
0.004351307795635266,0.006114983659449239,0.001224779959135678,0.005075381264134487,-0.004892638811759093,0.0012752275830700114,0.0022355339098409583
0.00247593419705196,0.005955467728852657,-0.0004448126708545422,-0.0012577971708549068,-0.005163333150399136,0.0020574966074769956,0.000618600326535962
-0.0028267031436283656,0.005202780166048252,-0.0016447479295847386,-0.00404319007603532,-0.0008004846404706901,-0.0017513233229206468,3.8302092254563947e-05
0.00038326441686945684,0.013916445152347306,-0.004849586582294328,0.0035807227435915964,-0.01018573840688893,-0.00026359792276023575,-0.0020302896092984496
0.00544948158363004,0.0095836900139222,0.007639758547051699,-0.001651180590555489,0.0009391243253141225,0.004363156490539894,0.0027633506640670226
0.0014231469139246093,0.006461670427710802,-0.0028578976178551116,-0.005130465790150201,0.009554502858617038,0.00030366945816016097,-0.0019893061456120018
0.006725727284704338,0.013836855971057216,0.002984200143198609,-0.007730867175882975,-0.00037262117351082773,-0.003260184823680174,-0.005747604102135768
-0.004006636860644605,0.0052860519754468595,-0.004268084883746592,-0.003672181783311232,-0.01094423665781092,-0.0064336280554207845,-0.0016160358890417905
-0.002590665292253001,0.008066363331245453,-0.00031404737002115626,-0.003774471344159693,0.01068212821050657,-0.0034447884542086493,0.0008179920437183131
0.008082156962134875,-0.004172170212793107,0.005081710331555906,-0.006087201654753186,-0.010522464527956618,0.004154165265728128,-0.0009888206208022543
0.01786296795156354,0.006425752761967026,-0.008520674270717099,0.0014958920377648882,-0.0006900095273856316,0.002108814413829795,0.003695567645365878
-0.0003903932074630164,0.005570538774104717,-0.00346072483707956,-0.01424662220342673,0.009402710045985025,0.005682335426552236,-0.0045529674738075745
0.0009985328543397358,0.005001467549625891,0.00012038990066349215,-0.003678207153529694,0.0027098841888225605,-0.002565229128850905,-0.002246887115618891
-0.00356436439025278,-0.0011442769935981869,0.0022281611709698,-0.014398753949103438,-0.006941498623422868,-0.0036203681526361447,0.004359941117271066
0.0003673013424171175,0.000837677994415837,-0.006061835925330344,-0.01083367539978949,0.00023473031112735809,0.0074772295314945005,0.006489350976919479
-0.004997838566709538,-0.003331606315936144,-0.0013988178298973957,-0.005356375212281645,0.0014628387256526588,0.00380328804942371,0.0017999335766727149
-0.008703106774378645,0.005624141512287026,-0.003955410817540441,-0.0003024581807659644,0.00041075589820633316,0.0006410669733643945,-0.007519521464809482
-0.00965988222221313,-0.004981101906377001,0.0029451038091277792,-0.0006705155617339787,-0.008235408117593943,0.009044847202586956,-0.0020561336484083317
0.0018356850342818346,0.017376430644596045,0.002204685080329338,-0.005192508793081883,0.0016968936433495,-0.0032847934099583193,0.010829202042507443
0.0023705521678644903,0.0032507494143911657,-7.906518475601584e-05,-0.003540943000039401,0.004265599727895508,-0.011379832185789052,0.0009979252212460267
-0.0035879010314157486,0.008771650946555085,-0.0023152414365235647,-0.0006523327856892424,0.005813084991039176,0.011034020586217413,-0.0005214979438378588
-0.011225028840666939,0.00014811653649600946,0.0012345938253602092,-0.0025394890383515552,-0.004618981600953448,0.007159393359095013,-0.0011290876331111208
0.005437886849667693,0.0054098403386228944,-0.00548938516889323,0.0006813171665715536,0.000654706146976732,0.01386157220064514,-0.00022224761398642525
0.00259100438539254,0.012519880052551639,0.007198802755956163,-0.0038169465213048572,0.002614417768645336,-0.0027761613408477663,0.00354563319770927
0.0008394590638290846,0.004457241312054555,0.00037470804774239615,-0.0014399174951210182,-0.008312762965141886,0.0034050069429262327,0.0032910308680802964
-0.0012393445965829886,-0.00015208237187523622,0.0034880069287222385,-0.006652433539888617,-6.340170184790999e-05,-0.00266939804097926,-0.007197858929228035
-0.008552291362352017,0.004204643129677673,-0.002802149184304214,-0.016146375205772976,-0.004335024243108018,0.0006608313825165545,-0.008492751087414496
-0.002493075449719522,4.0453807680045594e-05,-0.0031561179698738713,0.00020317180956840595,-0.006913399881088835,0.002516718247004611,-0.0012476522775208888
0.0002685795623678637,0.006254469309299864,-0.007973440445229933,-0.0024241607162119316,-0.0009047499817922042,0.00431635439680268,-0.0003717213864478186
-0.007199606567178659,0.002783099374536986,-0.010122375554004942,-0.005690010574076433,0.003993015661761442,0.0014614666227345838,-0.0012502181524222224
0.0028775961017898227,0.0018474921538067968,-0.0037827350450327746,-0.00898318363524853,-0.003014582841949695,0.004627364930960606,0.005479563124575311
0.005381685142549368,0.01991108870558043,0.0024393218920948775,-0.003180162886589625,0.015618026863569378,-0.0025448911920741436,0.0003729468313985386
-0.0012067532832637584,0.009142316083100616,0.0003562251418172583,-0.010515929029110915,0.0016590932395559271,-0.0031518014083366246,-0.0014996364498962849
-0.005320811122334472,0.00718399895201307,0.009113681104254883,-0.004023058275655807,-0.008941021712627228,-0.002962519262295252,-0.001091707057156477
0.0018986144174990701,-0.0030138392525980383,0.00024683880316144413,-0.003854862399490259,0.0015107372009185128,-0.00837100788023301,0.00643762441948782
-0.009353258676307326,0.0110671817298468,0.005394485061838837,-0.0027221068012893137,0.005062167787424502,0.0040046646239652916,0.005526774368707081
-0.0005560563320703267,0.00442492864931005,0.006475814778095795,-0.004782872439839984,-0.001401589751008255,-0.003405002416889072,0.0052597638917367
9.945344585396518e-05,-0.0030537966243781006,0.0016129404613976772,-0.0084978620334327,-0.011577059011854391,-0.0074337231849621556,-0.005138001479874887
0.001943609034539219,0.00459663138838205,-0.0035018450949022366,-0.00836573222571413,0.006837056102611841,-0.00826728118979525,-0.008770667925304964
-0.0008567923720496742,-0.0027622556684111102,0.005546537098766645,0.00179995272533604,0.0013909221419651236,-0.003126344341690171,-0.010205032770667572
-0.0002749025285444268,-0.005054235854894212,-0.005803483970955421,-0.003118260284219493,-0.0008376409105380624,0.0038445687057587345,-0.001616176866304655
-0.0022989948104782,0.013148635409414196,0.0055718669150017445,-0.00883672644628806,-0.0029274181050162316,0.0025938522937818754,-0.00048626125207172903
0.002963701702464258,-0.00105553552108908,-0.003157527236938828,-0.005521117723328911,6.75049784937726e-05,0.004460412202738079,0.005635907615649961
-0.0038825311773850206,0.012973314929938893,0.012082748794799866,-0.01663606790639258,-0.0008487569007340328,0.0034484809689718635,0.00404631590366707
-0.002690559503736957,0.01328788151217889,-0.00362226889142599,0.0025956378606119897,0.0019122000210118014,-0.004468117874278377,-0.002656811319394251
-0.002933589875940521,0.007712072826999465,-0.0002739927357768446,-0.0012648956778309756,-0.0033514089249876925,0.008827943418279683,0.005790476639317011
-0.0014706426228003095,0.0062929001832893825,-0.010107743966679924,-0.01596268024871739,-0.0020432677760569102,0.004465001590935976,0.002555018327458334
0.003932962008006876,0.008392845667557058,0.0014033816782103477,-0.0008759053735670834,-0.002511577939297744,0.004861126341946102,0.0030858456725835004
0.0053126325318229,0.0011285809017720588,-0.008266412634475624,-0.0017829151594072673,-0.008005983836197831,0.004589802059981033,0.012064151448121238
0.0018217260854212062,0.007472415037449073,-0.009211048817492924,-0.013088016881585588,0.002190220048017833,0.005561048178900235,0.0048789941004782475
0.0016748519292668939,0.0005737058320014058,-0.0011779855966233413,-0.009479506608280314,-0.0002587725737185673,0.010915585538024901,0.0029606446554478875
0.005086706967068257,0.010008392345761187,0.007598385257442744,-0.007990034954254864,-0.0007236214267856575,-0.00039222922394762283,-0.009938898888216354
0.006349172713538824,0.007076992974655772,-0.00035016935785329225,-0.0022272379573946995,0.0029596953792007355,-0.0011489997607235485,-0.0012624258563716554
0.007198874928526323,0.006280445199024812,0.001833296523654762,-0.009060485653374861,-0.0037837746252507303,0.006101623668404411,-0.006786432774623575
-0.00015420559124692103,0.003597753793316079,-0.0026709722434777898,-0.009794485617518214,0.004676230357022586,-0.002519416212211482,0.00392657417473284
0.008031957211983345,0.011314535742917877,0.0007563004867417946,-0.004463706793001223,0.004311354244454065,0.0016704129416718737,-0.010871113877843312
0.010174341105909555,0.007907899025082397,0.0005330725589886268,0.0023375996416079253,-0.006559765497212525,0.00599588744384918,-0.0037039596468646284
0.002567176823787289,-0.00044175961328524183,0.0030307940294976676,-0.004042335469027906,-0.00041505433725142317,0.001247709741632696,-0.0025342339894935955
-0.000772329177637871,-0.006309237659409718,0.0012024078048063535,-0.002043016377717328,0.008322990350238483,0.002641898971556969,0.004037077398148007
-0.005299813229304951,0.011168049811808575,0.0040136689830775375,-0.011220688862566025,0.0027896037144478944,-0.001401982911925519,9.028180880451533e-05
-0.004546562647567496,-0.002303171322196329,-0.009229848040352899,-0.002332001332405793,-0.003392341409623798,-0.004077604532807454,0.002803664228045551
0.0004259171081005532,-0.002665900448628309,-0.003643102365608403,-0.0022660737607800847,0.005618139032300526,-0.0013092998313968451,0.003480128943626234
-0.00022697949767933956,0.006336959342049112,-0.0017210750056719864,-0.0051132069535131325,0.0027242584790042514,-0.0005830504083788041,0.0061251398081828435
0.001115019077663692,-0.0034697063247195225,-0.010012512300830369,-0.003563185676661646,-0.0005952370293493106,0.009660481962048374,-0.004840763661043277
0.011949460967487873,0.012466483250237852,-0.0029156687336450316,-0.009978185288760696,0.0050844518442489115,0.001029312870217769,-0.011120515289129914
0.0020915932501385528,-0.002181569540855693,0.0072324028348293955,-0.007682923214838778,0.004118323743108239,-0.00587395660476577,-0.002471867658546482
-0.005548313450731051,0.006058953273407354,0.003643654512997512,0.00015674566109772487,0.004768102662652519,-0.0029081899332782904,0.0027778885274967954
0.003578031846707854,0.00415193829258686,0.012448216049819862,-0.008501735460475102,-0.00045734390745972285,-0.003776158070462957,-0.01067264626908031
-0.005657893039796282,0.00781100508134163,0.009143804675394608,-0.0028521910037508117,0.00864247507957445,0.005585405460747673,0.0038384254602890793
0.004552651258245402,-0.0008497300089758868,-0.006905931925978735,-0.00022696743868929665,0.0007531748140791151,0.006488606199562032,0.0005070216745081706
0.009301484266649269,0.009476434778581766,0.0009381142336272851,-0.007930551859604128,-0.006949620381048512,-0.003201942862018474,0.00076762721245583
0.0071593805913636455,0.0012966092052237007,0.0042852619787200116,0.0018938796353295006,-0.004632732464338228,0.0032030886271558587,-0.00010831999708741302
0.013562002673280837,-0.0008123114284313478,-0.0011525842757570664,-0.005555369842321963,0.010692395599288128,-0.005482035762770875,6.275617823869764e-05
0.005243671851094704,0.011011706837243278,0.0054459176454874,0.0018442639178101355,-0.005799447240318471,0.0006405998334935393,-0.0012228846509427947
-0.0030807669137844986,0.0033693547783893918,-0.003299771671379924,-0.007683232837616109,-0.00764333552350076,-0.0077361182885317134,-0.003851325106827577
0.00011734026402981477,0.00443728065885965,0.012402134254177171,-0.0026913676702821575,0.0037724634078708567,0.0009933313035178082,-0.0030192300374392474
-6.0369771426925165e-05,0.003695516157803678,-0.004833204292908578,-0.0007039168985142267,0.00945716134636147,-0.007708236390568304,0.0034004654031786286
0.0018977699648878626,0.0008802592032832871,-0.002321020511194948,0.003298267047871853,-0.0029811177748397763,0.0024839745776755713,-0.004205630519279939
0.006619072967256334,0.014186091427060002,0.005608548227769101,-0.008980863105477433,-0.006944116020762339,0.00620413706832867,-0.005345115311900647
0.0073209612733202405,0.004267079774442231,-0.0038540601651756126,-0.005473192320949793,-0.005894320632090596,-0.011740200050123748,0.0032943680795411647
0.009915320624544269,-0.0036422880568892997,0.0030358914652137753,-0.009955636529152495,-0.004217298056538234,0.001781811367849367,-0.0029604379677519678
-0.015326004495923456,0.011216900025645125,-0.0034510316092104558,0.0004705981995925193,-0.00011070342093296012,0.004661724226400729,-0.004377033194794517
-0.004880224689293771,0.00630461658876585,-0.001078037330306282,-0.008348584202346639,0.004809937215970589,-0.004130477149738976,0.002418500061255427
-0.00586523085386071,0.01551472573243992,0.011605897598511107,-0.0027710940724846047,-0.00804707121332139,-0.005882266503546078,0.0006996680902718105
0.0013623174942884331,0.016895728548108512,0.009377250796174214,0.004848860498086798,0.005219570823492877,0.0030246884777310246,0.01159168325780689
0.005301803950666495,0.0028482192795325142,-4.776298734993843e-05,-0.0051600707131835765,-0.0005373031340633844,-0.0074127228620857475,-0.00011368975083362088
-0.014112960912653405,-0.008219721356586548,0.0022999275419184027,-0.0030472467523320807,0.0010067648232437664,0.001059794891939863,0.0007653155080525903
-0.0010457760545285692,0.011976001122891987,-0.002786019881043396,-0.0031458974124300965,0.0026576789639438337,-0.0014054923173361445,0.0037568800774970454
0.0027895942356850317,0.014476455229886272,0.0020378881401495502,-0.009540423937072575,-0.007170812049116453,-0.011981687464979941,-2.968480121004933e-05
0.00806513854881213,0.005146907998454025,0.0005919378943092812,-0.0030937318126983983,-0.0005532534820801372,0.0035334956125471296,0.004864872828255821
-0.008247001206478864,0.01660830330327834,-0.00881581987996112,-0.00033801957908687107,0.004100189209625552,0.0019996349492779433,-0.005708030088636193
0.003936041197724298,0.0061123575171222995,0.002131239023044368,-0.01227294741516359,0.004546665453331495,-0.006120537377206379,-0.002878642259681252
-0.00016514464206006336,-0.002843957221081651,-0.005621815629058242,-0.012576291498304703,0.01230612458582054,0.003192406540580111,-0.002801777680902647
0.0054201263854226816,0.004993897839258885,-0.0006485323542869974,-0.0064971976612654345,0.00242527502915265,-0.004389019723488568,0.00022837607984639195
-0.00620886263241005,0.012825703475769182,-0.003701854194273917,-0.005634366335061794,-0.0022025497357812188,0.004832408644322543,0.0021654275523491076
-0.008388411073396525,0.004254450211947545,-0.0019842927655793706,-0.011730377199843055,-0.0022686009638699855,-0.0017540284140944828,0.00715168426066521
0.004982827562723579,0.0037315007689094353,0.002656527932940872,-0.0074595113775215134,-0.009742523775780556,0.009200421761286428,0.0021036886867154135
-0.0051581499581477295,0.0056375301146230315,-0.0035177135511660945,-0.00039022315452681645,0.008134968214494685,0.002869431741956648,0.006321207579471291
0.0038984893441435624,0.012105983241713351,0.00591599284489704,-0.010635370044426952,0.005859805842152746,0.005599012483066207,0.005784380111263407
0.0023203307708849407,0.009011412328855562,0.002873215918481658,-0.0033842439276015575,0.005738926108034492,0.008068811294895329,0.002483148091917834
0.005410343007976361,0.009546896862611341,0.0013155646134322052,-0.0009525086757549706,-0.006669312216295894,0.0031463275880946025,0.0014596464859421663
-0.0006871525881268282,0.011077646987338237,-0.009477006437651536,-0.006828629994982832,-0.003214949483711391,-0.0020152113980561443,0.0027295465219857496
0.004161210630104418,0.0036041546021667583,0.00010861598521697143,-0.003449964279419713,0.006627339053301153,0.0025065908434526423,-0.00044111736333387415
0.0009147970307436647,0.008858616236290577,-0.0035864636397955796,-0.010018578799203929,-0.002477545825622194,-0.006733990358417897,-0.0008612773975436484
0.000579004113806883,0.008180316537081428,0.0031251687778018327,-0.009432042476928968,-0.004932674985985567,0.002936912275818643,0.007575245254772999
0.000594342768139675,0.00548361749888778,0.008892541945759317,-0.006782153732793776,-0.002446456327132535,-0.001600862771119221,-0.00013805022790574166
-0.0044278229641853805,0.005108873886254037,0.0019160724586837522,0.0018673005672271187,-0.005239021370498005,0.0049256410665750264,-0.00021192302353852474
0.0027729657223053666,0.0033016449722529035,0.0073018441860025225,-4.612345997251116e-05,0.007014694879822627,0.007599170639100532,-0.008945381526866305
0.003281615842974424,0.001503099702173349,0.00286828876131019,-0.012885827369134122,0.005042074638510121,0.007986630288039333,0.0013470965887092722
0.0009074619246455545,-0.0004747349125409531,-0.0014823273808601742,0.0026900659481378262,-0.005263756907433684,0.005843221126041187,-0.0018325219841668482
0.0032737632698047908,0.010106611215329821,-0.0025469852522664984,-0.0018405179287900105,0.0019523338278258915,-0.0028561183782981805,0.00550656800193717
-0.0034181083468759537,0.00020106081242177108,-0.00033139208503205194,-0.0011983481675814456,-0.0135711388696237,-0.007483508465992925,-0.0027381269301918064
0.0026766112252938814,-0.00236535951359895,0.004969137724487887,0.005634010583382183,-0.0030475311824955643,-0.001912738965339948,0.001560700635792478
0.00873522496504495,0.007599644076117232,-0.006381466446599853,-0.004580337928789124,-0.00702030258713573,0.004121573324254059,-0.00593166843720414
-0.0071215379033736665,0.009612373221477184,0.003965291557413104,-0.013286844258974638,0.00027553868795474046,-0.00021184989026020782,0.00724490551560473
0.0017081555699758485,0.0014610339736696265,-0.0017968277142428515,-0.0013949882213030351,0.0014582873498631699,0.01431745009050005,-0.005496225276288952
0.00036431824778181067,0.0004133843130929431,-0.0011405596924807233,0.003755427355512133,0.0016565632502022654,-0.003937472650810177,0.000732032786456521
0.008255770676707616,0.00652211768155701,-0.0009442869445050689,-0.007599498935559652,-0.0034039748873695634,-0.0027528726359556483,0.005444950284429621
-0.0036945101837635966,0.0034625653125464305,-0.007581998636482982,-0.0044530998862465695,-0.0032879256129474377,0.005495572888180542,0.0027145815450916218
-0.0013845023024101411,0.011633476278214762,0.0032135417760234598,-0.011625620730976012,-0.00360652121267211,0.0015254202492319983,0.0003981114185893495
7.175712603677453e-05,0.0016463515116873601,-0.0015098829437402382,-0.008560405196541913,-0.008586084929592855,0.0051587245562500945,-0.00593506665762464
-0.002293678179678081,0.014701123957882022,-0.010351286543786295,-0.006707562264134987,0.0035443662586061167,-0.002148535705946797,0.007452763761966998
-0.0019884805079811874,0.00721236249052717,-0.00411607074515834,-0.013252801471291167,0.004080880664024043,-0.001897740295923906,-0.0027453251187710215
0.002864376470921148,-0.0012432332963974522,0.009842856791666126,-0.012392551993547782,-0.0032844180116451925,-0.01077403493536226,-0.0010026778807538182
0.0067597896343028225,0.003830804258949008,0.0007988991239442589,-0.010621859490846814,0.004352167602797675,0.0004966891724254429,-0.0030831513437479478
0.0011068534537324712,0.006291571474397827,-0.002614298191599238,-0.010399340331312007,-0.0023458839890572515,-0.0013909716196581158,0.0016551512692393009
0.010305357877629465,0.002079779419818485,-0.004903904933704611,-0.0038597679851287816,0.003936987992811285,-0.00027055690036440773,-0.007085162579931671
0.004784846300270956,0.006948702618889471,0.002574927103336311,-0.01151314996868093,0.0009614895602697289,-0.009218899334595378,0.0032456366920781254
0.006334854917606715,0.00957738297649043,0.002972396672805481,-0.008551185867059927,-0.0005170866590324251,0.0031658871523209927,0.002186117646909879
0.0021959342435450024,0.010565985252245984,-0.002389029453266205,-0.011986179570455524,0.0011337866880228743,0.0011102767324648428,0.002125903016022802
0.0009375231766228064,0.005841607246275067,0.002019263689908106,-0.00980097438827652,0.004198332933841735,-0.0011977806960611146,-0.0033591837048662426
0.0010207576095318713,0.018448524717892746,-0.003470333494797763,-0.006946162351579834,-0.0029339421286343026,0.004766540833210737,0.0018185310131046523
-0.011110114199063192,0.00869502433619456,0.005349608355640197,-0.004605054761442038,-0.009315621654161794,-0.002952479676479237,0.0006177125379924774
-0.005281512907382152,0.00110494206023308,0.0015906022009651538,-0.007361583284328734,0.00503121101928676,0.001839874459131283,-0.007217759762960401
0.0014832706333124356,0.003157684377328108,0.0038875871568093633,-0.008209615180406566,-0.005117008940709426,-0.001893930080828096,-0.003920615606578491
-0.0013925328120718053,0.008669360160724393,0.003465637679634123,-0.008772288563963315,-0.0056862398496206985,-0.0015123160157384506,0.009343597610604663
0.002164676511790685,0.0029417883811997626,-0.009284469651953304,0.0010218102683240396,-0.004021486359010975,-0.0032659683309389544,-0.00044821277032149157
-0.004894766176980669,0.0020032824234531414,-0.007731265031126292,-0.002141731857380088,-0.0002320539131746987,-0.0004419990085665304,-0.006409948669174652
0.0026022653777398198,0.010974695010733846,3.237346529526015e-05,-0.006790133585140519,0.005895872668208294,0.01097806995002266,-0.006421388774026803
0.0023822615292809954,0.0037931535337327486,0.001376948297586028,-0.004756013223166564,0.0024818902550945627,0.00206068825048191,0.003790209078960269
0.0013313382099300417,-0.006244708956031976,0.008242635327960867,0.0015430271695000574,0.002953246913634367,-0.009316517085429112,-0.0027884505754740036
0.0013337270724382698,0.006465192838408744,0.001567736297466936,-0.007063814214177726,-0.00038394921156448573,0.0023008271064375706,0.0020226343780344034
-0.003655459772995169,0.01212570903730026,-0.0024930407965952166,-0.0017192758900385278,0.002921876654602474,0.0001876882923418043,-0.006105723723122521
-0.003952196907183532,0.007815410503893463,0.002269708352391543,-0.010148909219850956,-0.0038610413651559623,0.003921344947328611,0.003094535737851454
-0.005609946665307193,-0.00044490262863588104,0.001051467802857988,-0.001917188122808056,-0.003804697087574836,0.003081928452980582,-0.004331098591860891
-0.0017029909076014186,0.004457438811190414,0.0028396206254110035,-0.0051380961996629025,-0.002620647795498312,0.002336625480019167,0.0004793105964398553
0.0047918475757922395,0.005597994669966995,-0.003586736019245774,-0.0012962794607440681,0.0035756790783268025,0.009096949807785564,0.005745094241636766
0.00558112340000571,0.008575483117647845,-0.002930704006343273,0.0023441350708784453,0.007509549170168701,0.006783359748822471,-0.0033786229910864525
0.00897868421719227,0.008083659808994469,-0.0023744317493649644,0.0034598885702232705,0.002319665756632347,-0.000846653915946993,-0.0014766465220282569
0.0043176845331105,-0.0034968089043313764,0.00758220786376878,-0.010454615273859155,0.011647704212464832,0.0059108356036954,-0.007639795572918943
0.007668890327663441,0.0039646745748959785,0.008612633709948645,-0.01472190666941232,-0.0005306266502091987,0.004530008526335,0.008789193453138578
-0.00483310891250307,0.006028080816255617,0.003078367154415395,0.0013135332402999392,-0.004857197372091362,-0.002944642133151727,0.004349734505365799
-0.00834220696114937,0.0029338621254272708,0.002372130490377254,-0.0020573017421534005,0.006188812333341481,0.0013403583649186294,-0.0038884073709345556
0.0011044014027509022,0.0008955417240023703,-0.009082413503040178,-0.007662172158237562,-0.0027722090313528147,0.003707948504447887,-0.003088984278015933
0.005832539335221187,-0.008027085928021909,-0.00021009233932025773,-0.008796438717567691,-0.0011222571567729921,0.0020151829672450734,0.0019057134092418603
-0.00046650403990846,0.002939651646931363,0.010283505349093603,-0.008241020651412488,0.002898531680187066,0.002234908974733171,-0.003016384478766857
0.004191595280692421,0.011916313951009219,-0.006382864825227948,-0.005994108279712044,-0.002009926321717494,0.00011794071773638993,-0.0019199529146774147
-0.0010434058256249298,0.002696081089389654,0.003139558753756066,0.0002608298139907466,0.0028578932827761755,0.004439985084271111,0.005843941704691356
-0.0039660811863459575,0.007142907815377565,-0.014206150545264563,-0.002881271025723409,-0.003223518919022581,-0.0042643045065312015,0.007527667185953508
-0.003507490684254479,0.00720530615200667,0.005376906812382605,-0.003713615444174933,0.007275881934935972,-0.006416351517933856,0.0026672996684081627
-0.003922380436217137,0.0036571815268463276,-0.0037734963139207916,0.00556657479232192,-0.007413400877713508,0.008378627262950225,-0.0005601109385885853
-0.000897961806310583,0.0029095649934388515,-0.006227362094443983,-0.0050376441627908814,-0.002957760773855838,-0.0005963330169068627,0.00463407359853225
0.007055125875546321,0.0007347776521522778,0.0031802328856423297,-0.0045500685695844005,-0.0018944689595097788,-0.004775028874171037,0.002290481782072108
0.0033095656686109136,9.423671608984646e-05,0.006488174850745518,-0.0011101428186650912,0.004628163610057858,0.0031981442565437884,-0.014090499514757998
-0.0035008855021273185,0.010457216317224323,-0.00020926416296396244,-0.012694483711781333,0.006298054066556943,-0.010521792300633073,0.0010252197789534503
-0.007047310531028902,0.003541283272962055,-0.0051377739199047956,0.004303961647024508,0.0029040599485391496,0.0008996513490255341,-0.004019816836488939
0.001901471395420574,0.010252290725736805,-0.007101548803579888,0.0033581013086903724,-0.008533231780823623,-0.004145576860794068,-0.0031133483661814317
0.0027021702331427215,0.009534696448960782,5.676220250478022e-05,-0.008528373223925764,-0.001422884896219294,0.0008257792515892883,-0.00532373299231295
-0.002631446615036925,0.0012595025878185942,-0.0009029105179177058,-0.007301824340979021,-0.0007100219742427456,0.0032011453012452612,-0.004386124407309043
-0.005279485908355898,0.017866872839479984,-0.0023411844943520763,-0.0021033758875106893,-0.01031099261026028,-0.006494946285804016,0.0029446547120413197
-0.004654965044587233,0.010396354169115668,0.0010535339686352826,-0.0028916759466648583,0.003597423678015906,2.0933607811675012e-05,0.004030078340436901
0.00999062911463681,0.011709487889382541,-0.007364101167226086,-0.006686111352805858,-0.01212834908737094,-0.0028937497434094526,-0.000919243550404439
-0.003891096337740644,0.013984462176639942,0.004342313097516235,-0.011758233528474379,-0.002520223088259958,0.0034330863243077388,-0.003929910666455684
0.002839405386933375,0.0013660389010367174,-0.001630979183627852,-0.00582729184815231,0.010952408538509985,-0.0049085808509341765,0.0028419294530233406
0.001738469000073704,0.0031626344494995154,-0.0010615394888623553,0.0005278419561690038,0.0015075144140372296,-0.00836522267648411,0.0018646295219279154
0.008291864801171186,0.014659723081727163,-0.005676991501638208,-0.008316977599660144,-0.004360308380237363,0.0006839095739085195,-0.002975040404281667
-0.005174702573707422,0.006122369544706556,0.0024310838394913234,-0.006857842248224423,-0.0034823474172170276,0.004488567103691544,0.0002040933434037793
0.0036598389482798695,0.002787863316789717,0.0015043021932062187,-0.006571800017669141,0.006764298376747834,-6.607653283001429e-05,-0.002077929941670822
0.006719228252418222,0.010094591128438756,-0.00153601688592991,-0.009950085594795901,-0.0007976593958360735,0.0028453106285248587,0.00024807053384997776
0.003885282724660239,0.010077705285007565,0.0005636392333174215,0.0029201120501204897,-0.004324924937981411,-0.004908703295259579,-0.005478913600888982
-0.0004094215539252727,0.0043929369561639085,0.006654972624910159,-0.004748669930023415,-0.004854280267987298,-0.0069990521287455025,-0.0011399349430121447
0.00234122726999921,0.010281184193438259,-0.005824617866844,-0.010061178755134863,0.004819281136490313,0.001165217126307399,0.0027421740194728873
0.0009219932932747702,0.0067541809973789045,-0.004010817050357632,-0.005817240388752041,0.00465368376593506,0.0017479538722090457,0.001769191879401152
5.353519648599323e-05,0.001657680648658809,0.001389826685439089,-0.010506559215398305,0.0073858728830764895,0.01453509651959994,-0.0012307894160758603
-0.004472105249068506,0.006546860054000947,0.003917193616383431,-0.003006938331824847,0.00071726545665647,0.0069052856884928415,-0.008135509641717985
-0.005355108373972803,0.004329347674259804,0.003839709955402762,0.0011573864876821068,-0.0017325497274656312,0.004546397521639602,-0.0026585319639608937
0.0021808070620952754,-0.0006608491929486107,-0.0013039914822746059,-0.008578870322276375,-0.0028944076845617587,-0.0033915667594095872,0.0015592228280352969
0.006508901405602809,0.0019867192861082643,0.006432920287187646,-0.005579587697327093,0.0058960306617589185,0.009786377216113256,-0.0012540449956845593
-0.0005707182376357451,0.00544249090428127,-0.0024889761181089327,-0.0038470134218219444,-0.006511750416133884,0.0022806102585154033,0.004419889223846533
0.0036532981758585744,0.003102391878336286,-0.004507828065311383,-0.007660185243545814,0.008173074880627284,0.004742710233888676,0.0021153775249008492
-0.0009280590648633465,0.010709156128191483,0.004580475646332987,-0.007932149271971776,0.006316066816848797,0.010819356480072618,0.003118410865575067
0.0022895206728326396,0.013064747916735373,-0.011107777280024034,-0.0067006153296366375,0.009047982734708894,-0.002977396953966568,-0.0016733338841190342
0.005146936506950109,0.0030992224493985657,-0.002736203019693857,-0.011554684592115977,-0.011590161978002864,0.0006151534342829991,-0.0011080363641571165
-0.004698232467863635,0.011368706622012227,-0.004512004484295807,0.001403020909212697,-0.00029524095667328416,0.0011927389038409503,0.008154080819649273
0.0002536440054237673,0.008962507971470652,0.0007317090342519161,-0.003182725262662496,-0.0014474370325064875,-9.435480334862628e-05,-0.0029104546618351716
0.0005433434647662685,0.002481116742830579,0.0013081972535917562,-0.014735487265746021,-0.0033348395594684256,-0.005380869627591622,0.0008592474286540193
0.003273648539038585,0.0013043485218870905,-0.0042771204771331044,-0.010508462025314825,-0.002712149302247282,0.0023563821925310807,-0.0005412080574799592
0.012740687067443296,0.0059668292549728994,0.0024935838538740762,7.446462797317129e-05,0.004996315878883623,0.0021329130664648694,0.001765123089528849
0.0023885539751810434,0.004637574011780315,-0.003919921997387308,0.000540254195747121,-0.0019369648727561052,0.013022125936549344,-0.00319055056630414
-0.00025165436396655137,0.006164696811890132,3.483408363506868e-05,-0.0033762225941063916,-0.0053442292472430245,-0.0025613248404162564,0.003180958154287759
-0.011688230700912293,0.013512696463152495,0.0012066802623534232,-0.00378761437509095,0.0019182977572840616,0.004549418517044622,-0.0035217579975115403
0.00921806022286407,0.005069511409327934,0.001834248002478855,-0.007368344442519172,0.0062088231866683765,0.0023340849377635133,0.009283769087257204
0.002217445026645255,0.007118631805981248,0.0026249758014377554,-0.00046280253857496436,0.008695898622839465,0.0026568813306159646,0.0073561076724353225
-0.005256602988465637,0.007912083674090664,-0.007410051596138813,-0.003591185023605286,0.006684161170415069,0.0006627619413589585,0.0046408061882726075
-0.003925531201604164,-0.0004938670990369605,-0.005436464013825899,0.0034514992216300236,0.01057619694654134,-0.003152273481577053,0.004790970402402809
0.0038858385619799088,0.008150671038978305,0.0037972622532606,-0.010155209208002109,0.0004140175346083199,0.005060118424349865,0.0054127045669449605
-0.0020627890179240596,0.00030328154077702106,-0.0010012731302219127,-0.004553863508445163,0.003055310583914494,-0.005045901293855356,-0.003462232320547015
-0.0001849851469762649,-0.002117867571270634,-0.000222619081522263,-0.007390946158995974,0.0070108938703568316,0.0010259047661489258,-0.001785291679750512
0.0051289188987089255,0.014328861453737725,0.002210598914540237,-0.017933412321614505,0.00247392662297447,0.00742229163044178,-0.0005744532310533405
-0.003374426985829863,0.013865776635233761,0.0069589508071938025,-0.006475216926449428,0.005718073684289925,0.0006923725435352063,0.0023940798687842025
-0.007228065108521073,0.00669177153869776,0.007619841791829669,0.0011203074327941662,0.0014350119437319066,0.0044145958567608475,0.0004494192718855641
0.0004915346695292915,0.007378678483354176,-0.008978289701100027,-0.003719843968461801,-0.002174647810850063,0.001204663704787967,-0.0006187269048080309
-0.005060003023019527,0.009087128397739832,0.001345418313099514,0.008112515634090444,0.007932315411170884,-0.003917361736818541,0.011721519441424359
0.0007313346927292576,0.008812687222422571,0.0017158181611381575,-0.0012264257224907003,0.002962512117255763,-0.0022258135151858637,-0.00034819130623890335
0.004154149819345551,0.002675830751951577,-0.004259198565452446,-0.0021085356764034948,0.000648372103967163,0.009273654353699036,0.0010789220502995915
-0.0073513639905504555,0.008825685287686541,-0.0011548413883366523,-0.0021716960053595473,-0.0013113206087634736,0.005326587362502865,-0.013571755873666633
0.00436062183005956,-0.005819487320268436,0.0004270954772282472,0.004009636394235679,-0.00212119285085098,-0.010633015495035907,0.005610745082014319
-0.00044269143015430334,0.0006851739625465918,0.0008589951402930728,-0.0033198231602240857,0.0037192180156753706,-0.009103032101078186,0.0014162603364544929
0.008470903591012272,0.003891402631147108,0.002094749865725959,-0.009814605604557434,0.0019064820122610747,0.011342831811393476,-0.004129820734714826
0.0013330133199564616,0.007820457564583667,0.004992153929517459,0.0035766689499571198,-0.002031639984449161,-0.0008497869119293305,-0.0010115644075373766
0.002685164223209433,0.017008950396173773,0.00022278348020063628,-0.004194657411696105,-0.004048599341926145,0.0008578252621321388,-0.010485073953315828
-0.003510163065825344,0.000522547741156969,-0.005736453170338495,-0.001807526328207615,0.00550471213104966,-0.005293580713846682,-0.002316430623074716
0.005393682402122027,0.009941377921146867,0.002163862759518634,-0.01039835713249179,0.00514747530633452,-0.0011454195056903207,0.009110250507905348
-0.008747065443543802,0.010261613806540351,0.005500996456399701,-0.011161349291449336,-0.002282398429852139,0.005100817821025271,0.006685129507521056
-0.007117516027028005,0.007312062720782497,-0.0032036163023022057,-0.0015969361366246478,-0.003764657773108775,0.005151081666728899,-0.007155547770038616
0.0014443261621280043,0.008503364818763176,-0.00043696083443659243,-0.000761512847357898,-0.0019959501598200095,-0.0016783283459216591,0.003202061118295752
0.0020339193075556176,0.012741961995725089,-0.0019359601045879987,-0.009977560463031547,0.0009388400200678744,0.0021336115747763048,-0.005670625853833034
-0.0009236341281022467,-0.0016016900374827981,-0.0005207688424173996,-0.0075011802165001265,0.0012552298469953747,0.001153015662109559,0.0005656098938652173
0.004373721978009231,0.011681964020142733,-0.0021059050170410534,0.006790839302403062,-0.012907489111420497,-0.0025733942512530007,-0.0002915823430949057
0.003130965852658273,0.008519389854307955,0.0006112031368206469,-0.0019643790226623356,-0.007955886722532845,0.004475371969292039,0.004359938706986189
-0.005573837659548312,0.0028597903671960436,0.00508879229993518,-0.008893454888934277,0.0021238218837331983,0.006636593311869839,0.001554518635210659
0.002805670493613972,0.011706647778700693,-0.004136884753221394,-0.009127732288671876,-0.00920967911648746,0.00804261748544787,-0.004779399507395101
0.0017154641119762495,0.010358812370388246,0.004603301359751449,-0.00959900691246276,-0.004998407651751397,0.006354920363344377,0.0015598974865882087
-0.001163986987594721,-0.0015521554740795477,-0.007477379291898744,-0.005812939080417783,-0.00042303480608425867,0.002667778469608205,0.005264038992682668
0.0028669251611222997,0.003334769205143808,0.013672778592601074,-0.0009298226618790013,0.0016535864038193836,0.006238793363521896,0.001966418599786832
-0.006126514768518061,0.004512279971630629,0.0012834123498012993,-0.001873963513614811,0.003397699675900723,-0.005773608083056263,0.0011376932873936587
-0.004876979646270081,0.006074304455994017,-0.0021700924090775485,-0.006379861964542528,0.003555186150636509,-0.0012068904671027705,-0.008151514616247295
0.005799963246200302,0.0012444327567109892,-0.0033579056045564626,-0.004812401075543212,-0.002966825194394578,0.004725015241283338,0.0026323235679339223
-0.0009344294001532317,0.005881230302807291,-0.007105731509547731,0.006156490217953398,-0.002880881955450813,0.008006736363230668,0.007464760513177175
0.004455112085192308,0.0014264623840871257,-0.0013259070526919548,0.003966027287536148,0.00033324442538339453,0.0012647984227358927,-0.0023837532926843786
-7.703566807792505e-05,0.003181977512833503,-0.0033392847342620328,-0.0007268722672428317,-0.010098556891471207,0.00708691372504399,-0.00476297527989352
-0.007961500154863384,-0.007034886095401841,0.0004046021016162224,-0.01273163057506523,-0.010237622623673033,0.007926901544283944,0.00018777121638261304
0.007851539755345999,0.011820463045420825,-0.0068409589130933295,0.0026206697605373453,0.0015110809879218235,-0.002577045460793963,-0.004043711438632621
-0.0008630005809822235,0.004803264467908566,0.009213596896729988,-0.0017177741439234244,-0.009351274634928294,0.0023124400298787256,0.005919683243815749
-0.0009194691433737516,0.009373412831192382,-0.006787382860124632,0.001456995083420733,0.006912759768041856,0.004445716219263864,0.009833425482411817
0.0006731304633006512,-0.00014452052448882388,0.00784367439017631,-0.0018825881762117196,0.00034837319885315635,0.0025273340302059055,-0.00502214747463954
-0.009660538059696829,0.010443341315528987,-0.0009286546265553394,-0.015170815130057518,0.000520483975213845,-0.0004711589016213565,0.0016345928457244135
-7.494377964216447e-05,0.00463399389448314,-0.0043441366067043215,-0.0015187385141062087,0.0035075248119456936,0.0005617705516645438,-0.008684231692893599
-0.004936132290530035,0.011154128500591104,0.002669651320824477,-0.006954000111546008,0.00067119324173344,0.0014642577014504438,0.004600612227248886
0.009646202358898563,0.002982755466852792,-0.006096951776882439,-0.000673477549358354,0.003703956960589636,-0.0034979299554595833,0.0012169421243380617
0.0008426231707219338,0.016279801910990408,0.008046234518180826,-0.0018539228178210342,-0.003893961631926134,-0.005528558331190577,0.0017956970139259014
0.009768529629505274,0.008537844260075091,-0.00876818119510633,0.004563295450111549,0.014679258607741295,0.003484664706538693,0.0029026240508236594
0.002325104859725893,0.01513099038769842,0.0031166100679313516,-0.006127133459815434,0.0003376687266262965,0.004024630252145666,-0.005142403753463697
0.006070277401105802,0.009963025195803337,0.0001982180610313287,-0.008885020235479785,-0.002068716748619126,-0.0006655751592329059,0.007945496702475607
0.0002488658728556195,0.015182898668378832,-0.005131826162848607,-0.001279091261056997,0.006771066810043056,-0.003906986171656786,-2.0017652954670904e-05
0.006269854017350635,-0.00036206260062600414,-0.003136739817384061,-0.002132313807933235,0.003778362689574849,-0.00012400335275720796,0.00628479302374369
0.0019379952771718574,0.004715298369973196,-0.002130492343407683,0.0015881282463853907,0.005991007360822775,-0.0015669493828012735,0.002298473835657863
-0.001437789668791412,0.006624688107660565,-0.006582978988059222,-0.003387672782402604,-0.0021929585705640024,0.002747395186104748,0.009038951384307256
-0.0079600808820191,0.012782559513976562,0.0020363229112223967,0.0035057659823737423,0.012556325026073236,0.005721058253678602,0.0026291764340735705
0.0027659363867534527,0.007672572444455857,-0.0035932516505421176,0.004148596872472202,-0.001098409461836518,0.00632727855471536,0.003384840465814732
-0.001289553704351956,0.0041436345125011155,-0.0029032312648259143,-0.010245907531979527,-0.0008651831311729476,0.01084019761536424,-0.0009085760469344883
0.005841868701414081,0.0012111031626284344,0.007303872649710573,0.00229896240598719,0.012961990992213766,-0.002749413115256784,0.0011598117666568666
-0.003872402349553378,0.0016716023339538664,0.005220427752799091,-0.009794897703232901,0.0029430715180120237,-0.00246646976742844,0.0036933360442873856
-0.0006097056166501819,-0.0021111183541274647,-0.0038538207427659594,-0.0037654796137923793,-0.002948378106904009,-0.0022859686551728892,-0.0011585663831885653
-0.0016461822174074251,0.004453492566855336,-0.0059526644404409735,-0.004155556367415142,-0.006588190424134899,0.004523471798212202,-0.003610638765118585
0.000440372534522403,0.00017789354365103677,0.002078790209058675,-0.000455735674493552,-0.007154961715713226,-0.005416361010990828,-0.0035365752600049136
-0.002793679291814826,0.0015947868208763323,0.00749006325982185,-0.0019579707842257888,0.005444982884061599,-0.009231689263829349,-0.006551148043386763
0.003804803952033082,0.014144981088981066,0.0013307383564001697,0.003656908777927496,-0.006816950976750448,0.0032766647329608334,-0.010129560312680076
-0.010834721025670022,0.0028855631022536936,0.007418939523617252,-0.013488350289212813,-0.0005703655819872917,-0.0028879828290200816,0.007363700636988954
0.001203531358917707,0.013858580478223248,0.005504212689242321,-0.005099941373962995,-0.016127521779200803,-0.0034842593071201383,0.003491170708112246
-0.0054537224998233895,0.005767476900244925,0.001061760038927132,-0.013805282097315736,0.00405886212209379,-0.005346457966968997,0.010042607587966504
-0.0023371037750155293,0.006791636315310163,0.007741242904379827,-0.01125829285841031,0.005317619923656249,0.0008493583599641567,0.0063995286285207145
-0.011251712494451869,0.011617393990520213,-0.004612100875625692,0.002154168629376592,0.0009744728063670792,-0.0030919395430509997,0.003602633643180756
-0.0007600014067263097,0.0025538724252298496,0.009171071465050081,-0.007428535266519895,-0.011529195732058396,0.007001241401386611,0.0051908824057912036
-0.003229877869600365,0.005047028092436662,-0.007184782560031686,-0.006372664934145593,-0.010065326590180328,0.004731381897585932,0.004856876421304774
-0.0010758815974497196,0.008083320812685403,-0.005960195362564459,-0.007094670453514685,0.003106270512257756,-0.0009811239102201408,0.0006663203850423276
0.005972448843267568,0.009018261924082735,0.007512984633688448,0.0006492598216905315,0.00010298084103682126,0.0037713118595330383,-0.0018303530397882168
-0.00306421080273622,-0.0037346604935135207,-0.0012354954324586959,-0.006653651340878341,0.00689446860370218,-0.0038753596349501,0.00013837551025444378
0.00068559372533596,0.0032455499924674983,0.0029445044956761916,-0.005817657688163833,-0.0021107773390229897,0.0001040446058763161,0.004471604242917341
-0.007715191154591659,0.008826894804585464,0.004418823181288181,-0.0006486833351098756,0.0057031843887154,0.005956285053637802,0.014081914658986804
-0.0030928568753016707,0.013964617637850396,0.010910467696511907,-0.005874396177290325,0.0011862671036261924,0.00740977586036045,0.0010394834451315394
-0.0037807484406635243,0.002453638491225354,0.006313493111626209,-0.008281496242225387,0.0007475174446963385,0.0007420732659273212,0.002162018229850246
-0.0005358834982499595,0.005308181684018972,0.004286201162374032,-0.013193849663831728,0.0035360069908974595,0.002939540373533527,0.007950439213225864
-0.009565754085389205,0.0028270223346834734,0.0007108422173534415,-0.00412005430370859,-0.0007385667732902357,0.0017700206217229108,-0.0013887486448511221
-0.002453395818966571,0.006201105801895995,-0.003624069142787549,-0.005431945208156819,0.00040535531782166426,-0.003494990862770826,-0.005927624521013426
-0.00016323465579404982,-0.0031011897036043695,-0.0026144724172482824,-0.002725221982388936,-0.0007874588015414539,-0.0024911602023221023,-0.00017851459568299973
0.002285480814148565,0.012293851549261565,0.00540409671704309,-0.005528250763891889,0.0014853197406505233,0.0010050320563894637,0.009102300245735889
0.010458391539149937,0.01120370682012191,-0.0013998831490539241,-0.008774556067454581,0.009361217381216327,0.006659949254901912,0.007044093840087142
0.002421959259494675,0.007061863798298207,-0.004952069495477312,-0.004676353071878561,-0.005287104943003736,0.003116631672920872,-0.003107811588505685
0.00035852174310967936,0.009993069023078728,0.0014525181196489339,-0.014526821514467785,0.000431795568864063,0.003889765722750171,-0.002822766858251706
0.004678901147456483,0.011979858648952573,0.0010636163703940426,0.007298247162402035,-0.004976938554983598,0.009896223471938742,-0.0031944674173551074
0.002341334960028114,0.007398399852857377,0.001648630482861015,-0.017970390989515195,0.0012305655552739077,0.0012069988569094955,-0.0042999250647275025
0.005972016966594623,0.0030625275099360875,0.007147347824179435,-0.007279277652700767,-0.004135129141832072,-0.004511733908743282,-0.0032261305067414884
0.006775289355166876,0.015003322464006737,-0.0014266818190593494,-0.006847345363588906,0.0059968278033104335,0.0013865150440277637,0.00021182752448633668
-0.002750846739247727,0.007081058995683407,-0.0037946140740371917,-0.010958977846085577,-0.0026534222053521137,0.003715711827648741,-0.0007865262212330315
0.002625696272623864,0.01252708158092414,-0.005225384471706845,-0.008608614208895228,-0.0019215723839847848,0.007376597796385324,-0.0030096822596188725
0.0013087650345777473,0.009517232971103066,0.009874029820436912,-0.007216242198322816,0.0021476004938581015,-0.00041502252782703796,0.010172773661857695
0.0009355546726661404,0.013676131068098906,0.005103154362736609,-0.011835531528927246,0.001505283974829325,0.0012385954981923345,0.004942841070602513
0.012493384577348747,-0.0011380090981600386,0.0019337464858874946,0.0005331863186275116,0.006918289565272238,-0.010211366877427786,-0.00057737945790204
-0.003801136002890162,0.00938541384610324,0.0006466247160913539,8.829260331223409e-05,0.0013275199904149875,0.003138306760755513,0.0038084162718147628
0.0004579033210599397,0.0023144532101802276,-0.0022570611515705004,-0.008099631490535109,0.009242177121487689,0.005411243515445253,-0.002868142553182295
-0.004341525768074749,0.012252784826378092,0.00251875574228283,-0.0052016875901665155,0.000596620863827283,0.003617090300499324,0.006140963047325789
0.004282329782720442,0.0029027540786741276,-0.000775888713595867,-0.0026238027948081366,-0.004769201337851431,0.005760517733691558,-6.480762008178435e-05
-0.002104958638774581,0.007374494639156175,0.006758817192936614,-0.011211083606254078,0.0028603650657665503,-0.0010995523380173176,-0.0009525588890832346
0.006460700986558536,-0.0010921826782708112,-0.004233868772708339,-0.0014141223572148903,-0.0007491616675849419,0.0035955114465853486,-0.008147190921975286
-0.0034132609330215927,0.012494760133649826,-0.002328216012221976,-0.0029311502651492563,-0.011622979442014125,0.0013146938251211377,0.0005076657529361848
-0.006591083687501812,0.0026959719628069133,7.790387104827278e-05,0.0023373866189501944,-0.0031834116832162936,-0.004483805592505269,-0.0014923523119744592
0.0037096207584736856,-0.005166161459851808,-0.004277959134631123,-0.005241388242468037,0.004321379944423496,-0.00514609288096346,0.00048346658131209817
-0.012341590196270954,0.016573015505839346,0.0015502887207555814,-0.010669288917043466,0.0027008847578246895,-0.006420954071878304,0.0027373914587981063
