rohith-poola/MR/Project1/data/mppi_joint_sequences_2025-04-17_16-22-21.csv
iteration,sequence_index,timestep_index,joint_0,joint_1,joint_2,joint_3,joint_4,joint_5,joint_6
1,0,0,0.1911928318826726,-0.40948638498039075,0.0861025195082932,-0.8405599001488088,0.002253673896440331,0.20710229288015658,0.0
1,0,1,0.3328977590489969,-0.5562517355919231,0.10733711672982711,-1.2549946824798202,0.002280976455337301,0.30847411072620845,0.0
1,0,2,0.4375500477567149,-0.6089239028566101,0.12177605026724486,-1.5536884763291425,0.002124507938921353,0.37854750060473363,0.0
1,0,3,0.5047756230667207,-0.5862098400723824,0.13777834131939187,-1.7841280412486769,0.0022186023769975006,0.42965534323066296,0.0
1,0,4,0.5451473715636569,-0.4807830025995067,0.15881776866830397,-1.9527093911584394,0.0028528681919766873,0.46350560147491005,0.0
1,0,5,0.5691914707821026,-0.28376853626405235,0.18212884163254364,-2.051676326780017,0.004096985745667748,0.4776543388720235,0.0
1,0,6,0.584021792604794,-0.006655683644720232,0.20032369944999914,-2.070150140920856,0.005494693385969774,0.46909178397134216,0.0
1,0,7,0.5952553574667766,0.3109577793249059,0.2071683797867306,-2.005367168414347,0.00627676174322228,0.43939341080939426,0.0
1,0,8,0.607378702497867,0.6277118900857536,0.20344807816858143,-1.8656441737037068,0.0062941712104944494,0.39407769199648474,0.0
1,0,9,0.6231413986876891,0.9267395557790157,0.1944705063284427,-1.661120548263614,0.0059536932287207285,0.33700996523609345,0.0
1,1,0,0.2570675748456027,-0.4821809107437352,0.12056668759935557,-0.9666208209687445,-0.009243464552946569,0.2722180329870678,0.03615943485484865
1,1,1,0.4048697958971891,-0.602518152147291,0.16187700337696478,-1.2431393044678039,0.0033918427905995146,0.2555084228960839,-0.00892923626504871
1,1,2,0.41798350987614075,-0.5022785422515545,0.10809966876319736,-1.6995443374943657,0.02516504415076348,0.37236223274316105,0.04909486004993526
1,1,3,0.5431416221599314,-0.6522921805496619,0.1593512924157637,-1.819224545543588,-0.05185343857891026,0.36703464096425287,-0.02897980181550047
1,1,4,0.6029411016800303,-0.6112629690557646,0.16983263407870378,-1.9406688364227394,-0.02493556681794147,0.46652067528742536,-0.0031414015503455025
1,1,5,0.506809707913126,-0.19649458073234444,0.1681294139763282,-2.044664499211857,-0.045111878830895964,0.42292480730360615,0.0071096192068929275
1,1,6,0.6197517539459533,-0.07001750221956209,0.18909808482468143,-1.9996154059827616,-0.017157823318208025,0.44373666860444805,-0.0584909218725352
1,1,7,0.49641315916880224,0.3006191400954083,0.23668135000394352,-1.9715727924744302,-0.05520560404726556,0.3446698797742884,0.041003180937314344
1,1,8,0.6491084260907511,0.6297994264776785,0.1462597904705806,-1.8396542021317317,0.042940253053758565,0.3447877428205492,0.10008994829330181
1,1,9,0.6251863688351551,0.9586561758338674,0.21604448610448262,-1.7988581250653197,0.0851063488628733,0.38032887802646687,0.09174521040391179
1,2,0,0.16400322670509238,-0.37282332061552764,0.14049373491050418,-0.8875893369846632,0.009824202777617351,0.23578659828207288,0.011025167274534887
1,2,1,0.2798808315657941,-0.4315593186264323,0.10283490466551609,-1.2753665385477486,0.019232507885655642,0.36375204954140183,-0.02675392416241966
1,2,2,0.41022672500521135,-0.6834432180913047,0.1170400595276778,-1.5509076926430836,0.04641940484955928,0.34811046973485404,-0.08052549612410083
1,2,3,0.47051044955032173,-0.6498621039292725,0.1340539747577524,-1.7431725006194305,-0.08075760522668096,0.46304648815178573,-0.053459334123650386
1,2,4,0.5696814428540398,-0.4894514704959438,0.14174899416887488,-2.0241835790173863,0.0692444419571306,0.4035849181523522,0.036489527479931436
1,2,5,0.5714293304753896,-0.23734531664687722,0.11986359831083981,-2.0290313683707124,0.027657147274137785,0.4223269765273709,0.0026264068742490616
1,2,6,0.6361652715710922,-0.009512745825069216,0.20500222007340038,-2.0477236115126316,0.053612945091448455,0.44131396921334287,-0.026185512444600042
1,2,7,0.5386890849564447,0.3574550365913416,0.2744472652812355,-2.045142790408394,0.00040926492550222553,0.3738858666285683,-0.015257215628959079
1,2,8,0.615759418441166,0.7060553238776731,0.22725030310510194,-1.9619574285272123,-0.0445132364885224,0.3705549780416377,0.027908423180341764
1,2,9,0.5218448691862108,0.91746497051254,0.10080003142465793,-1.5880136903042625,-0.023305901771020827,0.3442390435471013,0.040523577264001756
1,3,0,0.20945135507404083,-0.43997101289616225,0.06568982872118828,-0.8858237729041192,-0.009390278995284924,0.16039605281300057,-0.019004154426984627
1,3,1,0.26618315628547706,-0.551721077067393,0.05989839742380573,-1.1532210118107733,-0.03654245011719713,0.28564449155597055,-0.005955117938496107
1,3,2,0.42868433126587824,-0.6467496013947299,0.10254561064970445,-1.5827503777582694,-0.00234473805135531,0.3908239441713717,0.017879961014604224
1,3,3,0.5364657685627541,-0.6037753043344362,0.03609398632424983,-1.8017577391069057,0.006526182951241567,0.4997457200690377,-0.014070262753549912
1,3,4,0.5347420029103757,-0.4667331948250369,0.1440436912581923,-1.938240491259639,0.014478333469140275,0.5519613883356347,0.00706671851436378
1,3,5,0.5445782792730329,-0.2349419254225172,0.1058458083951487,-1.9930874867261135,-0.022162928045518143,0.4630740025736548,-0.07700783264270931
1,3,6,0.5970132577456383,-0.044445989807425375,0.14691362298383218,-2.0145611875009126,-0.01131916477319095,0.49073952408843563,0.011942838639297832
1,3,7,0.5718477306691876,0.288335249024382,0.2379587804206376,-1.8381615771521416,0.07546770746432754,0.38602672233649954,-0.05585508876795647
1,3,8,0.623481354137281,0.6045787029173194,0.214102480340048,-1.95248568900721,0.048594248372882766,0.3313632436956896,-0.009925017956510872
1,3,9,0.6108518574663601,0.8340510011177431,0.08411917371434946,-1.6620209573252527,-0.12431785974232844,0.3256966454696175,-0.00877475112565969
1,4,0,0.18275470391002938,-0.3787089337483174,0.05643131046152383,-0.8297771131133596,0.01960771527017916,0.1549438787031263,0.06492985325108083
1,4,1,0.4100319762755879,-0.701337392959614,0.0948329677132898,-1.2485428117536783,-0.03673770496053931,0.30887510128014894,0.018521699939107513
1,4,2,0.39531955834457466,-0.5893036353909618,0.1063649983957005,-1.5601706559310187,0.011055052465559812,0.31084629350538195,-0.06041777649551451
1,4,3,0.45985480011415303,-0.5626412783938083,0.10775887388411971,-1.7589918946188194,-0.007588649574144081,0.4761220815509202,0.0698281664841287
1,4,4,0.5900315790536191,-0.4171498777581968,0.0963000562491256,-1.9490315615773084,0.022169879247095965,0.5084319340869567,-0.0005436358276314995
1,4,5,0.5953981166921097,-0.4100312424737873,0.192800989080871,-2.0690784287118245,0.003301227630868395,0.489711889466127,0.037352568813730135
1,4,6,0.6238676340124413,0.03167571398032023,0.16916326355744982,-2.0677719360769142,0.025849462993920033,0.41396659826944815,0.015207258193184468
1,4,7,0.6478185008430188,0.25566456710193614,0.26264601716568453,-1.9443482104772731,0.06468764243484497,0.45349094964386993,-0.00440562864141246
1,4,8,0.5369603475148313,0.6401023485617665,0.29340970717426906,-1.9291117691075863,0.02824846185471706,0.4487735996877394,-0.002491499346923866
1,4,9,0.6309138486344893,0.9175957119950814,0.2528554840488295,-1.6683428356808732,0.0342709086573214,0.38941868175137984,-0.016850200920458025
1,5,0,0.22221249024258458,-0.3808420294804359,-0.07408953704805496,-0.8507252758644496,-0.0607245044067635,0.29147692995753505,0.05021874526651132
1,5,1,0.38045801497637255,-0.5035345897135093,0.09784053091516004,-1.2674321236219594,0.030093134599936892,0.2818582612995859,-0.033780458646256874
1,5,2,0.40016610069849406,-0.580884913846092,0.08163091702070233,-1.6068610709466102,0.014686864269770178,0.3988784982838133,-0.015289349713383719
1,5,3,0.42118107762845813,-0.5148666149392471,0.12555696363837138,-1.7146833945827407,-0.009936525453830787,0.4557962865351134,-0.04849845570158169
1,5,4,0.47045264771867645,-0.4777233914419592,0.1256562592308409,-1.9351018513779523,-0.06743338425330006,0.5354754496075358,-0.07746818727487234
1,5,5,0.5611298678092042,-0.35752578756052983,0.15545790924491856,-2.0265777878284563,0.015380859684741063,0.35573688200180925,0.09750982017201892
1,5,6,0.6322271239339718,-0.09298147246760018,0.12186817683000965,-2.092829864958936,-0.07625234825227466,0.41366186563965907,-0.016549496052864262
1,5,7,0.6259631795438207,0.2994879582573927,0.23486951148693733,-2.0121626436283933,0.046884585517624255,0.36119730344574175,0.0017102834716877194
1,5,8,0.6190551175938733,0.6110036697519601,0.23731400218217008,-1.837664574610957,-0.029829687737322932,0.3745850356538934,-0.06554170724365328
1,5,9,0.6867401926942744,0.9723118244132459,0.26670173154435156,-1.5830589789796525,-0.008056891780541774,0.39763155130885164,0.09762547072043146
1,6,0,0.24980785609404071,-0.44512917668672386,0.11395100385098136,-0.8047992431293498,0.061028228877041034,0.2066777349785275,-0.029975619798708247
1,6,1,0.29974083691311615,-0.5777759030454392,0.004561034901066477,-1.1805289312277727,0.023503700700655356,0.3112794756993213,-0.009907536521418497
1,6,2,0.4596871413618361,-0.6138168745681745,0.14295125029448819,-1.6088707791782983,0.00989596206660209,0.36300337669640365,0.01605665742931707
1,6,3,0.4960017541620012,-0.6242130035397001,0.14148375859356296,-1.705339443329622,-0.07852292415552231,0.3056031367264591,-0.003593210730387412
1,6,4,0.5552570378361152,-0.44657985119429044,0.1538401666655541,-1.9511081455681365,0.06424608277425646,0.39412934921672116,0.10272109283609031
1,6,5,0.5861214139120654,-0.19628682227194083,0.19582708544750382,-2.0035545639714423,-0.0715655125560443,0.5306403624158821,0.01872522630446348
1,6,6,0.5590748934761942,0.04236444535337548,0.19256529729505772,-2.1034955257706955,0.09428764292894767,0.5024693765009627,-0.012837199152323321
1,6,7,0.6022636921261727,0.3055205453040629,0.18119124394138914,-2.090687787537696,0.04124369454051838,0.3978589541319443,0.037516440105640946
1,6,8,0.58903324640357,0.6699009346355175,0.19557140702765102,-1.8144228380707057,-0.0421698839256538,0.4072941463731559,-0.01987834938583467
1,6,9,0.6089907179381638,0.86214850217227,0.20065495820944787,-1.6640052566463186,0.08885765328034945,0.34808763191885783,-0.05216657256704232
1,7,0,0.2190619881693745,-0.3734173689764147,0.17461710293669658,-0.8959519602815231,0.05257761893876336,0.24531553504398332,0.03291414475371303
1,7,1,0.35154587909102064,-0.4516628404843609,0.08878767884146674,-1.2583081889270034,0.012196526925935475,0.2880342437864864,0.034962516987428194
1,7,2,0.4443120223711075,-0.5870055002927799,0.05903427007383516,-1.5134976536207074,-0.022530175210777745,0.2880668752518638,-0.05845198945523797
1,7,3,0.5471976643961227,-0.6675418956522161,0.19127646006821972,-1.7892951884836708,-0.03169096587708597,0.3972624115139319,0.016665744724067896
1,7,4,0.5010745755348536,-0.4034170606833447,0.11061340848457679,-1.96990486958958,0.037284512582140536,0.5519733881772203,-0.06304711651493293
1,7,5,0.5541277344099363,-0.27273817592261124,0.1916816568673743,-2.081769605866755,-0.007917220057352216,0.49096211288060965,0.0011720078413553728
1,7,6,0.6785129416887515,-0.018088044819919886,0.2638370509231094,-2.0934453486871556,0.04032439056150247,0.45701566778618546,0.01296250628260063
1,7,7,0.6609046095669587,0.23001544366561322,0.18784865846337825,-1.9677905098017978,0.008771262545186153,0.5025303583637668,0.005507527579634519
1,7,8,0.6381004586645009,0.6342457398138834,0.17519684814516673,-1.8516127974295316,-0.011824681792543371,0.3524754531448496,0.054417063283824896
1,7,9,0.6126065179660783,0.942257440990009,0.22493245865789818,-1.6425177121402739,0.03991733964058459,0.35797497565997943,-0.015343115582812043
1,8,0,0.17783966870683762,-0.4084513668318234,0.068726400897817,-0.8043916082426101,0.11573918941304231,0.2582558068041585,-0.005106173493445271
1,8,1,0.2977704489608041,-0.6136424124662881,0.08963835677509359,-1.2584427331392656,0.09159984343513224,0.3081321394731089,-0.038311317013445534
1,8,2,0.40440265986261503,-0.5935390210460452,0.12574119327928956,-1.568334013154772,0.021592517148922748,0.3644865434142235,-0.02321660869473416
1,8,3,0.4945434584707178,-0.5821505957178338,0.1465392413894868,-1.8095026728237065,-0.04044433922098547,0.47114826020418954,0.08034041556896467
